;FLAVOR:UltiGCode
;TIME:60
;MATERIAL:52
;MATERIAL2:0
;NOZZLE_DIAMETER:0.400000
;NOZZLE_DIAMETER2:0.400000


;Layer count: 5
;LAYER:0
M107
G0 F1000  Z0.3

G0 F1000	 X35.85	 Y42.2	G1	 X52.26 Y13.57 E 32.9995
G0 F1000	 X35.85	 Y42.2	G1	 X7.33 Y53.24 E	30.5822
G0 F1000	 X69.18	 Y83.13	G1	 X84.05 Y101.04 E	23.2784
G0 F1000	 X37.61	 Y88.83	G1	 X32.53 Y92.59 E	6.3201
G0 F1000	 X37.61	 Y88.83	G1	 X69.18 Y83.13 E	32.0804
G0 F1000	 X52.56	 Y58.91	G1	 X35.85 Y42.2 E	23.6315
G0 F1000	 X52.56	 Y58.91	G1	 X37.61 Y88.83 E	33.4471
G0 F1000	 X82.37	 Y52.04	G1	 X85.33 Y49.69 E	3.7794
G0 F1000	 X82.37	 Y52.04	G1	 X69.18 Y83.13 E	33.7722
G0 F1000	 X82.37	 Y52.04	G1	 X52.56 Y58.91 E	30.5914
G0 F1000	 X70.75	 Y126.82	G1	 X84.05 Y101.04 E	29.0086  
G0 F1000	 X106.17	 Y123.51	G1	 X77.17 Y132.21 E	30.2769
G0 F1000	 X111.42	 Y88.68	G1	 X84.05 Y101.04 E	30.0314
G0 F1000	 X118.02	 Y95.86	G1	 X106.17 Y123.51 E	30.0823
 
G0 F1000	 X109.43	 Y157.05	G1	 X107.05 Y159.56 E	3.4590
G0 F1000	 X117.2	 Y135.16	G1	 X106.17 Y123.51 E	16.0432
G0 F1000	 X117.2	 Y135.16	G1	 X109.43 Y157.05 E	23.2281
G0 F1000	 X140.29	 Y125.6	G1	 X145.61 Y119.9 E	7.7969
G0 F1000	 X140.29	 Y125.6	G1	 X117.2 Y135.16 E	24.9908
G0 F1000	 X134.45	 Y150.41	G1	 X152.98 Y169.43 E	26.5541
G0 F1000	 X134.45	 Y150.41	G1	 X109.43 Y157.05 E	25.8861
G0 F1000	 X134.45	 Y150.41	G1	 X140.29 Y125.6 E	25.4881
					
G0 F1000	 X103.36	 Y79.02	G1	 X115.71 Y93.84 E	19.2913
G0 F1000	 X115.71	 Y93.84	G1	 X135.47 Y111.12 E	26.2499
G0 F1000	 X135.47	 Y111.12	G1	 X153.81 Y127 E	24.2596
G0 F1000	 X153.81	 Y127	G1	 X162.63 Y141.11 E	16.6398
G0 F1000	 X162.63	 Y141.11	G1	 X163.34 Y151.34 E	10.2546
G0 F1000	 X163.34	 Y151.34	G1	 X159.81 Y162.28 E	11.4954
G0 F1000	 X159.81	 Y162.28	G1	 X152.4 Y170.04 E	10.7297
G0 F1000	 X152.4	 Y170.04	G1	 X141.11 Y176.04 E	12.7853
G0 F1000	 X141.11	 Y176.04	G1	 X129.12 Y175.33 E	12.0110
G0 F1000	 X129.12	 Y175.33	G1	 X119.94 Y170.74 E	10.2636
G0 F1000	 X119.94	 Y170.74	G1	 X101.25 Y154.52 E	24.7468
G0 F1000	 X101.25	 Y154.52	G1	 X77.26 Y132.29 E	32.7062
G0 F1000	 X77.26	 Y132.29	G1	 X68.44 Y124.88 E	11.5196
G0 F1000	 X68.44	 Y124.88	G1	 X48.33 Y107.24 E	26.7504
G0 F1000	 X48.33	 Y107.24	G1	 X23.99 Y84.67 E	33.1940
G0 F1000	 X23.99	 Y84.67	G1	 X18.7 Y76.55 E	9.6912
G0 F1000	 X18.7	 Y76.55	G1	 X7.41 Y53.62 E	25.5587
G0 F1000	 X7.41	 Y53.62	G1	 X2.82 Y32.46 E	21.6521
G0 F1000	 X2.82	 Y32.46	G1	 X5.64 Y16.93 E	15.7840
G0 F1000	 X5.64	 Y16.93	G1	 X10.94 Y8.47 E	9.9831
G0 F1000	 X10.94	 Y8.47	G1	 X18.7 Y5.29 E	8.3863
G0 F1000	 X18.7	 Y5.29	G1	 X27.16 Y3.88 E	8.5767
G0 F1000	 X27.16	 Y3.88	G1	 X38.1 Y6 E	11.1435
G0 F1000	 X38.1	 Y6	G1	 X44.1 Y8.47 E	6.4885
G0 F1000	 X44.1	 Y8.47	G1	 X52.56 Y13.76 E	9.9778
G0 F1000	 X52.56	 Y13.76	G1	 X60.32 Y20.46 E	10.2522
G0 F1000	 X60.32	 Y20.46	G1	 X69.85 Y29.63 E	13.2253
G0 F1000	 X69.85	 Y29.63	G1	 X82.55 Y45.16 E	20.0617
G0 F1000	 X82.55	 Y45.16	G1	 X103.36 Y79.02 E	39.7436


G0 F1000	 X0.04	 Y0.07 Z0.5
G1	 X0.04 Y0.07 E	0.0000
 
 
 
G0 F1000	 X0.04	 Y0.07	G1	 X0.04 Y0.07 E	0.0000
G0 F1000	 X35.85	 Y42.2	G1	 X52.26 Y13.57 E	32.9995
G0 F1000	 X35.85	 Y42.2	G1	 X7.33 Y53.24 E	30.5822
G0 F1000	 X69.18	 Y83.13	G1	 X84.05 Y101.04 E	23.2784
G0 F1000	 X37.61	 Y88.83	G1	 X32.53 Y92.59 E	6.3201
G0 F1000	 X37.61	 Y88.83	G1	 X69.18 Y83.13 E	32.0804
G0 F1000	 X52.56	 Y58.91	G1	 X35.85 Y42.2 E	23.6315
G0 F1000	 X52.56	 Y58.91	G1	 X37.61 Y88.83 E	33.4471
G0 F1000	 X82.37	 Y52.04	G1	 X85.33 Y49.69 E	3.7794
G0 F1000	 X82.37	 Y52.04	G1	 X69.18 Y83.13 E	33.7722
G0 F1000	 X82.37	 Y52.04	G1	 X52.56 Y58.91 E	30.5914
G0 F1000	 X70.75	 Y126.82	G1	 X84.05 Y101.04 E	29.0086
 
 
G0 F1000	 X106.17	 Y123.51	G1	 X77.17 Y132.21 E	30.2769
G0 F1000	 X111.42	 Y88.68	G1	 X84.05 Y101.04 E	30.0314
G0 F1000	 X118.02	 Y95.86	G1	 X106.17 Y123.51 E	30.0823
 
G0 F1000	 X109.43	 Y157.05	G1	 X107.05 Y159.56 E	3.4590
G0 F1000	 X117.2	 Y135.16	G1	 X106.17 Y123.51 E	16.0432
G0 F1000	 X117.2	 Y135.16	G1	 X109.43 Y157.05 E	23.2281
G0 F1000	 X140.29	 Y125.6	G1	 X145.61 Y119.9 E	7.7969
G0 F1000	 X140.29	 Y125.6	G1	 X117.2 Y135.16 E	24.9908
G0 F1000	 X134.45	 Y150.41	G1	 X152.98 Y169.43 E	26.5541
G0 F1000	 X134.45	 Y150.41	G1	 X109.43 Y157.05 E	25.8861
G0 F1000	 X134.45	 Y150.41	G1	 X140.29 Y125.6 E	25.4881
					
G0 F1000	 X103.36	 Y79.02	G1	 X115.71 Y93.84 E	19.2913
G0 F1000	 X115.71	 Y93.84	G1	 X135.47 Y111.12 E	26.2499
G0 F1000	 X135.47	 Y111.12	G1	 X153.81 Y127 E	24.2596
G0 F1000	 X153.81	 Y127	G1	 X162.63 Y141.11 E	16.6398
G0 F1000	 X162.63	 Y141.11	G1	 X163.34 Y151.34 E	10.2546
G0 F1000	 X163.34	 Y151.34	G1	 X159.81 Y162.28 E	11.4954
G0 F1000	 X159.81	 Y162.28	G1	 X152.4 Y170.04 E	10.7297
G0 F1000	 X152.4	 Y170.04	G1	 X141.11 Y176.04 E	12.7853
G0 F1000	 X141.11	 Y176.04	G1	 X129.12 Y175.33 E	12.0110
G0 F1000	 X129.12	 Y175.33	G1	 X119.94 Y170.74 E	10.2636
G0 F1000	 X119.94	 Y170.74	G1	 X101.25 Y154.52 E	24.7468
G0 F1000	 X101.25	 Y154.52	G1	 X77.26 Y132.29 E	32.7062
G0 F1000	 X77.26	 Y132.29	G1	 X68.44 Y124.88 E	11.5196
G0 F1000	 X68.44	 Y124.88	G1	 X48.33 Y107.24 E	26.7504
G0 F1000	 X48.33	 Y107.24	G1	 X23.99 Y84.67 E	33.1940
G0 F1000	 X23.99	 Y84.67	G1	 X18.7 Y76.55 E	9.6912
G0 F1000	 X18.7	 Y76.55	G1	 X7.41 Y53.62 E	25.5587
G0 F1000	 X7.41	 Y53.62	G1	 X2.82 Y32.46 E	21.6521
G0 F1000	 X2.82	 Y32.46	G1	 X5.64 Y16.93 E	15.7840
G0 F1000	 X5.64	 Y16.93	G1	 X10.94 Y8.47 E	9.9831
G0 F1000	 X10.94	 Y8.47	G1	 X18.7 Y5.29 E	8.3863
G0 F1000	 X18.7	 Y5.29	G1	 X27.16 Y3.88 E	8.5767
G0 F1000	 X27.16	 Y3.88	G1	 X38.1 Y6 E	11.1435
G0 F1000	 X38.1	 Y6	G1	 X44.1 Y8.47 E	6.4885
G0 F1000	 X44.1	 Y8.47	G1	 X52.56 Y13.76 E	9.9778
G0 F1000	 X52.56	 Y13.76	G1	 X60.32 Y20.46 E	10.2522
G0 F1000	 X60.32	 Y20.46	G1	 X69.85 Y29.63 E	13.2253
G0 F1000	 X69.85	 Y29.63	G1	 X82.55 Y45.16 E	20.0617
G0 F1000	 X82.55	 Y45.16	G1	 X103.36 Y79.02 E	39.7436
G0 F1000	 X0.04	 Y0.07 Z0.7
G1	 X0.04 Y0.07 E	0.0000
 
 
 
G0 F1000	 X0.04	 Y0.07	G1	 X0.04 Y0.07 E	0.0000
G0 F1000	 X35.85	 Y42.2	G1	 X52.26 Y13.57 E	32.9995
G0 F1000	 X35.85	 Y42.2	G1	 X7.33 Y53.24 E	30.5822
G0 F1000	 X69.18	 Y83.13	G1	 X84.05 Y101.04 E	23.2784
G0 F1000	 X37.61	 Y88.83	G1	 X32.53 Y92.59 E	6.3201
G0 F1000	 X37.61	 Y88.83	G1	 X69.18 Y83.13 E	32.0804
G0 F1000	 X52.56	 Y58.91	G1	 X35.85 Y42.2 E	23.6315
G0 F1000	 X52.56	 Y58.91	G1	 X37.61 Y88.83 E	33.4471
G0 F1000	 X82.37	 Y52.04	G1	 X85.33 Y49.69 E	3.7794
G0 F1000	 X82.37	 Y52.04	G1	 X69.18 Y83.13 E	33.7722
G0 F1000	 X82.37	 Y52.04	G1	 X52.56 Y58.91 E	30.5914
G0 F1000	 X70.75	 Y126.82	G1	 X84.05 Y101.04 E	29.0086
 
 
G0 F1000	 X106.17	 Y123.51	G1	 X77.17 Y132.21 E	30.2769
G0 F1000	 X111.42	 Y88.68	G1	 X84.05 Y101.04 E	30.0314
G0 F1000	 X118.02	 Y95.86	G1	 X106.17 Y123.51 E	30.0823
 
G0 F1000	 X109.43	 Y157.05	G1	 X107.05 Y159.56 E	3.4590
G0 F1000	 X117.2	 Y135.16	G1	 X106.17 Y123.51 E	16.0432
G0 F1000	 X117.2	 Y135.16	G1	 X109.43 Y157.05 E	23.2281
G0 F1000	 X140.29	 Y125.6	G1	 X145.61 Y119.9 E	7.7969
G0 F1000	 X140.29	 Y125.6	G1	 X117.2 Y135.16 E	24.9908
G0 F1000	 X134.45	 Y150.41	G1	 X152.98 Y169.43 E	26.5541
G0 F1000	 X134.45	 Y150.41	G1	 X109.43 Y157.05 E	25.8861
G0 F1000	 X134.45	 Y150.41	G1	 X140.29 Y125.6 E	25.4881
					
G0 F1000	 X103.36	 Y79.02	G1	 X115.71 Y93.84 E	19.2913
G0 F1000	 X115.71	 Y93.84	G1	 X135.47 Y111.12 E	26.2499
G0 F1000	 X135.47	 Y111.12	G1	 X153.81 Y127 E	24.2596
G0 F1000	 X153.81	 Y127	G1	 X162.63 Y141.11 E	16.6398
G0 F1000	 X162.63	 Y141.11	G1	 X163.34 Y151.34 E	10.2546
G0 F1000	 X163.34	 Y151.34	G1	 X159.81 Y162.28 E	11.4954
G0 F1000	 X159.81	 Y162.28	G1	 X152.4 Y170.04 E	10.7297
G0 F1000	 X152.4	 Y170.04	G1	 X141.11 Y176.04 E	12.7853
G0 F1000	 X141.11	 Y176.04	G1	 X129.12 Y175.33 E	12.0110
G0 F1000	 X129.12	 Y175.33	G1	 X119.94 Y170.74 E	10.2636
G0 F1000	 X119.94	 Y170.74	G1	 X101.25 Y154.52 E	24.7468
G0 F1000	 X101.25	 Y154.52	G1	 X77.26 Y132.29 E	32.7062
G0 F1000	 X77.26	 Y132.29	G1	 X68.44 Y124.88 E	11.5196
G0 F1000	 X68.44	 Y124.88	G1	 X48.33 Y107.24 E	26.7504
G0 F1000	 X48.33	 Y107.24	G1	 X23.99 Y84.67 E	33.1940
G0 F1000	 X23.99	 Y84.67	G1	 X18.7 Y76.55 E	9.6912
G0 F1000	 X18.7	 Y76.55	G1	 X7.41 Y53.62 E	25.5587
G0 F1000	 X7.41	 Y53.62	G1	 X2.82 Y32.46 E	21.6521
G0 F1000	 X2.82	 Y32.46	G1	 X5.64 Y16.93 E	15.7840
G0 F1000	 X5.64	 Y16.93	G1	 X10.94 Y8.47 E	9.9831
G0 F1000	 X10.94	 Y8.47	G1	 X18.7 Y5.29 E	8.3863
G0 F1000	 X18.7	 Y5.29	G1	 X27.16 Y3.88 E	8.5767
G0 F1000	 X27.16	 Y3.88	G1	 X38.1 Y6 E	11.1435
G0 F1000	 X38.1	 Y6	G1	 X44.1 Y8.47 E	6.4885
G0 F1000	 X44.1	 Y8.47	G1	 X52.56 Y13.76 E	9.9778
G0 F1000	 X52.56	 Y13.76	G1	 X60.32 Y20.46 E	10.2522
G0 F1000	 X60.32	 Y20.46	G1	 X69.85 Y29.63 E	13.2253
G0 F1000	 X69.85	 Y29.63	G1	 X82.55 Y45.16 E	20.0617
G0 F1000	 X82.55	 Y45.16	G1	 X103.36 Y79.02 E	39.7436


G0 F1000	 X0.04	 Y0.07 Z0.9
G1	 X0.04 Y0.07 E	0.0000
 
 
 
G0 F1000	 X0.04	 Y0.07	G1	 X0.04 Y0.07 E	0.0000
G0 F1000	 X35.85	 Y42.2	G1	 X52.26 Y13.57 E	32.9995
G0 F1000	 X35.85	 Y42.2	G1	 X7.33 Y53.24 E	30.5822
G0 F1000	 X69.18	 Y83.13	G1	 X84.05 Y101.04 E	23.2784
G0 F1000	 X37.61	 Y88.83	G1	 X32.53 Y92.59 E	6.3201
G0 F1000	 X37.61	 Y88.83	G1	 X69.18 Y83.13 E	32.0804
G0 F1000	 X52.56	 Y58.91	G1	 X35.85 Y42.2 E	23.6315
G0 F1000	 X52.56	 Y58.91	G1	 X37.61 Y88.83 E	33.4471
G0 F1000	 X82.37	 Y52.04	G1	 X85.33 Y49.69 E	3.7794
G0 F1000	 X82.37	 Y52.04	G1	 X69.18 Y83.13 E	33.7722
G0 F1000	 X82.37	 Y52.04	G1	 X52.56 Y58.91 E	30.5914
G0 F1000	 X70.75	 Y126.82	G1	 X84.05 Y101.04 E	29.0086
 
 
G0 F1000	 X106.17	 Y123.51	G1	 X77.17 Y132.21 E	30.2769
G0 F1000	 X111.42	 Y88.68	G1	 X84.05 Y101.04 E	30.0314
G0 F1000	 X118.02	 Y95.86	G1	 X106.17 Y123.51 E	30.0823
 
G0 F1000	 X109.43	 Y157.05	G1	 X107.05 Y159.56 E	3.4590
G0 F1000	 X117.2	 Y135.16	G1	 X106.17 Y123.51 E	16.0432
G0 F1000	 X117.2	 Y135.16	G1	 X109.43 Y157.05 E	23.2281
G0 F1000	 X140.29	 Y125.6	G1	 X145.61 Y119.9 E	7.7969
G0 F1000	 X140.29	 Y125.6	G1	 X117.2 Y135.16 E	24.9908
G0 F1000	 X134.45	 Y150.41	G1	 X152.98 Y169.43 E	26.5541
G0 F1000	 X134.45	 Y150.41	G1	 X109.43 Y157.05 E	25.8861
G0 F1000	 X134.45	 Y150.41	G1	 X140.29 Y125.6 E	25.4881
					
G0 F1000	 X103.36	 Y79.02	G1	 X115.71 Y93.84 E	19.2913
G0 F1000	 X115.71	 Y93.84	G1	 X135.47 Y111.12 E	26.2499
G0 F1000	 X135.47	 Y111.12	G1	 X153.81 Y127 E	24.2596
G0 F1000	 X153.81	 Y127	G1	 X162.63 Y141.11 E	16.6398
G0 F1000	 X162.63	 Y141.11	G1	 X163.34 Y151.34 E	10.2546
G0 F1000	 X163.34	 Y151.34	G1	 X159.81 Y162.28 E	11.4954
G0 F1000	 X159.81	 Y162.28	G1	 X152.4 Y170.04 E	10.7297
G0 F1000	 X152.4	 Y170.04	G1	 X141.11 Y176.04 E	12.7853
G0 F1000	 X141.11	 Y176.04	G1	 X129.12 Y175.33 E	12.0110
G0 F1000	 X129.12	 Y175.33	G1	 X119.94 Y170.74 E	10.2636
G0 F1000	 X119.94	 Y170.74	G1	 X101.25 Y154.52 E	24.7468
G0 F1000	 X101.25	 Y154.52	G1	 X77.26 Y132.29 E	32.7062
G0 F1000	 X77.26	 Y132.29	G1	 X68.44 Y124.88 E	11.5196
G0 F1000	 X68.44	 Y124.88	G1	 X48.33 Y107.24 E	26.7504
G0 F1000	 X48.33	 Y107.24	G1	 X23.99 Y84.67 E	33.1940
G0 F1000	 X23.99	 Y84.67	G1	 X18.7 Y76.55 E	9.6912
G0 F1000	 X18.7	 Y76.55	G1	 X7.41 Y53.62 E	25.5587
G0 F1000	 X7.41	 Y53.62	G1	 X2.82 Y32.46 E	21.6521
G0 F1000	 X2.82	 Y32.46	G1	 X5.64 Y16.93 E	15.7840
G0 F1000	 X5.64	 Y16.93	G1	 X10.94 Y8.47 E	9.9831
G0 F1000	 X10.94	 Y8.47	G1	 X18.7 Y5.29 E	8.3863
G0 F1000	 X18.7	 Y5.29	G1	 X27.16 Y3.88 E	8.5767
G0 F1000	 X27.16	 Y3.88	G1	 X38.1 Y6 E	11.1435
G0 F1000	 X38.1	 Y6	G1	 X44.1 Y8.47 E	6.4885
G0 F1000	 X44.1	 Y8.47	G1	 X52.56 Y13.76 E	9.9778
G0 F1000	 X52.56	 Y13.76	G1	 X60.32 Y20.46 E	10.2522
G0 F1000	 X60.32	 Y20.46	G1	 X69.85 Y29.63 E	13.2253
G0 F1000	 X69.85	 Y29.63	G1	 X82.55 Y45.16 E	20.0617
G0 F1000	 X82.55	 Y45.16	G1	 X103.36 Y79.02 E	39.7436

G0 F1000	 X0.04	 Y0.07 Z1.1
G1	 X0.04 Y0.07 E	0.0000
 
 
 
G0 F1000	 X0.04	 Y0.07	G1	 X0.04 Y0.07 E	0.0000
G0 F1000	 X35.85	 Y42.2	G1	 X52.26 Y13.57 E	32.9995
G0 F1000	 X35.85	 Y42.2	G1	 X7.33 Y53.24 E	30.5822
G0 F1000	 X69.18	 Y83.13	G1	 X84.05 Y101.04 E	23.2784
G0 F1000	 X37.61	 Y88.83	G1	 X32.53 Y92.59 E	6.3201
G0 F1000	 X37.61	 Y88.83	G1	 X69.18 Y83.13 E	32.0804
G0 F1000	 X52.56	 Y58.91	G1	 X35.85 Y42.2 E	23.6315
G0 F1000	 X52.56	 Y58.91	G1	 X37.61 Y88.83 E	33.4471
G0 F1000	 X82.37	 Y52.04	G1	 X85.33 Y49.69 E	3.7794
G0 F1000	 X82.37	 Y52.04	G1	 X69.18 Y83.13 E	33.7722
G0 F1000	 X82.37	 Y52.04	G1	 X52.56 Y58.91 E	30.5914
G0 F1000	 X70.75	 Y126.82	G1	 X84.05 Y101.04 E	29.0086
 
 
G0 F1000	 X106.17	 Y123.51	G1	 X77.17 Y132.21 E	30.2769
G0 F1000	 X111.42	 Y88.68	G1	 X84.05 Y101.04 E	30.0314
G0 F1000	 X118.02	 Y95.86	G1	 X106.17 Y123.51 E	30.0823
 
G0 F1000	 X109.43	 Y157.05	G1	 X107.05 Y159.56 E	3.4590
G0 F1000	 X117.2	 Y135.16	G1	 X106.17 Y123.51 E	16.0432
G0 F1000	 X117.2	 Y135.16	G1	 X109.43 Y157.05 E	23.2281
G0 F1000	 X140.29	 Y125.6	G1	 X145.61 Y119.9 E	7.7969
G0 F1000	 X140.29	 Y125.6	G1	 X117.2 Y135.16 E	24.9908
G0 F1000	 X134.45	 Y150.41	G1	 X152.98 Y169.43 E	26.5541
G0 F1000	 X134.45	 Y150.41	G1	 X109.43 Y157.05 E	25.8861
G0 F1000	 X134.45	 Y150.41	G1	 X140.29 Y125.6 E	25.4881
					
G0 F1000	 X103.36	 Y79.02	G1	 X115.71 Y93.84 E	19.2913
G0 F1000	 X115.71	 Y93.84	G1	 X135.47 Y111.12 E	26.2499
G0 F1000	 X135.47	 Y111.12	G1	 X153.81 Y127 E	24.2596
G0 F1000	 X153.81	 Y127	G1	 X162.63 Y141.11 E	16.6398
G0 F1000	 X162.63	 Y141.11	G1	 X163.34 Y151.34 E	10.2546
G0 F1000	 X163.34	 Y151.34	G1	 X159.81 Y162.28 E	11.4954
G0 F1000	 X159.81	 Y162.28	G1	 X152.4 Y170.04 E	10.7297
G0 F1000	 X152.4	 Y170.04	G1	 X141.11 Y176.04 E	12.7853
G0 F1000	 X141.11	 Y176.04	G1	 X129.12 Y175.33 E	12.0110
G0 F1000	 X129.12	 Y175.33	G1	 X119.94 Y170.74 E	10.2636
G0 F1000	 X119.94	 Y170.74	G1	 X101.25 Y154.52 E	24.7468
G0 F1000	 X101.25	 Y154.52	G1	 X77.26 Y132.29 E	32.7062
G0 F1000	 X77.26	 Y132.29	G1	 X68.44 Y124.88 E	11.5196
G0 F1000	 X68.44	 Y124.88	G1	 X48.33 Y107.24 E	26.7504
G0 F1000	 X48.33	 Y107.24	G1	 X23.99 Y84.67 E	33.1940
G0 F1000	 X23.99	 Y84.67	G1	 X18.7 Y76.55 E	9.6912
G0 F1000	 X18.7	 Y76.55	G1	 X7.41 Y53.62 E	25.5587
G0 F1000	 X7.41	 Y53.62	G1	 X2.82 Y32.46 E	21.6521
G0 F1000	 X2.82	 Y32.46	G1	 X5.64 Y16.93 E	15.7840
G0 F1000	 X5.64	 Y16.93	G1	 X10.94 Y8.47 E	9.9831
G0 F1000	 X10.94	 Y8.47	G1	 X18.7 Y5.29 E	8.3863
G0 F1000	 X18.7	 Y5.29	G1	 X27.16 Y3.88 E	8.5767
G0 F1000	 X27.16	 Y3.88	G1	 X38.1 Y6 E	11.1435
G0 F1000	 X38.1	 Y6	G1	 X44.1 Y8.47 E	6.4885
G0 F1000	 X44.1	 Y8.47	G1	 X52.56 Y13.76 E	9.9778
G0 F1000	 X52.56	 Y13.76	G1	 X60.32 Y20.46 E	10.2522
G0 F1000	 X60.32	 Y20.46	G1	 X69.85 Y29.63 E	13.2253
G0 F1000	 X69.85	 Y29.63	G1	 X82.55 Y45.16 E	20.0617
G0 F1000	 X82.55	 Y45.16	G1	 X103.36 Y79.02 E	39.7436

G0 F1000	 X0.04	 Y0.07 Z1.3
G1	 X0.04 Y0.07 E	0.0000
 
 
 
G0 F1000	 X0.04	 Y0.07	G1	 X0.04 Y0.07 E	0.0000
G0 F1000	 X35.85	 Y42.2	G1	 X52.26 Y13.57 E	32.9995
G0 F1000	 X35.85	 Y42.2	G1	 X7.33 Y53.24 E	30.5822
G0 F1000	 X69.18	 Y83.13	G1	 X84.05 Y101.04 E	23.2784
G0 F1000	 X37.61	 Y88.83	G1	 X32.53 Y92.59 E	6.3201
G0 F1000	 X37.61	 Y88.83	G1	 X69.18 Y83.13 E	32.0804
G0 F1000	 X52.56	 Y58.91	G1	 X35.85 Y42.2 E	23.6315
G0 F1000	 X52.56	 Y58.91	G1	 X37.61 Y88.83 E	33.4471
G0 F1000	 X82.37	 Y52.04	G1	 X85.33 Y49.69 E	3.7794
G0 F1000	 X82.37	 Y52.04	G1	 X69.18 Y83.13 E	33.7722
G0 F1000	 X82.37	 Y52.04	G1	 X52.56 Y58.91 E	30.5914
G0 F1000	 X70.75	 Y126.82	G1	 X84.05 Y101.04 E	29.0086
 
 
G0 F1000	 X106.17	 Y123.51	G1	 X77.17 Y132.21 E	30.2769
G0 F1000	 X111.42	 Y88.68	G1	 X84.05 Y101.04 E	30.0314
G0 F1000	 X118.02	 Y95.86	G1	 X106.17 Y123.51 E	30.0823
 
G0 F1000	 X109.43	 Y157.05	G1	 X107.05 Y159.56 E	3.4590
G0 F1000	 X117.2	 Y135.16	G1	 X106.17 Y123.51 E	16.0432
G0 F1000	 X117.2	 Y135.16	G1	 X109.43 Y157.05 E	23.2281
G0 F1000	 X140.29	 Y125.6	G1	 X145.61 Y119.9 E	7.7969
G0 F1000	 X140.29	 Y125.6	G1	 X117.2 Y135.16 E	24.9908
G0 F1000	 X134.45	 Y150.41	G1	 X152.98 Y169.43 E	26.5541
G0 F1000	 X134.45	 Y150.41	G1	 X109.43 Y157.05 E	25.8861
G0 F1000	 X134.45	 Y150.41	G1	 X140.29 Y125.6 E	25.4881
					
G0 F1000	 X103.36	 Y79.02	G1	 X115.71 Y93.84 E	19.2913
G0 F1000	 X115.71	 Y93.84	G1	 X135.47 Y111.12 E	26.2499
G0 F1000	 X135.47	 Y111.12	G1	 X153.81 Y127 E	24.2596
G0 F1000	 X153.81	 Y127	G1	 X162.63 Y141.11 E	16.6398
G0 F1000	 X162.63	 Y141.11	G1	 X163.34 Y151.34 E	10.2546
G0 F1000	 X163.34	 Y151.34	G1	 X159.81 Y162.28 E	11.4954
