;FLAVOR:UltiGCode
; TIME:400
;MATERIAL:160
; MATERIAL2: 0
;NOZZLE_DIAMETER:0.400000
;NOZZLE_DIAMETER2:  0.400000
;Layer count: 98
;LAYER: 0
M107
G0  F600 Z0.3
;INSOLE EDGES
G0 X 0125.44 Y 0145.42 G1 X 0156.67 Y 0141.02 E 0003.78
G0 X 0125.44 Y 0145.42 G1 X 0117.82 Y 0158.33 E 0005.58
G0 X 0040.78 Y 0076.17 G1 X 0030.26 Y 0082.14 E 0007.03
G0 X 0040.78 Y 0076.17 G1 X 0070.67 Y 0083.78 E 0010.74
G0 X 0118.41 Y 0127.97 G1 X 0125.44 Y 0145.42 E 0012.99
G0 X 0118.41 Y 0127.97 G1 X 0130.74 Y 0110.54 E 0015.56
G0 X 0084.21 Y 0061.66 G1 X 0070.67 Y 0083.78 E 0018.67
G0 X 0052.20 Y 0058.67 G1 X 0040.78 Y 0076.17 E 0021.17
G0 X 0052.20 Y 0058.67 G1 X 0076.51 Y 0049.36 E 0024.30
G0 X 0034.44 Y 0037.25 G1 X 0009.85 Y 0043.40 E 0027.34
G0 X 0034.44 Y 0037.25 G1 X 0052.49 Y 0018.32 E 0030.48
G0 X 0034.44 Y 0037.25 G1 X 0052.20 Y 0058.67 E 0033.82
G0 X 0073.18 Y 0098.27 G1 X 0070.67 Y 0083.78 E 0035.58
G0 X 0099.37 Y 0098.98 G1 X 0107.63 Y 0091.56 E 0036.92
G0 X 0099.37 Y 0098.98 G1 X 0073.18 Y 0098.27 E 0040.06
G0 X 0096.82 Y 0125.96 G1 X 0118.41 Y 0127.97 E 0042.66
G0 X 0096.82 Y 0125.96 G1 X 0099.37 Y 0098.98 E 0045.91
G0 X 0061.60 Y 0113.77 G1 X 0073.18 Y 0098.27 E 0048.23
G0 X 0086.85 Y 0134.10 G1 X 0096.82 Y 0125.96 E 0049.78
;CONTOUR EDGES
G0 X 0014.11 Y 0009.52 G1 X 0023.99 Y 0006.35 E 0051.02
G0 X 0023.99 Y 0006.35 G1 X 0037.39 Y 0008.11 E 0052.65
G0 X 0037.39 Y 0008.11 G1 X 0051.86 Y 0017.64 E 0054.73
G0 X 0051.86 Y 0017.64 G1 X 0065.26 Y 0032.10 E 0057.09
G0 X 0065.26 Y 0032.10 G1 X 0070.56 Y 0039.86 E 0058.22
G0 X 0070.56 Y 0039.86 G1 X 0081.84 Y 0057.86 E 0060.77
G0 X 0081.84 Y 0057.86 G1 X 0094.54 Y 0078.32 E 0063.66
G0 X 0094.54 Y 0078.32 G1 X 0106.89 Y 0091.02 E 0065.78
G0 X 0106.89 Y 0091.02 G1 X 0118.89 Y 0099.84 E 0067.57
G0 X 0118.89 Y 0099.84 G1 X 0130.17 Y 0110.07 E 0069.40
G0 X 0130.17 Y 0110.07 G1 X 0143.93 Y 0121.71 E 0071.56
G0 X 0143.93 Y 0121.71 G1 X 0152.05 Y 0132.64 E 0073.19
G0 X 0152.05 Y 0132.64 G1 X 0157.69 Y 0142.87 E 0074.60
G0 X 0157.69 Y 0142.87 G1 X 0159.10 Y 0150.28 E 0075.50
G0 X 0159.10 Y 0150.28 G1 X 0157.69 Y 0157.34 E 0076.37
G0 X 0157.69 Y 0157.34 G1 X 0153.81 Y 0163.34 E 0077.22
G0 X 0153.81 Y 0163.34 G1 X 0147.46 Y 0167.22 E 0078.12
G0 X 0147.46 Y 0167.22 G1 X 0136.88 Y 0167.92 E 0079.39
G0 X 0136.88 Y 0167.92 G1 X 0124.18 Y 0163.34 E 0081.01
G0 X 0124.18 Y 0163.34 G1 X 0112.54 Y 0154.16 E 0082.79
G0 X 0112.54 Y 0154.16 G1 X 0097.01 Y 0141.82 E 0085.17
G0 X 0097.01 Y 0141.82 G1 X 0086.78 Y 0134.06 E 0086.71
G0 X 0086.78 Y 0134.06 G1 X 0071.97 Y 0121.71 E 0089.02
G0 X 0071.97 Y 0121.71 G1 X 0055.39 Y 0109.01 E 0091.53
G0 X 0055.39 Y 0109.01 G1 X 0033.87 Y 0086.43 E 0095.27
G0 X 0033.87 Y 0086.43 G1 X 0019.05 Y 0068.79 E 0098.04
G0 X 0019.05 Y 0068.79 G1 X 0009.88 Y 0044.80 E 0101.12
G0 X 0009.88 Y 0044.80 G1 X 0009.52 Y 0028.57 E 0103.07
G0 X 0009.52 Y 0028.57 G1 X 0010.58 Y 0015.17 E 0104.68
G0 X 0010.58 Y 0015.17 G1 X 0014.11 Y 0009.52 E 0105.48
M107
G10
G0 F9000 X110.000 Y126.900 Z15.000
M25 ;Stop reading from this point on.
;CURA_PROFILE_STRING:eNrtWt1v2zYQfxWC/RF8bLHGk2S7aWvoYe2SvqRDgXhYmxeBlmiLi0QKJBXHCfy/746iFNlRunQN1o/JDw70093xePe7j6LO6YapOGN8lZnIHwXemuZ5bDKeXAimNUATTzGjaGK4FDETdJGzaK4q5mmZ8zTOrYGuwnNvycFGyoTmZhOFvlcqLkysS8bSaNo8GlaUTFFTKRaFQQ8aRj3guA+c9IHTFlywdOe0I9/TVVlKZaK5rJKMixVZVDxPy5wa5uH3UqoipmnGNNw6+l0K1qjEaUXzmF0ZVdl3r6XJvDUvWWzkmqnohOaadYD4UuZVwaJg6kl5zWKdcZanTgwCRQsGLqYc/hpQD0cvpndhDMUdcNwHTvrAaRdc5nIdBb4/8j0hr69zcIlfs/1E18maoFQHpYWshIkmo2kXtRFxr4Lnu+8KLmJ4uGR5FOy+SWSxgMhHv+b5ngIvdiIMPoRdiUyWiHkLaYwsdqg39iwd/XjNU5PFS9CQCi/rycVfLAEOcnEBwZCXTOW0tJ4j66de7aO7djDt2K8JXr8ALnNh2V0/o5gtA6oY7WBcaGb8feCqAyRS5jY4rn44UAQST5sSS12NXXCgXM4Fg3jZ+DpoRctojKfbpyZoORMrkzn/0diyAl9ddU8d5u7od57igl5ZpHVrCSiUC/DWgRmjUOx8aRx16+o3kIvucx2zW3bnsQs18h8KkFs+QkVCgbG4jmVjwNWX2ZQsOoUb6xaiYgVN53lbtrG1XLs3bcGrDRBeGyoSZPNRi193YZQvuaI5ct4dzIsSqqCQqWtsC3CzG3PIuqJLiDJVKy5sHO2zFdElTZDG4wZdUM32SHmLo4rlJlSDk4cOxRQwdVcpPNp/e6tqSxVfUq6ABzF0bMupDoYWwhrQldNHouloD+07s9XYOXHJr6D0lOLAzrgSth3gqIB0xbQO3KdEFi0pujIQElkyES+40X0C0AVwjFxCnA03tlU7sTKvIBmQIeDQKmrqO2EYr/gqOgz2oA1APwENlBmtEkz17CznCUsJNa/ITUo3W/w2DP5gMW4PZq+p5gmBujVwqn5FTjGApC4mUMk7k3NL/oSLgszN7vjckhNgKsDdiQim3+NcIngOvHOTqz70xLVpAqFJa8W6bdf9dVt0oHV99qqjlUhtulr4DFbfBS99cnbTOw63ZPaHgGZs9Y0kNE3JRlaKyLUgIEs6sgQpgeb8l625h5q6Y+ZtGBD3mUFbUBDsS5pXTB+8BW+bN3QBnaUyjJQSggeUgmQcvHsRtgKQIGKHRQrZwUMbBSzoA3D1qJXE7JM1NxkxGSPQ/YhcLsGPF+SDTz766Ae0K/Lhl49oCNogYSLV0OO0FTr3nbModH5XJCDnATQHcnLTnSZbp4BHNqsFSTEiwbQo4K4hOW6ve/uZXTMlrZK7XErq7o7nnIS+T47HexpOkIyLAi5GsIUTcC25+PxDCF1RLuxRu5cB7laG2Mzj2lQAyemKESnI6ZvfiE4UYwKCHhyR905mNBp5EKOm6o5FSt6+camZkLMerzp3wXqDolQ2Ue+CiX+vgpVLLWFvVcgTvkQGkgyuQLh5CpEIyAM+M8UgVdB3dmgH4Tg+hJCMff8flO2yUrOsKU1KoMmRevIRHKQYP5Sot7BnyCc4lcGYIFoWDFNoOaMgxlA0ll8/+6Mp+DAlHw5DoCx+9bPtnFSlO5JCxBuPWm/YJRNQIWj2lv6fvNR9pfEMvLWO4oZAuCYSCOJ8X9MN1OrkfqPasBK6gq4L8eX9PvT3gRn0IAl3wvEAdFttPVvj4dDiH6HFT768xdeTYh70WQr/lSn/686db32azO/pbrOzNa5PeApqhtASmg77JRMo8PsnUOA/6giyZx3e9P+Tc3sw9x906SVX2nxP136kyRveM3rn/mdOX9QJhok9TOzHn9jjYWIPE/v/ObHDBw2vsfqhJvawpgxryt6aMv6aawrqhMNqM6w2j7/aTIbV5ptabcLHW22GLek/25LGD5qdE3D6B1oYhtVwWA2H1VCkk+9tNUSd8bBODuvk466T7gct3V8xtODtf7HWv9fZEbJIR0IxmLEJGyX6MvIgCXWbOXa8bBfWuvksmFlDZdpLJ5VSNsQNhTEBNtGAtOgzss5Aoa10u0wUVW54mbftQunRwWyeQVDxNAwurDeW5ZZFaHT+RDz1ICbmW/KPLrEAG/f+BnWV/Wo=
