;FLAVOR:UltiGCode
; TIME:400
;MATERIAL:160
; MATERIAL2: 0
;NOZZLE_DIAMETER:0.400000
;NOZZLE_DIAMETER2:  0.400000
;Layer count: 98
;LAYER: 0
M107
G0  F600 Z0.3
;INSOLE EDGES
G1 X 0169.54 Y 0192.53 E 0000.51
 G1 X 0167.39 Y 0185.01 E 0001.57
G1 X 0073.62 Y 0050.49 E 0003.22
 G1 X 0079.23 Y 0038.13 E 0004.28
G1 X 0064.65 Y 0052.53 E 0008.31
 G1 X 0063.04 Y 0027.14 E 0009.37
G1 X 0064.65 Y 0052.53 E 0010.15
 G1 X 0073.62 Y 0050.49 E 0011.21
G1 X 0159.25 Y 0187.85 E 0010.95
 G1 X 0155.73 Y 0185.92 E 0012.01
G1 X 0158.54 Y 0195.61 E 0012.51
 G1 X 0159.25 Y 0187.85 E 0013.57
G1 X 0154.81 Y 0195.19 E 0014.37
 G1 X 0155.73 Y 0185.92 E 0015.43
G1 X 0167.56 Y 0184.76 E 0014.43
 G1 X 0167.39 Y 0185.01 E 0015.49
G1 X 0173.40 Y 0191.45 E 0016.21
 G1 X 0167.56 Y 0184.76 E 0017.27
G1 X 0169.70 Y 0178.52 E 0017.53
 G1 X 0167.56 Y 0184.76 E 0018.59
G1 X 0169.70 Y 0178.52 E 0020.09
 G1 X 0176.81 Y 0189.19 E 0021.15
G1 X 0170.06 Y 0174.19 E 0020.96
 G1 X 0169.70 Y 0178.52 E 0022.02
G1 X 0171.51 Y 0175.13 E 0023.69
 G1 X 0184.30 Y 0179.93 E 0024.75
G1 X 0171.51 Y 0175.13 E 0026.56
 G1 X 0181.16 Y 0185.75 E 0027.62
G1 X 0171.51 Y 0175.13 E 0026.91
 G1 X 0170.06 Y 0174.19 E 0027.97
G1 X 0162.81 Y 0187.85 E 0027.62
 G1 X 0159.25 Y 0187.85 E 0028.68
G1 X 0166.33 Y 0186.01 E 0027.91
 G1 X 0167.39 Y 0185.01 E 0028.97
G1 X 0166.33 Y 0186.01 E 0028.71
 G1 X 0162.81 Y 0187.85 E 0029.77
G1 X 0166.33 Y 0193.43 E 0030.19
 G1 X 0166.33 Y 0186.01 E 0031.25
G1 X 0162.81 Y 0194.42 E 0031.51
 G1 X 0162.81 Y 0187.85 E 0032.56
G1 X 0076.09 Y 0050.55 E 0032.00
 G1 X 0073.62 Y 0050.49 E 0033.06
G1 X 0076.09 Y 0050.55 E 0033.41
 G1 X 0082.59 Y 0053.34 E 0034.47
G1 X 0088.83 Y 0046.13 E 0035.32
 G1 X 0082.59 Y 0053.34 E 0036.38
G1 X 0084.46 Y 0042.18 E 0037.69
 G1 X 0076.09 Y 0050.55 E 0038.75
G1 X 0033.58 Y 0079.03 E 0042.80
 G1 X 0058.41 Y 0085.07 E 0043.86
G1 X 0165.81 Y 0163.77 E 0043.55
 G1 X 0162.34 Y 0165.20 E 0044.61
G1 X 0181.95 Y 0153.57 E 0047.37
 G1 X 0165.81 Y 0163.77 E 0048.43
G1 X 0061.80 Y 0070.77 E 0050.31
 G1 X 0058.41 Y 0085.07 E 0051.37
G1 X 0061.80 Y 0070.77 E 0053.62
 G1 X 0076.93 Y 0077.44 E 0054.68
G1 X 0056.78 Y 0060.11 E 0059.31
 G1 X 0028.29 Y 0060.41 E 0060.37
G1 X 0056.78 Y 0060.11 E 0061.67
 G1 X 0061.80 Y 0070.77 E 0062.73
G1 X 0063.22 Y 0055.14 E 0062.27
 G1 X 0064.65 Y 0052.53 E 0063.32
G1 X 0063.22 Y 0055.14 E 0063.89
 G1 X 0056.78 Y 0060.11 E 0064.95
G1 X 0085.67 Y 0058.89 E 0065.17
 G1 X 0082.59 Y 0053.34 E 0066.22
G1 X 0060.29 Y 0092.97 E 0068.35
 G1 X 0045.09 Y 0097.72 E 0069.41
G1 X 0161.97 Y 0165.02 E 0068.44
 G1 X 0162.34 Y 0165.20 E 0069.49
G1 X 0157.37 Y 0164.33 E 0069.37
 G1 X 0161.97 Y 0165.02 E 0070.42
G1 X 0157.37 Y 0164.33 E 0070.87
 G1 X 0150.90 Y 0160.51 E 0071.93
G1 X 0145.56 Y 0160.28 E 0071.94
 G1 X 0150.90 Y 0160.51 E 0073.00
G1 X 0145.56 Y 0160.28 E 0072.27
 G1 X 0143.99 Y 0159.76 E 0073.33
G1 X 0141.38 Y 0176.47 E 0075.61
 G1 X 0145.56 Y 0160.28 E 0076.67
G1 X 0134.85 Y 0183.00 E 0077.46
 G1 X 0141.38 Y 0176.47 E 0078.52
G1 X 0125.20 Y 0173.74 E 0082.14
 G1 X 0143.99 Y 0159.76 E 0083.20
G1 X 0169.91 Y 0173.74 E 0082.24
 G1 X 0170.06 Y 0174.19 E 0083.29
G1 X 0168.91 Y 0172.00 E 0084.13
 G1 X 0162.34 Y 0165.20 E 0085.19
G1 X 0168.91 Y 0172.00 E 0084.53
 G1 X 0169.91 Y 0173.74 E 0085.59
G1 X 0184.87 Y 0161.23 E 0088.38
 G1 X 0165.81 Y 0163.77 E 0089.43
G1 X 0186.53 Y 0166.44 E 0092.07
 G1 X 0168.91 Y 0172.00 E 0093.13
G1 X 0186.41 Y 0173.74 E 0095.37
 G1 X 0169.91 Y 0173.74 E 0096.43
G1 X 0085.25 Y 0061.73 E 0095.95
 G1 X 0085.67 Y 0058.89 E 0097.01
G1 X 0077.21 Y 0076.94 E 0096.06
 G1 X 0076.93 Y 0077.44 E 0097.12
G1 X 0078.59 Y 0064.87 E 0099.70
 G1 X 0063.22 Y 0055.14 E 0100.76
G1 X 0078.59 Y 0064.87 E 0101.17
 G1 X 0085.25 Y 0061.73 E 0102.23
G1 X 0078.59 Y 0064.87 E 0103.60
 G1 X 0077.21 Y 0076.94 E 0104.66
G1 X 0061.38 Y 0091.24 E 0104.01
 G1 X 0060.29 Y 0092.97 E 0105.07
G1 X 0061.38 Y 0090.05 E 0105.17
 G1 X 0058.41 Y 0085.07 E 0106.23
G1 X 0061.38 Y 0090.05 E 0105.41
 G1 X 0061.38 Y 0091.24 E 0106.47
G1 X 0077.42 Y 0080.32 E 0105.99
 G1 X 0076.93 Y 0077.44 E 0107.05
G1 X 0077.42 Y 0080.32 E 0109.74
 G1 X 0061.38 Y 0090.05 E 0110.80
G1 X 0159.16 Y 0137.49 E 0114.63
 G1 X 0150.90 Y 0160.51 E 0115.69
G1 X 0153.41 Y 0182.77 E 0118.40
 G1 X 0157.37 Y 0164.33 E 0119.46
G1 X 0154.81 Y 0184.91 E 0118.68
 G1 X 0155.73 Y 0185.92 E 0119.74
G1 X 0154.81 Y 0184.91 E 0120.51
 G1 X 0151.41 Y 0193.43 E 0121.57
G1 X 0154.81 Y 0184.91 E 0121.03
 G1 X 0153.41 Y 0182.77 E 0122.08
G1 X 0135.48 Y 0150.99 E 0123.47
 G1 X 0143.99 Y 0159.76 E 0124.53
G1 X 0130.63 Y 0149.38 E 0128.17
 G1 X 0109.05 Y 0158.69 E 0129.23
G1 X 0130.63 Y 0149.38 E 0129.19
 G1 X 0135.48 Y 0150.99 E 0130.25
G1 X 0122.89 Y 0136.73 E 0132.16
 G1 X 0130.63 Y 0149.38 E 0133.22
G1 X 0141.88 Y 0133.50 E 0135.70
 G1 X 0159.16 Y 0137.49 E 0136.76
G1 X 0141.88 Y 0133.50 E 0139.43
 G1 X 0135.48 Y 0150.99 E 0140.49
G1 X 0141.88 Y 0133.50 E 0140.99
 G1 X 0140.10 Y 0125.89 E 0142.05
G1 X 0094.36 Y 0053.52 E 0143.04
 G1 X 0085.67 Y 0058.89 E 0144.09
G1 X 0091.90 Y 0070.32 E 0146.26
 G1 X 0077.21 Y 0076.94 E 0147.32
G1 X 0089.51 Y 0065.38 E 0147.38
 G1 X 0085.25 Y 0061.73 E 0148.44
G1 X 0089.51 Y 0065.38 E 0149.58
 G1 X 0098.30 Y 0058.79 E 0150.64
G1 X 0089.51 Y 0065.38 E 0150.68
 G1 X 0091.90 Y 0070.32 E 0151.73
G1 X 0113.05 Y 0088.20 E 0151.84
 G1 X 0117.89 Y 0084.98 E 0152.90
G1 X 0129.63 Y 0125.07 E 0153.94
 G1 X 0140.10 Y 0125.89 E 0155.00
G1 X 0127.34 Y 0125.98 E 0156.27
 G1 X 0122.89 Y 0136.73 E 0157.32
G1 X 0127.34 Y 0125.98 E 0156.76
 G1 X 0129.63 Y 0125.07 E 0157.82
G1 X 0114.81 Y 0101.97 E 0157.56
 G1 X 0116.15 Y 0105.76 E 0158.62
G1 X 0112.65 Y 0094.70 E 0158.87
 G1 X 0113.05 Y 0088.20 E 0159.92
G1 X 0112.65 Y 0094.70 E 0159.14
 G1 X 0111.34 Y 0095.06 E 0160.20
G1 X 0107.31 Y 0097.88 E 0160.12
 G1 X 0111.34 Y 0095.06 E 0161.18
G1 X 0107.32 Y 0097.93 E 0160.13
 G1 X 0107.31 Y 0097.88 E 0161.19
G1 X 0107.32 Y 0097.93 E 0162.85
 G1 X 0101.63 Y 0110.27 E 0163.91
G1 X 0110.21 Y 0101.61 E 0163.77
 G1 X 0114.81 Y 0101.97 E 0164.83
G1 X 0110.21 Y 0101.61 E 0164.71
 G1 X 0107.32 Y 0097.93 E 0165.77
G1 X 0108.85 Y 0110.48 E 0166.45
 G1 X 0116.15 Y 0105.76 E 0167.50
G1 X 0108.85 Y 0110.48 E 0168.24
 G1 X 0110.21 Y 0101.61 E 0169.30
G1 X 0108.50 Y 0110.93 E 0170.32
 G1 X 0115.11 Y 0118.98 E 0171.38
G1 X 0108.50 Y 0110.93 E 0171.70
 G1 X 0101.63 Y 0110.27 E 0172.76
G1 X 0108.50 Y 0110.93 E 0171.82
 G1 X 0108.85 Y 0110.48 E 0172.88
G1 X 0078.35 Y 0081.34 E 0172.09
 G1 X 0077.42 Y 0080.32 E 0173.15
G1 X 0066.27 Y 0121.37 E 0172.12
 G1 X 0066.22 Y 0121.46 E 0173.17
G1 X 0060.17 Y 0111.12 E 0172.75
 G1 X 0057.02 Y 0111.12 E 0173.80
G1 X 0060.17 Y 0111.12 E 0175.13
 G1 X 0066.27 Y 0121.37 E 0176.19
G1 X 0060.73 Y 0109.95 E 0178.53
 G1 X 0060.29 Y 0092.97 E 0179.59
G1 X 0060.73 Y 0109.95 E 0182.33
 G1 X 0077.72 Y 0101.46 E 0183.39
G1 X 0060.73 Y 0109.95 E 0182.59
 G1 X 0060.17 Y 0111.12 E 0183.65
G1 X 0077.91 Y 0121.00 E 0184.92
 G1 X 0066.27 Y 0121.37 E 0185.98
G1 X 0078.27 Y 0120.44 E 0188.72
 G1 X 0077.72 Y 0101.46 E 0189.77
G1 X 0078.27 Y 0120.44 E 0188.85
 G1 X 0077.91 Y 0121.00 E 0189.91
G1 X 0101.73 Y 0134.34 E 0192.92
 G1 X 0115.11 Y 0118.98 E 0193.98
G1 X 0101.50 Y 0135.42 E 0197.21
 G1 X 0122.89 Y 0136.73 E 0198.27
G1 X 0101.50 Y 0135.42 E 0197.43
 G1 X 0101.73 Y 0134.34 E 0198.49
G1 X 0097.66 Y 0139.74 E 0199.93
 G1 X 0100.87 Y 0151.80 E 0200.99
G1 X 0097.66 Y 0139.74 E 0201.08
 G1 X 0101.50 Y 0135.42 E 0202.14
G1 X 0087.67 Y 0137.83 E 0201.55
 G1 X 0085.63 Y 0138.95 E 0202.61
G1 X 0087.67 Y 0137.83 E 0205.44
 G1 X 0077.91 Y 0121.00 E 0206.50
G1 X 0087.67 Y 0137.83 E 0207.47
 G1 X 0097.66 Y 0139.74 E 0208.53
G1 X 0079.05 Y 0082.93 E 0207.82
 G1 X 0078.35 Y 0081.34 E 0208.88
G1 X 0090.90 Y 0088.57 E 0210.44
 G1 X 0079.05 Y 0082.93 E 0211.50
G1 X 0091.64 Y 0092.78 E 0211.30
 G1 X 0090.90 Y 0088.57 E 0212.36
G1 X 0081.07 Y 0099.83 E 0213.84
 G1 X 0091.64 Y 0092.78 E 0214.90
G1 X 0078.65 Y 0099.69 E 0214.24
 G1 X 0077.72 Y 0101.46 E 0215.30
G1 X 0078.65 Y 0099.69 E 0214.72
 G1 X 0081.07 Y 0099.83 E 0215.78
G1 X 0078.58 Y 0099.56 E 0218.54
 G1 X 0061.38 Y 0091.24 E 0219.60
G1 X 0078.58 Y 0099.56 E 0221.87
 G1 X 0079.05 Y 0082.93 E 0222.93
G1 X 0078.58 Y 0099.56 E 0221.90
 G1 X 0078.65 Y 0099.69 E 0222.96
G1 X 0169.01 Y 0153.41 E 0224.62
 G1 X 0161.97 Y 0165.02 E 0225.68
G1 X 0162.88 Y 0133.60 E 0225.69
 G1 X 0159.16 Y 0137.49 E 0226.75
G1 X 0164.36 Y 0134.81 E 0229.53
 G1 X 0169.01 Y 0153.41 E 0230.59
G1 X 0175.08 Y 0145.33 E 0231.55
 G1 X 0169.01 Y 0153.41 E 0232.61
G1 X 0142.91 Y 0181.98 E 0232.69
 G1 X 0141.38 Y 0176.47 E 0233.75
G1 X 0139.55 Y 0187.26 E 0233.95
 G1 X 0142.91 Y 0181.98 E 0235.00
G1 X 0146.85 Y 0184.28 E 0234.86
 G1 X 0142.91 Y 0181.98 E 0235.92
G1 X 0146.85 Y 0184.28 E 0236.08
 G1 X 0143.10 Y 0189.11 E 0237.14
G1 X 0151.80 Y 0183.76 E 0236.46
 G1 X 0153.41 Y 0182.77 E 0237.52
G1 X 0151.80 Y 0183.76 E 0237.46
 G1 X 0146.85 Y 0184.28 E 0238.51
G1 X 0147.88 Y 0191.59 E 0239.21
 G1 X 0151.80 Y 0183.76 E 0240.27
G1 X 0117.91 Y 0119.04 E 0241.55
 G1 X 0127.34 Y 0125.98 E 0242.61
G1 X 0117.34 Y 0118.84 E 0241.99
 G1 X 0115.11 Y 0118.98 E 0243.05
G1 X 0117.34 Y 0118.84 E 0242.12
 G1 X 0117.91 Y 0119.04 E 0243.17
G1 X 0120.48 Y 0106.89 E 0243.01
 G1 X 0116.15 Y 0105.76 E 0244.07
G1 X 0120.48 Y 0106.89 E 0245.48
 G1 X 0117.34 Y 0118.84 E 0246.54
G1 X 0121.93 Y 0106.21 E 0245.80
 G1 X 0120.48 Y 0106.89 E 0246.86
G1 X 0122.08 Y 0106.20 E 0245.83
 G1 X 0121.93 Y 0106.21 E 0246.89
G1 X 0130.46 Y 0114.65 E 0247.92
 G1 X 0129.63 Y 0125.07 E 0248.98
G1 X 0127.12 Y 0111.51 E 0250.30
 G1 X 0117.91 Y 0119.04 E 0251.36
G1 X 0127.12 Y 0111.51 E 0251.22
 G1 X 0130.46 Y 0114.65 E 0252.28
G1 X 0126.77 Y 0109.85 E 0252.41
 G1 X 0122.08 Y 0106.20 E 0253.47
G1 X 0126.77 Y 0109.85 E 0252.75
 G1 X 0127.12 Y 0111.51 E 0253.81
G1 X 0133.33 Y 0104.80 E 0254.40
 G1 X 0126.77 Y 0109.85 E 0255.46
G1 X 0146.49 Y 0119.01 E 0256.28
 G1 X 0140.10 Y 0125.89 E 0257.34
G1 X 0138.29 Y 0110.30 E 0258.07
 G1 X 0130.46 Y 0114.65 E 0259.13
G1 X 0128.42 Y 0098.50 E 0260.06
 G1 X 0122.08 Y 0106.20 E 0261.12
G1 X 0118.89 Y 0098.60 E 0261.70
 G1 X 0121.93 Y 0106.21 E 0262.76
G1 X 0118.89 Y 0098.60 E 0263.22
 G1 X 0125.21 Y 0094.39 E 0264.28
G1 X 0116.28 Y 0098.60 E 0263.96
 G1 X 0114.81 Y 0101.97 E 0265.02
G1 X 0116.28 Y 0098.60 E 0264.48
 G1 X 0118.89 Y 0098.60 E 0265.54
G1 X 0113.63 Y 0095.07 E 0264.69
 G1 X 0112.65 Y 0094.70 E 0265.75
G1 X 0113.63 Y 0095.07 E 0266.62
 G1 X 0121.95 Y 0090.21 E 0267.67
G1 X 0113.63 Y 0095.07 E 0267.50
 G1 X 0116.28 Y 0098.60 E 0268.56
G1 X 0105.76 Y 0097.07 E 0267.85
 G1 X 0107.31 Y 0097.88 E 0268.91
G1 X 0093.22 Y 0084.85 E 0268.73
 G1 X 0090.90 Y 0088.57 E 0269.79
G1 X 0092.18 Y 0070.51 E 0268.79
 G1 X 0091.90 Y 0070.32 E 0269.85
G1 X 0092.18 Y 0070.51 E 0271.19
 G1 X 0102.57 Y 0064.50 E 0272.25
G1 X 0104.04 Y 0090.19 E 0272.61
 G1 X 0105.76 Y 0097.07 E 0273.67
G1 X 0095.72 Y 0095.18 E 0274.55
 G1 X 0104.04 Y 0090.19 E 0275.61
G1 X 0094.68 Y 0094.25 E 0275.23
 G1 X 0091.64 Y 0092.78 E 0276.29
G1 X 0094.68 Y 0094.25 E 0275.51
 G1 X 0095.72 Y 0095.18 E 0276.57
G1 X 0096.27 Y 0096.14 E 0275.73
 G1 X 0095.72 Y 0095.18 E 0276.79
G1 X 0102.74 Y 0097.51 E 0276.34
 G1 X 0105.76 Y 0097.07 E 0277.40
G1 X 0102.74 Y 0097.51 E 0277.66
 G1 X 0096.27 Y 0096.14 E 0278.72
G1 X 0098.95 Y 0110.77 E 0278.21
 G1 X 0101.63 Y 0110.27 E 0279.27
G1 X 0098.95 Y 0110.77 E 0280.97
 G1 X 0102.74 Y 0097.51 E 0282.03
G1 X 0096.18 Y 0111.66 E 0285.64
 G1 X 0101.73 Y 0134.34 E 0286.70
G1 X 0096.18 Y 0111.66 E 0286.22
 G1 X 0098.95 Y 0110.77 E 0287.28
G1 X 0095.75 Y 0111.46 E 0290.15
 G1 X 0078.27 Y 0120.44 E 0291.21
G1 X 0095.75 Y 0111.46 E 0290.25
 G1 X 0096.18 Y 0111.66 E 0291.30
G1 X 0095.17 Y 0110.40 E 0293.77
 G1 X 0081.07 Y 0099.83 E 0294.83
G1 X 0095.17 Y 0110.40 E 0296.63
 G1 X 0096.27 Y 0096.14 E 0297.69
G1 X 0095.17 Y 0110.40 E 0296.87
 G1 X 0095.75 Y 0111.46 E 0297.93
G1 X 0093.25 Y 0072.71 E 0297.36
 G1 X 0092.18 Y 0070.51 E 0298.42
G1 X 0095.74 Y 0075.09 E 0297.63
 G1 X 0097.04 Y 0075.48 E 0298.69
G1 X 0095.74 Y 0075.09 E 0298.32
 G1 X 0093.25 Y 0072.71 E 0299.38
G1 X 0092.93 Y 0083.52 E 0298.59
 G1 X 0093.22 Y 0084.85 E 0299.65
G1 X 0092.93 Y 0083.52 E 0300.37
 G1 X 0095.74 Y 0075.09 E 0301.43
G1 X 0088.16 Y 0079.70 E 0302.36
 G1 X 0078.35 Y 0081.34 E 0303.42
G1 X 0088.16 Y 0079.70 E 0304.09
 G1 X 0093.25 Y 0072.71 E 0305.15
G1 X 0088.16 Y 0079.70 E 0305.31
 G1 X 0092.93 Y 0083.52 E 0306.37
G1 X 0101.57 Y 0085.06 E 0307.61
 G1 X 0094.68 Y 0094.25 E 0308.67
G1 X 0100.73 Y 0084.47 E 0309.11
 G1 X 0093.22 Y 0084.85 E 0310.17
G1 X 0100.73 Y 0084.47 E 0309.32
 G1 X 0101.57 Y 0085.06 E 0310.38
G1 X 0099.36 Y 0078.31 E 0310.05
 G1 X 0097.04 Y 0075.48 E 0311.11
G1 X 0099.36 Y 0078.31 E 0311.31
 G1 X 0100.73 Y 0084.47 E 0312.37
G1 X 0107.04 Y 0070.48 E 0313.55
 G1 X 0097.04 Y 0075.48 E 0314.61
G1 X 0106.27 Y 0086.61 E 0314.94
 G1 X 0113.05 Y 0088.20 E 0316.00
G1 X 0106.27 Y 0086.61 E 0317.05
 G1 X 0113.04 Y 0078.49 E 0318.11
G1 X 0105.47 Y 0086.84 E 0319.07
 G1 X 0111.34 Y 0095.06 E 0320.13
G1 X 0105.47 Y 0086.84 E 0319.24
 G1 X 0106.27 Y 0086.61 E 0320.30
G1 X 0104.95 Y 0086.86 E 0319.93
 G1 X 0104.04 Y 0090.19 E 0320.99
G1 X 0104.95 Y 0086.86 E 0320.04
 G1 X 0105.47 Y 0086.84 E 0321.10
G1 X 0103.40 Y 0085.61 E 0320.42
 G1 X 0101.57 Y 0085.06 E 0321.48
G1 X 0103.40 Y 0085.61 E 0320.82
 G1 X 0104.95 Y 0086.86 E 0321.88
G1 X 0106.06 Y 0077.64 E 0322.16
 G1 X 0099.36 Y 0078.31 E 0323.22
G1 X 0106.06 Y 0077.64 E 0323.18
 G1 X 0109.80 Y 0074.17 E 0324.24
G1 X 0106.06 Y 0077.64 E 0324.86
 G1 X 0103.40 Y 0085.61 E 0325.92
;CONTOUR EDGES
G1 X 0035.63 Y 0029.28 E 0326.06
 G1 X 0040.92 Y 0026.46 E 0327.12
G1 X 0040.92 Y 0026.46 E 0327.71
 G1 X 0049.04 Y 0025.05 E 0328.77
G1 X 0049.04 Y 0025.05 E 0329.90
 G1 X 0059.97 Y 0025.40 E 0330.96
G1 X 0059.97 Y 0025.40 E 0332.33
 G1 X 0070.56 Y 0031.40 E 0333.39
G1 X 0070.56 Y 0031.40 E 0336.71
 G1 X 0087.84 Y 0044.80 E 0337.77
G1 X 0087.84 Y 0044.80 E 0346.84
 G1 X 0118.18 Y 0085.37 E 0347.90
G1 X 0118.18 Y 0085.37 E 0352.12
 G1 X 0134.41 Y 0106.19 E 0353.18
G1 X 0134.41 Y 0106.19 E 0357.16
 G1 X 0151.69 Y 0124.53 E 0358.22
G1 X 0151.69 Y 0124.53 E 0361.97
 G1 X 0170.39 Y 0139.70 E 0363.03
G1 X 0170.39 Y 0139.70 E 0365.83
 G1 X 0182.74 Y 0154.52 E 0366.89
G1 X 0182.74 Y 0154.52 E 0369.09
 G1 X 0187.68 Y 0170.04 E 0370.15
G1 X 0187.68 Y 0170.04 E 0372.15
 G1 X 0182.74 Y 0184.50 E 0373.20
G1 X 0182.74 Y 0184.50 E 0374.31
 G1 X 0174.27 Y 0191.21 E 0375.36
G1 X 0174.27 Y 0191.21 E 0377.97
 G1 X 0156.63 Y 0196.14 E 0379.03
G1 X 0156.63 Y 0196.14 E 0381.95
 G1 X 0138.99 Y 0186.97 E 0383.00
G1 X 0138.99 Y 0186.97 E 0389.18
 G1 X 0112.89 Y 0161.92 E 0390.24
G1 X 0112.89 Y 0161.92 E 0400.35
 G1 X 0070.20 Y 0125.94 E 0401.41
G1 X 0070.20 Y 0125.94 E 0410.64
 G1 X 0035.98 Y 0087.49 E 0411.70
G1 X 0035.98 Y 0087.49 E 0416.58
 G1 X 0027.87 Y 0058.91 E 0417.64
G1 X 0027.87 Y 0058.91 E 0420.90
 G1 X 0029.63 Y 0037.39 E 0421.96
G1 X 0029.63 Y 0037.39 E 0422.53
 G1 X 0034.22 Y 0030.69 E 0423.58
G1 X 0034.22 Y 0030.69 E 0457.34
 G1 X 0057.50 Y 0203.20 E 0458.40
G1 X 0057.50 Y 0203.20 E 0492.40
 G1 X 0035.63 Y 0029.28 E 0493.46
G0  F600 Z0.6
;INSOLE EDGES
G1 X 0169.54 Y 0192.53 E 0493.96
 G1 X 0167.39 Y 0185.01 E 0495.02
G1 X 0073.62 Y 0050.49 E 0496.68
 G1 X 0079.23 Y 0038.13 E 0497.74
G1 X 0064.65 Y 0052.53 E 0501.77
 G1 X 0063.04 Y 0027.14 E 0502.82
G1 X 0064.65 Y 0052.53 E 0503.60
 G1 X 0073.62 Y 0050.49 E 0504.66
G1 X 0159.25 Y 0187.85 E 0504.41
 G1 X 0155.73 Y 0185.92 E 0505.46
G1 X 0158.54 Y 0195.61 E 0505.96
 G1 X 0159.25 Y 0187.85 E 0507.02
G1 X 0154.81 Y 0195.19 E 0507.83
 G1 X 0155.73 Y 0185.92 E 0508.89
G1 X 0167.56 Y 0184.76 E 0507.89
 G1 X 0167.39 Y 0185.01 E 0508.95
G1 X 0173.40 Y 0191.45 E 0509.66
 G1 X 0167.56 Y 0184.76 E 0510.72
G1 X 0169.70 Y 0178.52 E 0510.98
 G1 X 0167.56 Y 0184.76 E 0512.04
G1 X 0169.70 Y 0178.52 E 0513.55
 G1 X 0176.81 Y 0189.19 E 0514.61
G1 X 0170.06 Y 0174.19 E 0514.42
 G1 X 0169.70 Y 0178.52 E 0515.48
G1 X 0171.51 Y 0175.13 E 0517.15
 G1 X 0184.30 Y 0179.93 E 0518.21
G1 X 0171.51 Y 0175.13 E 0520.02
