;FLAVOR:UltiGCode
; TIME:400
;MATERIAL:160
; MATERIAL2: 0
;NOZZLE_DIAMETER:0.400000
;NOZZLE_DIAMETER2:  0.400000
;Layer count: 98
;LAYER: 0
M107
G0  F600 Z0.3
;INSOLE EDGES
G1 X 0051.80 Y 0036.56 E 0001.16
 G1 X 0046.83 Y 0026.63 E 0002.22
G1 X 0052.27 Y 0040.20 E 0001.90
 G1 X 0051.80 Y 0036.56 E 0002.95
G1 X 0052.27 Y 0040.20 E 0002.62
 G1 X 0050.70 Y 0043.49 E 0003.68
G1 X 0063.26 Y 0041.02 E 0004.83
 G1 X 0052.27 Y 0040.20 E 0005.89
G1 X 0063.26 Y 0041.02 E 0006.27
 G1 X 0068.75 Y 0045.67 E 0007.33
G1 X 0063.74 Y 0031.45 E 0008.87
 G1 X 0051.80 Y 0036.56 E 0009.92
G1 X 0063.74 Y 0031.45 E 0010.78
 G1 X 0063.26 Y 0041.02 E 0011.84
G1 X 0064.82 Y 0029.57 E 0011.21
 G1 X 0063.74 Y 0031.45 E 0012.27
G1 X 0074.73 Y 0036.40 E 0013.42
 G1 X 0068.75 Y 0045.67 E 0014.48
G1 X 0075.18 Y 0083.47 E 0018.09
 G1 X 0062.63 Y 0063.79 E 0019.15
G1 X 0149.84 Y 0146.06 E 0020.45
 G1 X 0160.19 Y 0151.74 E 0021.51
G1 X 0169.93 Y 0141.30 E 0023.30
 G1 X 0160.19 Y 0151.74 E 0024.36
G1 X 0126.27 Y 0151.45 E 0027.78
 G1 X 0133.20 Y 0130.19 E 0028.83
G1 X 0128.01 Y 0157.01 E 0028.94
 G1 X 0126.27 Y 0151.45 E 0030.00
G1 X 0108.86 Y 0140.16 E 0033.09
 G1 X 0126.27 Y 0151.45 E 0034.15
G1 X 0068.08 Y 0058.91 E 0034.55
 G1 X 0062.63 Y 0063.79 E 0035.61
G1 X 0069.32 Y 0050.65 E 0035.56
 G1 X 0068.75 Y 0045.67 E 0036.62
G1 X 0069.32 Y 0050.65 E 0037.23
 G1 X 0068.08 Y 0058.91 E 0038.29
G1 X 0105.54 Y 0099.76 E 0038.63
 G1 X 0100.81 Y 0094.62 E 0039.68
G1 X 0108.81 Y 0139.09 E 0038.84
 G1 X 0108.86 Y 0140.16 E 0039.90
G1 X 0108.72 Y 0115.94 E 0042.14
 G1 X 0105.54 Y 0099.76 E 0043.20
G1 X 0125.78 Y 0123.56 E 0045.87
 G1 X 0108.72 Y 0115.94 E 0046.93
G1 X 0125.90 Y 0123.95 E 0047.80
 G1 X 0133.20 Y 0130.19 E 0048.85
G1 X 0125.90 Y 0123.95 E 0052.36
 G1 X 0108.81 Y 0139.09 E 0053.42
G1 X 0125.90 Y 0123.95 E 0052.44
 G1 X 0125.78 Y 0123.56 E 0053.50
G1 X 0091.37 Y 0082.87 E 0055.68
 G1 X 0075.18 Y 0083.47 E 0056.74
G1 X 0092.59 Y 0072.19 E 0056.55
 G1 X 0091.56 Y 0067.98 E 0057.61
G1 X 0092.59 Y 0072.19 E 0058.70
 G1 X 0091.37 Y 0082.87 E 0059.76
G1 X 0069.38 Y 0091.69 E 0060.71
 G1 X 0075.18 Y 0083.47 E 0061.77
G1 X 0045.11 Y 0089.37 E 0063.22
 G1 X 0033.70 Y 0094.53 E 0064.27
G1 X 0036.29 Y 0040.98 E 0066.14
 G1 X 0050.70 Y 0043.49 E 0067.20
G1 X 0057.93 Y 0063.89 E 0067.08
 G1 X 0062.63 Y 0063.79 E 0068.14
G1 X 0054.12 Y 0066.01 E 0067.95
 G1 X 0057.93 Y 0063.89 E 0069.01
G1 X 0042.19 Y 0061.13 E 0071.06
 G1 X 0029.42 Y 0069.97 E 0072.12
G1 X 0042.19 Y 0061.13 E 0073.64
 G1 X 0054.12 Y 0066.01 E 0074.70
G1 X 0030.98 Y 0051.37 E 0073.66
 G1 X 0030.90 Y 0051.33 E 0074.72
G1 X 0030.98 Y 0051.37 E 0076.63
 G1 X 0042.19 Y 0061.13 E 0077.69
G1 X 0050.89 Y 0048.05 E 0077.54
 G1 X 0050.70 Y 0043.49 E 0078.60
G1 X 0050.89 Y 0048.05 E 0081.01
 G1 X 0057.93 Y 0063.89 E 0082.07
G1 X 0050.89 Y 0048.05 E 0085.05
 G1 X 0030.98 Y 0051.37 E 0086.11
G1 X 0052.36 Y 0068.88 E 0085.72
 G1 X 0054.12 Y 0066.01 E 0086.78
G1 X 0052.36 Y 0068.88 E 0090.40
 G1 X 0029.77 Y 0074.96 E 0091.46
G1 X 0048.63 Y 0084.33 E 0094.80
 G1 X 0069.38 Y 0091.69 E 0095.86
G1 X 0048.63 Y 0084.33 E 0097.98
 G1 X 0052.36 Y 0068.88 E 0099.04
G1 X 0045.88 Y 0087.20 E 0098.44
 G1 X 0045.11 Y 0089.37 E 0099.50
G1 X 0045.88 Y 0087.20 E 0102.26
 G1 X 0029.90 Y 0076.77 E 0103.32
G1 X 0045.88 Y 0087.20 E 0103.05
 G1 X 0048.63 Y 0084.33 E 0104.11
G1 X 0175.58 Y 0183.56 E 0104.21
 G1 X 0169.96 Y 0184.96 E 0105.27
G1 X 0179.93 Y 0178.51 E 0106.82
 G1 X 0185.00 Y 0190.55 E 0107.88
G1 X 0179.93 Y 0178.51 E 0109.64
 G1 X 0193.32 Y 0174.22 E 0110.69
G1 X 0179.56 Y 0178.39 E 0110.94
 G1 X 0175.58 Y 0183.56 E 0112.00
G1 X 0179.56 Y 0178.39 E 0111.02
 G1 X 0179.93 Y 0178.51 E 0112.08
G1 X 0149.00 Y 0140.99 E 0112.05
 G1 X 0149.84 Y 0146.06 E 0113.11
G1 X 0149.00 Y 0140.99 E 0114.84
 G1 X 0158.42 Y 0130.68 E 0115.90
G1 X 0134.14 Y 0130.28 E 0115.03
 G1 X 0133.20 Y 0130.19 E 0116.09
G1 X 0134.14 Y 0130.28 E 0118.28
 G1 X 0147.41 Y 0120.91 E 0119.34
G1 X 0134.14 Y 0130.28 E 0121.94
 G1 X 0149.00 Y 0140.99 E 0123.00
G1 X 0124.40 Y 0158.85 E 0122.75
 G1 X 0128.01 Y 0157.01 E 0123.81
G1 X 0114.24 Y 0170.82 E 0125.89
 G1 X 0124.40 Y 0158.85 E 0126.95
G1 X 0082.26 Y 0059.75 E 0128.38
 G1 X 0091.56 Y 0067.98 E 0129.43
G1 X 0080.07 Y 0058.91 E 0130.77
 G1 X 0068.08 Y 0058.91 E 0131.83
G1 X 0080.07 Y 0058.91 E 0131.24
 G1 X 0082.26 Y 0059.75 E 0132.30
G1 X 0083.29 Y 0044.13 E 0134.33
 G1 X 0069.32 Y 0050.65 E 0135.38
G1 X 0085.40 Y 0046.25 E 0137.07
 G1 X 0080.07 Y 0058.91 E 0138.13
G1 X 0098.52 Y 0057.54 E 0139.58
 G1 X 0091.56 Y 0067.98 E 0140.64
G1 X 0091.74 Y 0052.16 E 0142.01
 G1 X 0082.26 Y 0059.75 E 0143.07
G1 X 0130.53 Y 0108.59 E 0145.15
 G1 X 0125.78 Y 0123.56 E 0146.21
G1 X 0112.00 Y 0100.72 E 0146.46
 G1 X 0105.54 Y 0099.76 E 0147.52
G1 X 0112.00 Y 0100.72 E 0150.49
 G1 X 0130.53 Y 0108.59 E 0151.54
G1 X 0133.51 Y 0105.83 E 0151.30
 G1 X 0130.53 Y 0108.59 E 0152.36
G1 X 0125.87 Y 0093.79 E 0154.40
 G1 X 0112.00 Y 0100.72 E 0155.46
G1 X 0084.43 Y 0111.01 E 0159.04
 G1 X 0100.81 Y 0094.62 E 0160.09
G1 X 0068.12 Y 0099.26 E 0160.57
 G1 X 0069.38 Y 0091.69 E 0161.63
G1 X 0068.12 Y 0099.26 E 0164.59
 G1 X 0084.43 Y 0111.01 E 0165.65
G1 X 0100.73 Y 0093.75 E 0164.76
 G1 X 0100.81 Y 0094.62 E 0165.82
G1 X 0095.79 Y 0086.97 E 0165.97
 G1 X 0091.37 Y 0082.87 E 0167.03
G1 X 0095.79 Y 0086.97 E 0167.65
 G1 X 0100.73 Y 0093.75 E 0168.71
G1 X 0118.66 Y 0082.92 E 0171.84
 G1 X 0100.73 Y 0093.75 E 0172.90
G1 X 0049.98 Y 0099.82 E 0174.14
 G1 X 0045.11 Y 0089.37 E 0175.20
G1 X 0060.20 Y 0105.16 E 0176.12
 G1 X 0068.12 Y 0099.26 E 0177.18
G1 X 0060.20 Y 0105.16 E 0178.43
 G1 X 0049.98 Y 0099.82 E 0179.49
G1 X 0059.24 Y 0110.75 E 0179.56
 G1 X 0060.20 Y 0105.16 E 0180.62
G1 X 0039.26 Y 0108.75 E 0182.35
 G1 X 0049.98 Y 0099.82 E 0183.41
G1 X 0044.91 Y 0116.82 E 0185.46
 G1 X 0059.24 Y 0110.75 E 0186.52
G1 X 0171.97 Y 0193.78 E 0186.28
 G1 X 0172.59 Y 0197.79 E 0187.33
G1 X 0171.08 Y 0193.22 E 0186.49
 G1 X 0171.97 Y 0193.78 E 0187.54
G1 X 0171.52 Y 0187.51 E 0187.08
 G1 X 0169.96 Y 0184.96 E 0188.14
G1 X 0171.52 Y 0187.51 E 0188.23
 G1 X 0171.08 Y 0193.22 E 0189.29
G1 X 0180.80 Y 0191.38 E 0190.11
 G1 X 0175.58 Y 0183.56 E 0191.17
G1 X 0180.80 Y 0191.38 E 0192.12
 G1 X 0171.52 Y 0187.51 E 0193.18
G1 X 0181.31 Y 0191.78 E 0192.49
 G1 X 0183.04 Y 0192.37 E 0193.55
G1 X 0181.31 Y 0191.78 E 0194.40
 G1 X 0171.97 Y 0193.78 E 0195.46
G1 X 0181.31 Y 0191.78 E 0194.53
 G1 X 0180.80 Y 0191.38 E 0195.58
G1 X 0171.43 Y 0161.60 E 0197.36
 G1 X 0181.27 Y 0151.44 E 0198.41
G1 X 0174.17 Y 0166.79 E 0200.94
 G1 X 0192.10 Y 0167.33 E 0202.00
G1 X 0174.17 Y 0166.79 E 0202.12
 G1 X 0171.43 Y 0161.60 E 0203.17
G1 X 0173.53 Y 0172.10 E 0203.86
 G1 X 0179.56 Y 0178.39 E 0204.92
G1 X 0173.53 Y 0172.10 E 0204.93
 G1 X 0174.17 Y 0166.79 E 0205.99
G1 X 0166.87 Y 0178.07 E 0206.72
 G1 X 0173.53 Y 0172.10 E 0207.77
G1 X 0164.25 Y 0176.96 E 0207.29
 G1 X 0166.87 Y 0178.07 E 0208.34
G1 X 0153.22 Y 0169.75 E 0209.92
 G1 X 0164.25 Y 0176.96 E 0210.98
G1 X 0163.01 Y 0158.85 E 0211.45
 G1 X 0160.19 Y 0151.74 E 0212.51
G1 X 0163.01 Y 0158.85 E 0213.22
 G1 X 0171.43 Y 0161.60 E 0214.28
G1 X 0163.01 Y 0158.85 E 0216.15
 G1 X 0153.22 Y 0169.75 E 0217.21
G1 X 0106.57 Y 0156.39 E 0219.75
 G1 X 0124.40 Y 0158.85 E 0220.81
G1 X 0102.28 Y 0163.20 E 0221.36
 G1 X 0106.57 Y 0156.39 E 0222.42
G1 X 0096.15 Y 0147.59 E 0223.45
 G1 X 0092.84 Y 0157.51 E 0224.51
G1 X 0104.69 Y 0145.92 E 0224.88
 G1 X 0108.86 Y 0140.16 E 0225.94
G1 X 0104.69 Y 0145.92 E 0227.00
 G1 X 0106.57 Y 0156.39 E 0228.06
G1 X 0104.69 Y 0145.92 E 0228.74
 G1 X 0096.15 Y 0147.59 E 0229.80
G1 X 0083.70 Y 0140.20 E 0231.64
 G1 X 0096.15 Y 0147.59 E 0232.70
G1 X 0080.85 Y 0140.71 E 0233.48
 G1 X 0075.68 Y 0148.34 E 0234.54
G1 X 0080.85 Y 0140.71 E 0234.06
 G1 X 0083.70 Y 0140.20 E 0235.12
G1 X 0072.99 Y 0124.98 E 0237.58
 G1 X 0080.85 Y 0140.71 E 0238.64
G1 X 0084.28 Y 0113.95 E 0238.17
 G1 X 0084.43 Y 0111.01 E 0239.23
G1 X 0084.28 Y 0113.95 E 0241.32
 G1 X 0072.99 Y 0124.98 E 0242.38
G1 X 0097.87 Y 0126.50 E 0244.35
 G1 X 0108.72 Y 0115.94 E 0245.41
G1 X 0097.87 Y 0126.50 E 0248.05
 G1 X 0084.28 Y 0113.95 E 0249.11
G1 X 0097.91 Y 0127.61 E 0251.22
 G1 X 0108.81 Y 0139.09 E 0252.27
G1 X 0097.91 Y 0127.61 E 0255.01
 G1 X 0083.70 Y 0140.20 E 0256.07
G1 X 0097.91 Y 0127.61 E 0255.24
 G1 X 0097.87 Y 0126.50 E 0256.30
G1 X 0062.27 Y 0117.63 E 0256.74
 G1 X 0059.24 Y 0110.75 E 0257.80
G1 X 0069.84 Y 0124.61 E 0257.38
 G1 X 0072.99 Y 0124.98 E 0258.43
G1 X 0069.84 Y 0124.61 E 0259.43
 G1 X 0062.27 Y 0117.63 E 0260.49
G1 X 0057.95 Y 0136.09 E 0262.74
 G1 X 0069.84 Y 0124.61 E 0263.80
G1 X 0051.29 Y 0126.67 E 0265.58
 G1 X 0062.27 Y 0117.63 E 0266.64
G1 X 0105.48 Y 0076.54 E 0268.43
 G1 X 0095.79 Y 0086.97 E 0269.49
G1 X 0105.48 Y 0076.54 E 0270.02
 G1 X 0111.31 Y 0071.16 E 0271.08
G1 X 0105.48 Y 0067.15 E 0272.78
 G1 X 0092.59 Y 0072.19 E 0273.84
G1 X 0105.48 Y 0067.15 E 0273.31
 G1 X 0107.87 Y 0066.01 E 0274.37
G1 X 0105.48 Y 0067.15 E 0275.19
 G1 X 0105.48 Y 0076.54 E 0276.25
G1 X 0128.59 Y 0157.31 E 0275.32
 G1 X 0128.01 Y 0157.01 E 0276.38
G1 X 0136.90 Y 0158.36 E 0278.89
 G1 X 0149.84 Y 0146.06 E 0279.95
G1 X 0136.90 Y 0158.36 E 0280.57
 G1 X 0128.59 Y 0157.31 E 0281.63
G1 X 0155.79 Y 0183.73 E 0282.73
 G1 X 0164.25 Y 0176.96 E 0283.79
G1 X 0156.48 Y 0186.28 E 0283.26
 G1 X 0155.79 Y 0183.73 E 0284.32
G1 X 0150.77 Y 0192.54 E 0284.96
 G1 X 0156.48 Y 0186.28 E 0286.01
G1 X 0157.90 Y 0186.43 E 0285.24
 G1 X 0156.48 Y 0186.28 E 0286.30
G1 X 0167.14 Y 0183.20 E 0286.27
 G1 X 0166.87 Y 0178.07 E 0287.33
G1 X 0167.14 Y 0183.20 E 0288.23
 G1 X 0157.90 Y 0186.43 E 0289.29
G1 X 0167.46 Y 0183.67 E 0288.79
 G1 X 0169.96 Y 0184.96 E 0289.85
G1 X 0167.46 Y 0183.67 E 0288.90
 G1 X 0167.14 Y 0183.20 E 0289.96
G1 X 0164.48 Y 0194.39 E 0290.24
 G1 X 0171.08 Y 0193.22 E 0291.30
G1 X 0164.48 Y 0194.39 E 0292.47
 G1 X 0167.46 Y 0183.67 E 0293.53
G1 X 0164.35 Y 0194.51 E 0292.99
 G1 X 0163.29 Y 0196.87 E 0294.04
G1 X 0164.35 Y 0194.51 E 0295.05
 G1 X 0157.90 Y 0186.43 E 0296.11
G1 X 0164.35 Y 0194.51 E 0295.09
 G1 X 0164.48 Y 0194.39 E 0296.15
G1 X 0143.47 Y 0166.44 E 0297.17
 G1 X 0136.90 Y 0158.36 E 0298.23
G1 X 0143.47 Y 0166.44 E 0299.58
 G1 X 0137.80 Y 0177.04 E 0300.63
G1 X 0152.81 Y 0169.90 E 0299.66
 G1 X 0153.22 Y 0169.75 E 0300.72
G1 X 0152.81 Y 0169.90 E 0301.65
 G1 X 0143.47 Y 0166.44 E 0302.71
G1 X 0151.74 Y 0176.30 E 0303.35
 G1 X 0155.79 Y 0183.73 E 0304.41
G1 X 0151.74 Y 0176.30 E 0304.64
 G1 X 0152.81 Y 0169.90 E 0305.70
G1 X 0147.39 Y 0180.88 E 0306.35
 G1 X 0144.39 Y 0188.86 E 0307.41
G1 X 0147.39 Y 0180.88 E 0308.42
 G1 X 0137.80 Y 0177.04 E 0309.48
G1 X 0147.39 Y 0180.88 E 0309.68
 G1 X 0151.74 Y 0176.30 E 0310.74
G1 X 0128.59 Y 0167.65 E 0311.75
 G1 X 0128.59 Y 0157.31 E 0312.81
G1 X 0135.41 Y 0179.33 E 0312.41
 G1 X 0137.80 Y 0177.04 E 0313.47
G1 X 0135.41 Y 0179.33 E 0315.12
 G1 X 0128.59 Y 0167.65 E 0316.18
G1 X 0125.48 Y 0176.09 E 0316.92
 G1 X 0128.59 Y 0167.65 E 0317.97
G1 X 0134.28 Y 0181.59 E 0317.42
 G1 X 0135.41 Y 0179.33 E 0318.48
;CONTOUR EDGES
G1 X 0046.92 Y 0026.46 E 0317.58
 G1 X 0046.57 Y 0027.16 E 0318.64
G1 X 0046.57 Y 0027.16 E 0318.58
 G1 X 0051.51 Y 0026.46 E 0319.64
G1 X 0051.51 Y 0026.46 E 0320.07
 G1 X 0058.91 Y 0027.16 E 0321.12
G1 X 0058.91 Y 0027.16 E 0321.11
 G1 X 0063.85 Y 0028.93 E 0322.17
G1 X 0063.85 Y 0028.93 E 0322.13
 G1 X 0068.09 Y 0031.75 E 0323.19
G1 X 0068.09 Y 0031.75 E 0322.95
 G1 X 0071.61 Y 0033.87 E 0324.01
G1 X 0071.61 Y 0033.87 E 0324.41
 G1 X 0077.26 Y 0038.45 E 0325.47
G1 X 0077.26 Y 0038.45 E 0325.56
 G1 X 0081.49 Y 0042.33 E 0326.62
G1 X 0081.49 Y 0042.33 E 0327.15
 G1 X 0087.14 Y 0047.98 E 0328.21
G1 X 0087.14 Y 0047.98 E 0328.20
 G1 X 0091.02 Y 0051.51 E 0329.26
G1 X 0091.02 Y 0051.51 E 0329.25
 G1 X 0094.90 Y 0055.03 E 0330.31
G1 X 0094.90 Y 0055.03 E 0330.37
 G1 X 0099.48 Y 0058.21 E 0331.43
G1 X 0099.48 Y 0058.21 E 0331.29
 G1 X 0103.36 Y 0060.68 E 0332.35
G1 X 0103.36 Y 0060.68 E 0332.59
 G1 X 0107.60 Y 0065.62 E 0333.65
G1 X 0107.60 Y 0065.62 E 0333.45
 G1 X 0110.07 Y 0069.14 E 0334.51
G1 X 0110.07 Y 0069.14 E 0334.53
 G1 X 0112.89 Y 0073.73 E 0335.58
G1 X 0112.89 Y 0073.73 E 0335.76
 G1 X 0116.06 Y 0079.02 E 0336.82
G1 X 0116.06 Y 0079.02 E 0336.78
 G1 X 0118.89 Y 0083.26 E 0337.84
G1 X 0118.89 Y 0083.26 E 0338.29
 G1 X 0123.47 Y 0089.25 E 0339.35
G1 X 0123.47 Y 0089.25 E 0339.65
 G1 X 0126.65 Y 0095.25 E 0340.70
G1 X 0126.65 Y 0095.25 E 0341.06
 G1 X 0130.88 Y 0100.89 E 0342.11
G1 X 0130.88 Y 0100.89 E 0342.26
 G1 X 0133.70 Y 0106.19 E 0343.31
G1 X 0133.70 Y 0106.19 E 0343.96
 G1 X 0139.35 Y 0112.54 E 0345.01
G1 X 0139.35 Y 0112.54 E 0345.15
 G1 X 0143.58 Y 0116.77 E 0346.21
G1 X 0143.58 Y 0116.77 E 0346.20
 G1 X 0147.11 Y 0120.65 E 0347.26
G1 X 0147.11 Y 0120.65 E 0347.50
 G1 X 0152.05 Y 0124.88 E 0348.56
G1 X 0152.05 Y 0124.88 E 0348.85
 G1 X 0156.99 Y 0129.47 E 0349.91
G1 X 0156.99 Y 0129.47 E 0350.05
 G1 X 0161.57 Y 0133.35 E 0351.11
G1 X 0161.57 Y 0133.35 E 0351.45
 G1 X 0166.51 Y 0138.29 E 0352.51
G1 X 0166.51 Y 0138.29 E 0353.05
 G1 X 0172.51 Y 0143.58 E 0354.11
G1 X 0172.51 Y 0143.58 E 0355.05
 G1 X 0179.92 Y 0150.28 E 0356.10
G1 X 0179.92 Y 0150.28 E 0356.35
 G1 X 0184.86 Y 0154.52 E 0357.41
G1 X 0184.86 Y 0154.52 E 0357.37
 G1 X 0187.68 Y 0158.75 E 0358.42
G1 X 0187.68 Y 0158.75 E 0358.82
 G1 X 0191.21 Y 0165.10 E 0359.88
G1 X 0191.21 Y 0165.10 E 0359.96
 G1 X 0193.32 Y 0170.39 E 0361.02
G1 X 0193.32 Y 0170.39 E 0361.58
 G1 X 0193.32 Y 0178.51 E 0362.64
G1 X 0193.32 Y 0178.51 E 0362.56
 G1 X 0191.56 Y 0183.09 E 0363.62
G1 X 0191.56 Y 0183.09 E 0363.82
 G1 X 0187.68 Y 0188.03 E 0364.88
G1 X 0187.68 Y 0188.03 E 0365.37
 G1 X 0182.03 Y 0193.32 E 0366.43
G1 X 0182.03 Y 0193.32 E 0366.38
 G1 X 0177.80 Y 0196.14 E 0367.44
G1 X 0177.80 Y 0196.14 E 0367.79
 G1 X 0171.10 Y 0198.26 E 0368.85
G1 X 0171.10 Y 0198.26 E 0369.80
 G1 X 0161.22 Y 0196.50 E 0370.86
G1 X 0161.22 Y 0196.50 E 0371.14
 G1 X 0154.87 Y 0194.38 E 0372.19
G1 X 0154.87 Y 0194.38 E 0372.68
 G1 X 0147.81 Y 0191.21 E 0373.74
G1 X 0147.81 Y 0191.21 E 0374.31
 G1 X 0141.11 Y 0186.62 E 0375.37
G1 X 0141.11 Y 0186.62 E 0375.97
 G1 X 0134.41 Y 0181.68 E 0377.03
G1 X 0134.41 Y 0181.68 E 0377.34
 G1 X 0128.76 Y 0177.80 E 0378.40
G1 X 0128.76 Y 0177.80 E 0379.17
 G1 X 0120.65 Y 0173.57 E 0380.23
G1 X 0120.65 Y 0173.57 E 0380.47
 G1 X 0114.65 Y 0171.10 E 0381.53
G1 X 0114.65 Y 0171.10 E 0382.09
 G1 X 0107.95 Y 0166.51 E 0383.15
G1 X 0107.95 Y 0166.51 E 0384.05
 G1 X 0099.48 Y 0161.57 E 0385.11
G1 X 0099.48 Y 0161.57 E 0385.54
 G1 X 0093.13 Y 0157.69 E 0386.60
G1 X 0093.13 Y 0157.69 E 0387.79
 G1 X 0083.61 Y 0151.69 E 0388.85
G1 X 0083.61 Y 0151.69 E 0389.16
 G1 X 0077.26 Y 0149.22 E 0390.22
G1 X 0077.26 Y 0149.22 E 0391.18
 G1 X 0068.44 Y 0144.29 E 0392.24
G1 X 0068.44 Y 0144.29 E 0392.89
 G1 X 0061.03 Y 0140.05 E 0393.94
G1 X 0061.03 Y 0140.05 E 0394.49
 G1 X 0056.09 Y 0133.70 E 0395.55
G1 X 0056.09 Y 0133.70 E 0396.37
 G1 X 0050.80 Y 0125.94 E 0397.43
G1 X 0050.80 Y 0125.94 E 0398.21
 G1 X 0045.86 Y 0118.18 E 0399.27
G1 X 0045.86 Y 0118.18 E 0400.80
 G1 X 0038.45 Y 0107.60 E 0401.85
G1 X 0038.45 Y 0107.60 E 0403.27
 G1 X 0034.22 Y 0095.96 E 0404.33
G1 X 0034.22 Y 0095.96 E 0404.93
 G1 X 0031.40 Y 0088.19 E 0405.98
G1 X 0031.40 Y 0088.19 E 0406.99
 G1 X 0029.99 Y 0077.96 E 0408.05
G1 X 0029.99 Y 0077.96 E 0408.97
 G1 X 0029.28 Y 0068.09 E 0410.03
G1 X 0029.28 Y 0068.09 E 0410.88
 G1 X 0028.93 Y 0058.56 E 0411.94
G1 X 0028.93 Y 0058.56 E 0412.49
 G1 X 0031.04 Y 0050.80 E 0413.55
G1 X 0031.04 Y 0050.80 E 0414.00
 G1 X 0034.57 Y 0044.10 E 0415.06
G1 X 0034.57 Y 0044.10 E 0415.61
 G1 X 0038.45 Y 0037.04 E 0416.67
G1 X 0038.45 Y 0037.04 E 0416.87
 G1 X 0042.33 Y 0032.10 E 0417.93
G1 X 0042.33 Y 0032.10 E 0417.87
 G1 X 0045.86 Y 0028.57 E 0418.92
G1 X 0045.86 Y 0028.57 E 0418.34
 G1 X 0046.92 Y 0026.46 E 0419.40
G0  F600 Z0.6
;INSOLE EDGES
G1 X 0051.80 Y 0036.56 E 0420.56
 G1 X 0046.83 Y 0026.63 E 0421.62
G1 X 0052.27 Y 0040.20 E 0421.29
 G1 X 0051.80 Y 0036.56 E 0422.35
G1 X 0052.27 Y 0040.20 E 0422.02
 G1 X 0050.70 Y 0043.49 E 0423.08
G1 X 0063.26 Y 0041.02 E 0424.23
