;FLAVOR:UltiGCode
; TIME:400
;MATERIAL:160
; MATERIAL2: 0
;NOZZLE_DIAMETER:0.400000
;NOZZLE_DIAMETER2:  0.400000
;Layer count: 98
;LAYER: 0
M107
G0  F600 Z0.3
;INSOLE EDGES
G1 X 0171.81 Y 0186.38 E 0000.59
 G1 X 0174.52 Y 0194.16 E 0001.65
G1 X 0160.35 Y 0185.62 E 0002.47
 G1 X 0158.98 Y 0194.91 E 0003.52
G1 X 0160.35 Y 0185.62 E 0004.76
 G1 X 0171.81 Y 0186.38 E 0005.82
G1 X 0186.18 Y 0163.33 E 0007.90
 G1 X 0171.65 Y 0169.27 E 0008.96
G1 X 0177.21 Y 0177.91 E 0011.01
 G1 X 0187.67 Y 0189.42 E 0012.07
G1 X 0177.21 Y 0177.91 E 0013.66
 G1 X 0190.45 Y 0177.38 E 0014.72
G1 X 0174.74 Y 0177.20 E 0015.59
 G1 X 0171.81 Y 0186.38 E 0016.65
G1 X 0174.74 Y 0177.20 E 0017.29
 G1 X 0171.65 Y 0169.27 E 0018.35
G1 X 0174.74 Y 0177.20 E 0017.81
 G1 X 0177.21 Y 0177.91 E 0018.87
G1 X 0037.66 Y 0082.62 E 0020.33
 G1 X 0025.19 Y 0084.49 E 0021.39
G1 X 0045.28 Y 0061.15 E 0024.89
 G1 X 0037.66 Y 0082.62 E 0025.94
G1 X 0063.99 Y 0082.06 E 0030.50
 G1 X 0045.28 Y 0061.15 E 0031.56
G1 X 0060.33 Y 0087.99 E 0035.16
 G1 X 0037.66 Y 0082.62 E 0036.21
G1 X 0060.33 Y 0087.99 E 0036.55
 G1 X 0063.99 Y 0082.06 E 0037.61
G1 X 0044.26 Y 0052.65 E 0038.26
 G1 X 0045.28 Y 0061.15 E 0039.32
G1 X 0027.06 Y 0045.48 E 0041.99
 G1 X 0044.26 Y 0052.65 E 0043.05
G1 X 0072.52 Y 0073.53 E 0044.40
 G1 X 0063.99 Y 0082.06 E 0045.46
G1 X 0077.46 Y 0062.80 E 0046.76
 G1 X 0072.52 Y 0073.53 E 0047.82
G1 X 0167.24 Y 0166.82 E 0047.77
 G1 X 0171.65 Y 0169.27 E 0048.83
G1 X 0133.64 Y 0152.30 E 0049.22
 G1 X 0140.29 Y 0155.10 E 0050.28
G1 X 0047.95 Y 0051.94 E 0049.97
 G1 X 0044.26 Y 0052.65 E 0051.03
G1 X 0055.95 Y 0037.02 E 0054.61
 G1 X 0046.64 Y 0015.74 E 0055.67
G1 X 0055.95 Y 0037.02 E 0058.00
 G1 X 0047.95 Y 0051.94 E 0059.06
G1 X 0080.99 Y 0040.47 E 0059.61
 G1 X 0084.93 Y 0033.44 E 0060.67
G1 X 0080.99 Y 0040.47 E 0064.67
 G1 X 0055.95 Y 0037.02 E 0065.73
G1 X 0076.16 Y 0057.76 E 0065.71
 G1 X 0077.46 Y 0062.80 E 0066.77
G1 X 0076.16 Y 0057.76 E 0071.47
 G1 X 0047.95 Y 0051.94 E 0072.53
G1 X 0076.16 Y 0057.76 E 0075.06
 G1 X 0080.99 Y 0040.47 E 0076.12
G1 X 0141.05 Y 0156.39 E 0075.36
 G1 X 0140.29 Y 0155.10 E 0076.42
G1 X 0156.65 Y 0170.51 E 0077.60
 G1 X 0167.24 Y 0166.82 E 0078.66
G1 X 0156.65 Y 0170.51 E 0081.81
 G1 X 0141.05 Y 0156.39 E 0082.87
G1 X 0156.88 Y 0145.81 E 0085.61
 G1 X 0140.29 Y 0155.10 E 0086.67
G1 X 0138.29 Y 0174.99 E 0089.37
 G1 X 0141.05 Y 0156.39 E 0090.43
G1 X 0153.73 Y 0177.93 E 0090.96
 G1 X 0156.65 Y 0170.51 E 0092.02
G1 X 0153.73 Y 0177.93 E 0094.11
 G1 X 0138.29 Y 0174.99 E 0095.17
G1 X 0153.72 Y 0178.22 E 0096.10
 G1 X 0160.35 Y 0185.62 E 0097.15
G1 X 0153.72 Y 0178.22 E 0099.48
 G1 X 0143.11 Y 0191.39 E 0100.54
G1 X 0153.72 Y 0178.22 E 0099.54
 G1 X 0153.73 Y 0177.93 E 0100.60
G1 X 0096.77 Y 0096.91 E 0106.27
 G1 X 0072.52 Y 0073.53 E 0107.33
G1 X 0159.06 Y 0146.12 E 0106.71
 G1 X 0156.88 Y 0145.81 E 0107.77
G1 X 0169.73 Y 0138.83 E 0109.30
 G1 X 0159.06 Y 0146.12 E 0110.36
G1 X 0167.36 Y 0159.47 E 0110.77
 G1 X 0167.24 Y 0166.82 E 0111.83
G1 X 0167.36 Y 0159.47 E 0113.91
 G1 X 0159.06 Y 0146.12 E 0114.97
G1 X 0167.36 Y 0159.47 E 0116.74
 G1 X 0177.77 Y 0149.93 E 0117.80
G1 X 0153.47 Y 0136.81 E 0118.66
 G1 X 0156.88 Y 0145.81 E 0119.72
G1 X 0153.47 Y 0136.81 E 0121.12
 G1 X 0161.02 Y 0127.10 E 0122.18
G1 X 0142.66 Y 0129.47 E 0124.38
 G1 X 0157.59 Y 0122.90 E 0125.44
G1 X 0142.66 Y 0129.47 E 0127.00
 G1 X 0153.47 Y 0136.81 E 0128.06
G1 X 0133.88 Y 0179.05 E 0128.20
 G1 X 0138.29 Y 0174.99 E 0129.26
G1 X 0130.38 Y 0184.07 E 0129.42
 G1 X 0133.88 Y 0179.05 E 0130.48
G1 X 0130.68 Y 0163.03 E 0131.65
 G1 X 0133.64 Y 0152.30 E 0132.71
G1 X 0130.68 Y 0163.03 E 0134.91
 G1 X 0133.88 Y 0179.05 E 0135.97
G1 X 0130.68 Y 0163.03 E 0138.10
 G1 X 0123.26 Y 0177.12 E 0139.16
G1 X 0100.52 Y 0084.55 E 0140.68
 G1 X 0096.77 Y 0096.91 E 0141.74
G1 X 0100.52 Y 0084.55 E 0143.56
 G1 X 0114.73 Y 0082.28 E 0144.62
G1 X 0099.67 Y 0078.99 E 0144.69
 G1 X 0100.52 Y 0084.55 E 0145.74
G1 X 0112.80 Y 0072.77 E 0147.59
 G1 X 0099.67 Y 0078.99 E 0148.65
G1 X 0129.28 Y 0148.71 E 0148.72
 G1 X 0133.64 Y 0152.30 E 0149.78
G1 X 0117.04 Y 0149.05 E 0151.80
 G1 X 0105.75 Y 0159.46 E 0152.85
G1 X 0117.04 Y 0149.05 E 0154.24
 G1 X 0129.28 Y 0148.71 E 0155.30
G1 X 0137.41 Y 0128.67 E 0155.31
 G1 X 0142.66 Y 0129.47 E 0156.36
G1 X 0137.41 Y 0128.67 E 0159.63
 G1 X 0129.28 Y 0148.71 E 0160.69
G1 X 0112.37 Y 0132.81 E 0164.96
 G1 X 0101.56 Y 0108.47 E 0166.01
G1 X 0111.93 Y 0137.83 E 0167.42
 G1 X 0117.04 Y 0149.05 E 0168.48
G1 X 0111.93 Y 0137.83 E 0168.43
 G1 X 0112.37 Y 0132.81 E 0169.49
G1 X 0083.79 Y 0129.24 E 0170.37
 G1 X 0076.84 Y 0136.00 E 0171.43
G1 X 0083.79 Y 0129.24 E 0176.25
 G1 X 0111.93 Y 0137.83 E 0177.31
G1 X 0125.98 Y 0119.20 E 0180.10
 G1 X 0112.37 Y 0132.81 E 0181.16
G1 X 0082.71 Y 0064.26 E 0181.19
 G1 X 0077.46 Y 0062.80 E 0182.25
G1 X 0094.64 Y 0059.96 E 0183.62
 G1 X 0104.73 Y 0053.24 E 0184.67
G1 X 0094.64 Y 0059.96 E 0186.15
 G1 X 0082.71 Y 0064.26 E 0187.21
G1 X 0108.90 Y 0061.39 E 0189.02
 G1 X 0094.64 Y 0059.96 E 0190.08
G1 X 0094.77 Y 0071.18 E 0190.86
 G1 X 0099.67 Y 0078.99 E 0191.92
G1 X 0094.77 Y 0071.18 E 0193.64
 G1 X 0082.71 Y 0064.26 E 0194.70
G1 X 0094.77 Y 0071.18 E 0197.03
 G1 X 0110.23 Y 0064.31 E 0198.09
G1 X 0096.83 Y 0097.35 E 0197.12
 G1 X 0096.77 Y 0096.91 E 0198.17
G1 X 0098.45 Y 0100.60 E 0201.43
 G1 X 0116.24 Y 0088.43 E 0202.48
G1 X 0098.45 Y 0100.60 E 0202.15
 G1 X 0096.83 Y 0097.35 E 0203.21
G1 X 0100.20 Y 0107.98 E 0202.44
 G1 X 0101.56 Y 0108.47 E 0203.50
G1 X 0100.20 Y 0107.98 E 0203.96
 G1 X 0098.45 Y 0100.60 E 0205.02
G1 X 0089.53 Y 0117.05 E 0206.65
 G1 X 0083.79 Y 0129.24 E 0207.71
G1 X 0089.53 Y 0117.05 E 0209.45
 G1 X 0100.20 Y 0107.98 E 0210.51
G1 X 0061.50 Y 0097.51 E 0214.00
 G1 X 0050.97 Y 0117.65 E 0215.06
G1 X 0061.50 Y 0097.51 E 0220.83
 G1 X 0089.53 Y 0117.05 E 0221.89
G1 X 0061.65 Y 0096.21 E 0222.50
 G1 X 0060.33 Y 0087.99 E 0223.56
G1 X 0061.65 Y 0096.21 E 0229.54
 G1 X 0096.83 Y 0097.35 E 0230.59
G1 X 0061.65 Y 0096.21 E 0229.80
 G1 X 0061.50 Y 0097.51 E 0230.86
G1 X 0119.11 Y 0112.15 E 0231.77
 G1 X 0125.98 Y 0119.20 E 0232.82
G1 X 0102.12 Y 0108.47 E 0231.88
 G1 X 0101.56 Y 0108.47 E 0232.94
G1 X 0102.12 Y 0108.47 E 0235.36
 G1 X 0119.11 Y 0112.15 E 0236.41
G1 X 0130.67 Y 0120.68 E 0236.34
 G1 X 0125.98 Y 0119.20 E 0237.40
G1 X 0127.78 Y 0101.00 E 0239.16
 G1 X 0119.11 Y 0112.15 E 0240.22
G1 X 0134.92 Y 0104.38 E 0242.53
 G1 X 0130.67 Y 0120.68 E 0243.59
G1 X 0120.77 Y 0095.42 E 0247.08
 G1 X 0102.12 Y 0108.47 E 0248.14
G1 X 0136.21 Y 0124.99 E 0247.85
 G1 X 0137.41 Y 0128.67 E 0248.91
G1 X 0136.21 Y 0124.99 E 0249.26
 G1 X 0130.67 Y 0120.68 E 0250.32
G1 X 0136.21 Y 0124.99 E 0252.63
 G1 X 0146.95 Y 0112.03 E 0253.68
;CONTOUR EDGES
G1 X 0044.45 Y 0016.23 E 0252.85
 G1 X 0045.51 Y 0015.87 E 0253.91
G1 X 0045.51 Y 0015.87 E 0254.06
 G1 X 0051.51 Y 0015.17 E 0255.12
G1 X 0051.51 Y 0015.17 E 0255.34
 G1 X 0057.86 Y 0015.87 E 0256.39
G1 X 0057.86 Y 0015.87 E 0257.10
 G1 X 0066.32 Y 0018.34 E 0258.16
G1 X 0066.32 Y 0018.34 E 0258.96
 G1 X 0073.73 Y 0023.99 E 0260.02
G1 X 0073.73 Y 0023.99 E 0261.46
 G1 X 0083.26 Y 0032.10 E 0262.52
G1 X 0083.26 Y 0032.10 E 0263.72
 G1 X 0092.07 Y 0039.16 E 0264.78
G1 X 0092.07 Y 0039.16 E 0265.57
 G1 X 0098.78 Y 0045.51 E 0266.63
G1 X 0098.78 Y 0045.51 E 0267.88
 G1 X 0105.83 Y 0054.68 E 0268.94
G1 X 0105.83 Y 0054.68 E 0270.60
 G1 X 0111.48 Y 0067.03 E 0271.66
G1 X 0111.48 Y 0067.03 E 0272.48
 G1 X 0113.59 Y 0076.20 E 0273.54
G1 X 0113.59 Y 0076.20 E 0274.78
 G1 X 0115.71 Y 0087.49 E 0275.84
G1 X 0115.71 Y 0087.49 E 0276.07
 G1 X 0118.89 Y 0093.13 E 0277.13
G1 X 0118.89 Y 0093.13 E 0277.63
 G1 X 0123.82 Y 0099.13 E 0278.69
G1 X 0123.82 Y 0099.13 E 0279.11
 G1 X 0130.53 Y 0102.31 E 0280.17
G1 X 0130.53 Y 0102.31 E 0280.60
 G1 X 0137.23 Y 0105.48 E 0281.65
G1 X 0137.23 Y 0105.48 E 0282.24
 G1 X 0144.29 Y 0109.71 E 0283.30
G1 X 0144.29 Y 0109.71 E 0284.39
 G1 X 0152.40 Y 0116.77 E 0285.45
G1 X 0152.40 Y 0116.77 E 0286.79
 G1 X 0160.16 Y 0125.94 E 0287.85
G1 X 0160.16 Y 0125.94 E 0289.87
 G1 X 0169.33 Y 0138.29 E 0290.93
G1 X 0169.33 Y 0138.29 E 0292.50
 G1 X 0177.09 Y 0148.87 E 0293.55
G1 X 0177.09 Y 0148.87 E 0294.34
 G1 X 0182.03 Y 0156.63 E 0295.39
G1 X 0182.03 Y 0156.63 E 0296.08
 G1 X 0186.62 Y 0164.04 E 0297.14
G1 X 0186.62 Y 0164.04 E 0297.42
 G1 X 0188.74 Y 0170.39 E 0298.47
G1 X 0188.74 Y 0170.39 E 0298.36
 G1 X 0189.79 Y 0174.98 E 0299.42
G1 X 0189.79 Y 0174.98 E 0299.97
 G1 X 0191.91 Y 0182.74 E 0301.03
G1 X 0191.91 Y 0182.74 E 0301.13
 G1 X 0189.44 Y 0188.03 E 0302.19
G1 X 0189.44 Y 0188.03 E 0302.39
 G1 X 0184.50 Y 0191.91 E 0303.45
G1 X 0184.50 Y 0191.91 E 0304.34
 G1 X 0174.98 Y 0194.03 E 0305.40
G1 X 0174.98 Y 0194.03 E 0305.66
 G1 X 0168.63 Y 0195.79 E 0306.72
G1 X 0168.63 Y 0195.79 E 0308.00
 G1 X 0156.99 Y 0194.73 E 0309.06
G1 X 0156.99 Y 0194.73 E 0310.30
 G1 X 0145.70 Y 0192.62 E 0311.35
G1 X 0145.70 Y 0192.62 E 0313.10
 G1 X 0133.00 Y 0186.62 E 0314.16
G1 X 0133.00 Y 0186.62 E 0317.15
 G1 X 0118.53 Y 0172.51 E 0318.20
G1 X 0118.53 Y 0172.51 E 0322.09
 G1 X 0101.25 Y 0154.87 E 0323.14
G1 X 0101.25 Y 0154.87 E 0327.41
 G1 X 0080.43 Y 0138.29 E 0328.47
G1 X 0080.43 Y 0138.29 E 0333.18
 G1 X 0056.09 Y 0122.77 E 0334.24
G1 X 0056.09 Y 0122.77 E 0338.67
 G1 X 0036.69 Y 0103.36 E 0339.73
G1 X 0036.69 Y 0103.36 E 0342.96
 G1 X 0025.05 Y 0085.37 E 0344.01
G1 X 0025.05 Y 0085.37 E 0344.24
 G1 X 0026.11 Y 0079.02 E 0345.30
G1 X 0026.11 Y 0079.02 E 0347.41
 G1 X 0021.52 Y 0063.85 E 0348.47
G1 X 0021.52 Y 0063.85 E 0348.42
 G1 X 0023.64 Y 0059.27 E 0349.48
G1 X 0023.64 Y 0059.27 E 0350.29
 G1 X 0021.87 Y 0050.09 E 0351.35
G1 X 0021.87 Y 0050.09 E 0351.99
 G1 X 0028.22 Y 0044.45 E 0353.05
G1 X 0028.22 Y 0044.45 E 0354.32
 G1 X 0027.87 Y 0032.81 E 0355.38
G1 X 0027.87 Y 0032.81 E 0356.39
 G1 X 0037.75 Y 0029.63 E 0357.45
G1 X 0037.75 Y 0029.63 E 0359.02
 G1 X 0043.04 Y 0017.64 E 0360.07
G1 X 0043.04 Y 0017.64 E 0359.42
 G1 X 0044.45 Y 0016.23 E 0360.47
G0  F600 Z0.6
;INSOLE EDGES
G1 X 0171.81 Y 0186.38 E 0361.06
 G1 X 0174.52 Y 0194.16 E 0362.12
G1 X 0160.35 Y 0185.62 E 0362.94
 G1 X 0158.98 Y 0194.91 E 0364.00
G1 X 0160.35 Y 0185.62 E 0365.24
 G1 X 0171.81 Y 0186.38 E 0366.29
G1 X 0186.18 Y 0163.33 E 0368.38
 G1 X 0171.65 Y 0169.27 E 0369.43
G1 X 0177.21 Y 0177.91 E 0371.49
 G1 X 0187.67 Y 0189.42 E 0372.55
G1 X 0177.21 Y 0177.91 E 0374.14
 G1 X 0190.45 Y 0177.38 E 0375.20
G1 X 0174.74 Y 0177.20 E 0376.06
 G1 X 0171.81 Y 0186.38 E 0377.12
G1 X 0174.74 Y 0177.20 E 0377.77
 G1 X 0171.65 Y 0169.27 E 0378.83
G1 X 0174.74 Y 0177.20 E 0378.28
 G1 X 0177.21 Y 0177.91 E 0379.34
G1 X 0037.66 Y 0082.62 E 0380.80
 G1 X 0025.19 Y 0084.49 E 0381.86
G1 X 0045.28 Y 0061.15 E 0385.36
 G1 X 0037.66 Y 0082.62 E 0386.42
G1 X 0063.99 Y 0082.06 E 0390.97
 G1 X 0045.28 Y 0061.15 E 0392.03
G1 X 0060.33 Y 0087.99 E 0395.63
 G1 X 0037.66 Y 0082.62 E 0396.69
G1 X 0060.33 Y 0087.99 E 0397.02
 G1 X 0063.99 Y 0082.06 E 0398.08
G1 X 0044.26 Y 0052.65 E 0398.74
 G1 X 0045.28 Y 0061.15 E 0399.79
G1 X 0027.06 Y 0045.48 E 0402.46
 G1 X 0044.26 Y 0052.65 E 0403.52
G1 X 0072.52 Y 0073.53 E 0404.88
 G1 X 0063.99 Y 0082.06 E 0405.93
G1 X 0077.46 Y 0062.80 E 0407.24
 G1 X 0072.52 Y 0073.53 E 0408.30
G1 X 0167.24 Y 0166.82 E 0408.25
 G1 X 0171.65 Y 0169.27 E 0409.31
G1 X 0133.64 Y 0152.30 E 0409.69
 G1 X 0140.29 Y 0155.10 E 0410.75
G1 X 0047.95 Y 0051.94 E 0410.44
 G1 X 0044.26 Y 0052.65 E 0411.50
G1 X 0055.95 Y 0037.02 E 0415.09
 G1 X 0046.64 Y 0015.74 E 0416.15
G1 X 0055.95 Y 0037.02 E 0418.47
 G1 X 0047.95 Y 0051.94 E 0419.53
G1 X 0080.99 Y 0040.47 E 0420.08
 G1 X 0084.93 Y 0033.44 E 0421.14
G1 X 0080.99 Y 0040.47 E 0425.14
 G1 X 0055.95 Y 0037.02 E 0426.20
G1 X 0076.16 Y 0057.76 E 0426.18
 G1 X 0077.46 Y 0062.80 E 0427.24
G1 X 0076.16 Y 0057.76 E 0431.94
 G1 X 0047.95 Y 0051.94 E 0433.00
G1 X 0076.16 Y 0057.76 E 0435.53
 G1 X 0080.99 Y 0040.47 E 0436.59
G1 X 0141.05 Y 0156.39 E 0435.83
 G1 X 0140.29 Y 0155.10 E 0436.89
G1 X 0156.65 Y 0170.51 E 0438.07
 G1 X 0167.24 Y 0166.82 E 0439.13
G1 X 0156.65 Y 0170.51 E 0442.28
 G1 X 0141.05 Y 0156.39 E 0443.34
G1 X 0156.88 Y 0145.81 E 0446.08
 G1 X 0140.29 Y 0155.10 E 0447.14
G1 X 0138.29 Y 0174.99 E 0449.84
 G1 X 0141.05 Y 0156.39 E 0450.90
G1 X 0153.73 Y 0177.93 E 0451.44
 G1 X 0156.65 Y 0170.51 E 0452.50
G1 X 0153.73 Y 0177.93 E 0454.58
 G1 X 0138.29 Y 0174.99 E 0455.64
G1 X 0153.72 Y 0178.22 E 0456.57
 G1 X 0160.35 Y 0185.62 E 0457.63
G1 X 0153.72 Y 0178.22 E 0459.95
 G1 X 0143.11 Y 0191.39 E 0461.01
G1 X 0153.72 Y 0178.22 E 0460.01
 G1 X 0153.73 Y 0177.93 E 0461.07
G1 X 0096.77 Y 0096.91 E 0466.75
 G1 X 0072.52 Y 0073.53 E 0467.81
G1 X 0159.06 Y 0146.12 E 0467.19
 G1 X 0156.88 Y 0145.81 E 0468.25
G1 X 0169.73 Y 0138.83 E 0469.77
 G1 X 0159.06 Y 0146.12 E 0470.83
G1 X 0167.36 Y 0159.47 E 0471.24
 G1 X 0167.24 Y 0166.82 E 0472.30
G1 X 0167.36 Y 0159.47 E 0474.39
 G1 X 0159.06 Y 0146.12 E 0475.45
G1 X 0167.36 Y 0159.47 E 0477.21
 G1 X 0177.77 Y 0149.93 E 0478.27
G1 X 0153.47 Y 0136.81 E 0479.14
 G1 X 0156.88 Y 0145.81 E 0480.20
G1 X 0153.47 Y 0136.81 E 0481.60
 G1 X 0161.02 Y 0127.10 E 0482.65
G1 X 0142.66 Y 0129.47 E 0484.86
 G1 X 0157.59 Y 0122.90 E 0485.92
G1 X 0142.66 Y 0129.47 E 0487.47
 G1 X 0153.47 Y 0136.81 E 0488.53
G1 X 0133.88 Y 0179.05 E 0488.67
 G1 X 0138.29 Y 0174.99 E 0489.73
G1 X 0130.38 Y 0184.07 E 0489.90
 G1 X 0133.88 Y 0179.05 E 0490.95
G1 X 0130.68 Y 0163.03 E 0492.12
 G1 X 0133.64 Y 0152.30 E 0493.18
G1 X 0130.68 Y 0163.03 E 0495.39
 G1 X 0133.88 Y 0179.05 E 0496.45
G1 X 0130.68 Y 0163.03 E 0498.57
 G1 X 0123.26 Y 0177.12 E 0499.63
G1 X 0100.52 Y 0084.55 E 0501.16
 G1 X 0096.77 Y 0096.91 E 0502.22
G1 X 0100.52 Y 0084.55 E 0504.03
 G1 X 0114.73 Y 0082.28 E 0505.09
G1 X 0099.67 Y 0078.99 E 0505.16
 G1 X 0100.52 Y 0084.55 E 0506.22
G1 X 0112.80 Y 0072.77 E 0508.07
 G1 X 0099.67 Y 0078.99 E 0509.12
G1 X 0129.28 Y 0148.71 E 0509.20
 G1 X 0133.64 Y 0152.30 E 0510.26
G1 X 0117.04 Y 0149.05 E 0512.27
 G1 X 0105.75 Y 0159.46 E 0513.33
G1 X 0117.04 Y 0149.05 E 0514.72
 G1 X 0129.28 Y 0148.71 E 0515.78
G1 X 0137.41 Y 0128.67 E 0515.78
 G1 X 0142.66 Y 0129.47 E 0516.84
G1 X 0137.41 Y 0128.67 E 0520.10
 G1 X 0129.28 Y 0148.71 E 0521.16
G1 X 0112.37 Y 0132.81 E 0525.43
 G1 X 0101.56 Y 0108.47 E 0526.49
G1 X 0111.93 Y 0137.83 E 0527.89
 G1 X 0117.04 Y 0149.05 E 0528.95
G1 X 0111.93 Y 0137.83 E 0528.90
 G1 X 0112.37 Y 0132.81 E 0529.96
G1 X 0083.79 Y 0129.24 E 0530.84
 G1 X 0076.84 Y 0136.00 E 0531.90
G1 X 0083.79 Y 0129.24 E 0536.73
 G1 X 0111.93 Y 0137.83 E 0537.79
G1 X 0125.98 Y 0119.20 E 0540.58
 G1 X 0112.37 Y 0132.81 E 0541.64
G1 X 0082.71 Y 0064.26 E 0541.67
 G1 X 0077.46 Y 0062.80 E 0542.72
G1 X 0094.64 Y 0059.96 E 0544.09
 G1 X 0104.73 Y 0053.24 E 0545.15
G1 X 0094.64 Y 0059.96 E 0546.63
 G1 X 0082.71 Y 0064.26 E 0547.68
G1 X 0108.90 Y 0061.39 E 0549.49
 G1 X 0094.64 Y 0059.96 E 0550.55
G1 X 0094.77 Y 0071.18 E 0551.34
 G1 X 0099.67 Y 0078.99 E 0552.39
G1 X 0094.77 Y 0071.18 E 0554.12
 G1 X 0082.71 Y 0064.26 E 0555.17
G1 X 0094.77 Y 0071.18 E 0557.50
 G1 X 0110.23 Y 0064.31 E 0558.56
G1 X 0096.83 Y 0097.35 E 0557.59
 G1 X 0096.77 Y 0096.91 E 0558.65
G1 X 0098.45 Y 0100.60 E 0561.90
 G1 X 0116.24 Y 0088.43 E 0562.96
G1 X 0098.45 Y 0100.60 E 0562.63
 G1 X 0096.83 Y 0097.35 E 0563.68
G1 X 0100.20 Y 0107.98 E 0562.91
 G1 X 0101.56 Y 0108.47 E 0563.97
G1 X 0100.20 Y 0107.98 E 0564.43
 G1 X 0098.45 Y 0100.60 E 0565.49
G1 X 0089.53 Y 0117.05 E 0567.13
 G1 X 0083.79 Y 0129.24 E 0568.18
G1 X 0089.53 Y 0117.05 E 0569.93
 G1 X 0100.20 Y 0107.98 E 0570.99
G1 X 0061.50 Y 0097.51 E 0574.47
 G1 X 0050.97 Y 0117.65 E 0575.53
G1 X 0061.50 Y 0097.51 E 0581.30
 G1 X 0089.53 Y 0117.05 E 0582.36
G1 X 0061.65 Y 0096.21 E 0582.97
 G1 X 0060.33 Y 0087.99 E 0584.03
G1 X 0061.65 Y 0096.21 E 0590.01
 G1 X 0096.83 Y 0097.35 E 0591.07
G1 X 0061.65 Y 0096.21 E 0590.27
 G1 X 0061.50 Y 0097.51 E 0591.33
G1 X 0119.11 Y 0112.15 E 0592.24
 G1 X 0125.98 Y 0119.20 E 0593.30
G1 X 0102.12 Y 0108.47 E 0592.35
 G1 X 0101.56 Y 0108.47 E 0593.41
G1 X 0102.12 Y 0108.47 E 0595.83
 G1 X 0119.11 Y 0112.15 E 0596.89
G1 X 0130.67 Y 0120.68 E 0596.81
