;FLAVOR:UltiGCode
; TIME:400
;MATERIAL:160
; MATERIAL2: 0
;NOZZLE_DIAMETER:0.400000
;NOZZLE_DIAMETER2:  0.400000
;Layer count: 98
;LAYER: 0
M107
G0  F600 Z0.3
;CONTOUR EDGES
G1 X 0091.72 Y 0079.37 E -0002.62
 G1 X 0093.60 Y 0078.11 E 0000.91
G1 X 0093.60 Y 0078.11 E -0001.71
 G1 X 0095.48 Y 0076.84 E 0001.81
G1 X 0095.48 Y 0076.84 E -0000.81
 G1 X 0097.36 Y 0075.57 E 0002.72
G1 X 0097.36 Y 0075.57 E 0000.10
 G1 X 0099.24 Y 0074.29 E 0003.63
G1 X 0099.24 Y 0074.29 E 0001.01
 G1 X 0101.11 Y 0073.02 E 0004.54
G1 X 0101.11 Y 0073.02 E 0001.92
 G1 X 0102.99 Y 0071.75 E 0005.44
G1 X 0102.99 Y 0071.75 E 0002.82
 G1 X 0104.87 Y 0070.47 E 0006.35
G1 X 0104.87 Y 0070.47 E 0003.73
 G1 X 0106.74 Y 0069.20 E 0007.26
G1 X 0106.74 Y 0069.20 E 0004.64
 G1 X 0108.62 Y 0067.92 E 0008.16
G1 X 0108.62 Y 0067.92 E 0005.54
 G1 X 0110.50 Y 0066.65 E 0009.07
G1 X 0110.50 Y 0066.65 E 0006.45
 G1 X 0112.37 Y 0065.38 E 0009.98
G1 X 0112.37 Y 0065.38 E 0007.36
 G1 X 0114.25 Y 0064.11 E 0010.89
G1 X 0114.25 Y 0064.11 E 0008.27
 G1 X 0116.13 Y 0062.83 E 0011.79
G1 X 0116.13 Y 0062.83 E 0009.17
 G1 X 0118.01 Y 0061.56 E 0012.70
G1 X 0118.01 Y 0061.56 E 0010.08
 G1 X 0119.89 Y 0060.29 E 0013.61
G1 X 0119.89 Y 0060.29 E 0010.99
 G1 X 0121.76 Y 0059.02 E 0014.52
G1 X 0121.76 Y 0059.02 E 0011.89
 G1 X 0123.64 Y 0057.75 E 0015.42
G1 X 0123.64 Y 0057.75 E 0012.80
 G1 X 0125.52 Y 0056.48 E 0016.33
G1 X 0125.52 Y 0056.48 E 0013.71
 G1 X 0127.41 Y 0055.22 E 0017.24
G1 X 0127.41 Y 0055.22 E 0014.62
 G1 X 0129.29 Y 0053.95 E 0018.14
G1 X 0129.29 Y 0053.95 E 0015.52
 G1 X 0131.17 Y 0052.69 E 0019.05
G1 X 0131.17 Y 0052.69 E 0016.43
 G1 X 0133.05 Y 0051.42 E 0019.96
G1 X 0133.05 Y 0051.42 E 0017.34
 G1 X 0134.94 Y 0050.16 E 0020.87
G1 X 0134.94 Y 0050.16 E 0018.25
 G1 X 0136.83 Y 0048.90 E 0021.77
G1 X 0136.83 Y 0048.90 E 0019.15
 G1 X 0138.72 Y 0047.65 E 0022.68
G1 X 0138.72 Y 0047.65 E 0020.06
 G1 X 0140.61 Y 0046.39 E 0023.59
G1 X 0140.61 Y 0046.39 E 0020.97
 G1 X 0142.50 Y 0045.14 E 0024.50
G1 X 0142.50 Y 0045.14 E 0021.87
 G1 X 0144.39 Y 0043.90 E 0025.40
G1 X 0144.39 Y 0043.90 E 0022.78
 G1 X 0146.29 Y 0042.66 E 0026.31
G1 X 0146.29 Y 0042.66 E 0023.69
 G1 X 0148.20 Y 0041.43 E 0027.22
G1 X 0148.20 Y 0041.43 E 0024.60
 G1 X 0150.11 Y 0040.21 E 0028.12
G1 X 0150.11 Y 0040.21 E 0025.51
 G1 X 0152.04 Y 0039.01 E 0029.03
G1 X 0152.04 Y 0039.01 E 0026.41
 G1 X 0153.98 Y 0037.84 E 0029.94
G1 X 0153.98 Y 0037.84 E 0027.32
 G1 X 0155.94 Y 0036.70 E 0030.85
G1 X 0155.94 Y 0036.70 E 0028.23
 G1 X 0157.94 Y 0035.63 E 0031.75
G1 X 0157.94 Y 0035.63 E 0029.13
 G1 X 0160.02 Y 0034.73 E 0032.66
G1 X 0160.02 Y 0034.73 E 0030.04
 G1 X 0162.24 Y 0034.30 E 0033.56
G1 X 0162.24 Y 0034.30 E 0030.94
 G1 X 0164.45 Y 0033.81 E 0034.47
G1 X 0164.45 Y 0033.81 E 0031.85
 G1 X 0166.56 Y 0032.98 E 0035.38
G1 X 0166.56 Y 0032.98 E 0032.76
 G1 X 0168.66 Y 0032.12 E 0036.28
G1 X 0168.66 Y 0032.12 E 0033.66
 G1 X 0170.76 Y 0031.26 E 0037.19
G1 X 0170.76 Y 0031.26 E 0034.57
 G1 X 0172.86 Y 0030.42 E 0038.10
G1 X 0172.86 Y 0030.42 E 0035.48
 G1 X 0174.97 Y 0029.59 E 0039.00
G1 X 0174.97 Y 0029.59 E 0036.38
 G1 X 0177.10 Y 0028.80 E 0039.91
G1 X 0177.10 Y 0028.80 E 0037.29
 G1 X 0179.24 Y 0028.06 E 0040.82
G1 X 0179.24 Y 0028.06 E 0038.20
 G1 X 0181.40 Y 0027.36 E 0041.73
G1 X 0181.40 Y 0027.36 E 0039.11
 G1 X 0183.58 Y 0026.72 E 0042.63
G1 X 0183.58 Y 0026.72 E 0040.01
 G1 X 0185.76 Y 0026.12 E 0043.54
G1 X 0185.76 Y 0026.12 E 0040.92
 G1 X 0187.96 Y 0025.56 E 0044.45
G1 X 0187.96 Y 0025.56 E 0041.83
 G1 X 0190.16 Y 0025.02 E 0045.35
G1 X 0190.16 Y 0025.02 E 0042.73
 G1 X 0192.37 Y 0024.51 E 0046.26
G1 X 0192.37 Y 0024.51 E 0043.64
 G1 X 0194.59 Y 0024.02 E 0047.17
G1 X 0194.59 Y 0024.02 E 0044.55
 G1 X 0196.81 Y 0023.55 E 0048.08
G1 X 0196.81 Y 0023.55 E 0045.46
 G1 X 0199.03 Y 0023.11 E 0048.98
G1 X 0199.03 Y 0023.11 E 0046.36
 G1 X 0201.26 Y 0022.69 E 0049.89
G1 X 0201.26 Y 0022.69 E 0047.27
 G1 X 0203.49 Y 0022.29 E 0050.80
G1 X 0203.49 Y 0022.29 E 0048.18
 G1 X 0205.73 Y 0021.93 E 0051.71
G1 X 0205.73 Y 0021.93 E 0049.09
 G1 X 0207.98 Y 0021.59 E 0052.61
G1 X 0207.98 Y 0021.59 E 0049.99
 G1 X 0210.22 Y 0021.29 E 0053.52
G1 X 0210.22 Y 0021.29 E 0050.90
 G1 X 0212.47 Y 0021.02 E 0054.43
G1 X 0212.47 Y 0021.02 E 0051.81
 G1 X 0214.73 Y 0020.78 E 0055.33
G1 X 0214.73 Y 0020.78 E 0052.71
 G1 X 0216.99 Y 0020.58 E 0056.24
G1 X 0216.99 Y 0020.58 E 0053.62
 G1 X 0219.25 Y 0020.42 E 0057.15
G1 X 0219.25 Y 0020.42 E 0054.53
 G1 X 0221.52 Y 0020.29 E 0058.06
G1 X 0221.52 Y 0020.29 E 0055.44
 G1 X 0223.78 Y 0020.20 E 0058.96
G1 X 0223.78 Y 0020.20 E 0056.34
 G1 X 0226.05 Y 0020.14 E 0059.87
G1 X 0226.05 Y 0020.14 E 0057.25
 G1 X 0228.32 Y 0020.11 E 0060.78
G1 X 0228.32 Y 0020.11 E 0058.16
 G1 X 0230.59 Y 0020.11 E 0061.68
G1 X 0230.59 Y 0020.11 E 0059.06
 G1 X 0232.85 Y 0020.17 E 0062.59
G1 X 0232.85 Y 0020.17 E 0059.97
 G1 X 0235.12 Y 0020.30 E 0063.50
G1 X 0235.12 Y 0020.30 E 0060.88
 G1 X 0237.38 Y 0020.49 E 0064.41
G1 X 0237.38 Y 0020.49 E 0061.79
 G1 X 0239.63 Y 0020.75 E 0065.31
G1 X 0239.63 Y 0020.75 E 0062.69
 G1 X 0241.87 Y 0021.08 E 0066.22
G1 X 0241.87 Y 0021.08 E 0063.60
 G1 X 0244.12 Y 0021.41 E 0067.13
G1 X 0244.12 Y 0021.41 E 0064.51
 G1 X 0246.36 Y 0021.74 E 0068.04
G1 X 0246.36 Y 0021.74 E 0065.41
 G1 X 0248.60 Y 0022.09 E 0068.94
G1 X 0248.60 Y 0022.09 E 0066.32
 G1 X 0250.84 Y 0022.48 E 0069.85
G1 X 0250.84 Y 0022.48 E 0067.23
 G1 X 0253.06 Y 0022.93 E 0070.76
G1 X 0253.06 Y 0022.93 E 0068.14
 G1 X 0255.26 Y 0023.46 E 0071.66
G1 X 0255.26 Y 0023.46 E 0069.04
 G1 X 0257.44 Y 0024.09 E 0072.57
G1 X 0257.44 Y 0024.09 E 0069.95
 G1 X 0259.58 Y 0024.85 E 0073.48
G1 X 0259.58 Y 0024.85 E 0070.86
 G1 X 0261.66 Y 0025.75 E 0074.39
G1 X 0261.66 Y 0025.75 E 0071.76
 G1 X 0263.67 Y 0026.81 E 0075.29
G1 X 0263.67 Y 0026.81 E 0072.67
 G1 X 0265.60 Y 0027.99 E 0076.20
G1 X 0265.60 Y 0027.99 E 0073.58
 G1 X 0267.48 Y 0029.27 E 0077.11
G1 X 0267.48 Y 0029.27 E 0074.49
 G1 X 0269.30 Y 0030.62 E 0078.01
G1 X 0269.30 Y 0030.62 E 0075.39
 G1 X 0271.06 Y 0032.04 E 0078.92
G1 X 0271.06 Y 0032.04 E 0076.30
 G1 X 0272.78 Y 0033.53 E 0079.83
G1 X 0272.78 Y 0033.53 E 0077.21
 G1 X 0274.43 Y 0035.08 E 0080.74
G1 X 0274.43 Y 0035.08 E 0078.11
 G1 X 0276.03 Y 0036.69 E 0081.64
G1 X 0276.03 Y 0036.69 E 0079.02
 G1 X 0277.55 Y 0038.37 E 0082.55
G1 X 0277.55 Y 0038.37 E 0079.93
 G1 X 0278.97 Y 0040.14 E 0083.46
G1 X 0278.97 Y 0040.14 E 0080.84
 G1 X 0280.25 Y 0042.01 E 0084.36
G1 X 0280.25 Y 0042.01 E 0081.74
 G1 X 0281.34 Y 0044.00 E 0085.27
G1 X 0281.34 Y 0044.00 E 0082.65
 G1 X 0282.19 Y 0046.10 E 0086.18
G1 X 0282.19 Y 0046.10 E 0083.56
 G1 X 0282.78 Y 0048.29 E 0087.08
G1 X 0282.78 Y 0048.29 E 0084.46
 G1 X 0283.13 Y 0050.53 E 0087.99
G1 X 0283.13 Y 0050.53 E 0085.37
 G1 X 0283.28 Y 0052.79 E 0088.90
G1 X 0283.28 Y 0052.79 E 0086.28
 G1 X 0283.30 Y 0055.06 E 0089.80
G1 X 0283.30 Y 0055.06 E 0087.18
 G1 X 0283.23 Y 0057.32 E 0090.71
G1 X 0283.23 Y 0057.32 E 0088.09
 G1 X 0283.06 Y 0059.59 E 0091.62
G1 X 0283.06 Y 0059.59 E 0089.00
 G1 X 0282.78 Y 0061.84 E 0092.53
G1 X 0282.78 Y 0061.84 E 0089.91
 G1 X 0282.37 Y 0064.07 E 0093.43
G1 X 0282.37 Y 0064.07 E 0090.81
 G1 X 0281.82 Y 0066.27 E 0094.34
G1 X 0281.82 Y 0066.27 E 0091.72
 G1 X 0281.13 Y 0068.43 E 0095.25
G1 X 0281.13 Y 0068.43 E 0092.63
 G1 X 0280.30 Y 0070.54 E 0096.15
G1 X 0280.30 Y 0070.54 E 0093.53
 G1 X 0279.32 Y 0072.58 E 0097.06
G1 X 0279.32 Y 0072.58 E 0094.44
 G1 X 0278.22 Y 0074.56 E 0097.97
G1 X 0278.22 Y 0074.56 E 0095.35
 G1 X 0277.00 Y 0076.48 E 0098.88
G1 X 0277.00 Y 0076.48 E 0096.25
 G1 X 0275.71 Y 0078.34 E 0099.78
G1 X 0275.71 Y 0078.34 E 0097.16
 G1 X 0274.36 Y 0080.17 E 0100.69
G1 X 0274.36 Y 0080.17 E 0098.07
 G1 X 0272.97 Y 0081.95 E 0101.60
G1 X 0272.97 Y 0081.95 E 0098.98
 G1 X 0271.53 Y 0083.71 E 0102.50
G1 X 0271.53 Y 0083.71 E 0099.88
 G1 X 0270.06 Y 0085.43 E 0103.41
G1 X 0270.06 Y 0085.43 E 0100.79
 G1 X 0268.55 Y 0087.13 E 0104.32
G1 X 0268.55 Y 0087.13 E 0101.70
 G1 X 0267.02 Y 0088.80 E 0105.23
G1 X 0267.02 Y 0088.80 E 0102.61
 G1 X 0265.46 Y 0090.45 E 0106.13
G1 X 0265.46 Y 0090.45 E 0103.51
 G1 X 0263.87 Y 0092.07 E 0107.04
G1 X 0263.87 Y 0092.07 E 0104.42
 G1 X 0262.25 Y 0093.66 E 0107.95
G1 X 0262.25 Y 0093.66 E 0105.33
 G1 X 0260.60 Y 0095.21 E 0108.85
G1 X 0260.60 Y 0095.21 E 0106.23
 G1 X 0258.89 Y 0096.70 E 0109.76
G1 X 0258.89 Y 0096.70 E 0107.14
 G1 X 0257.13 Y 0098.13 E 0110.67
G1 X 0257.13 Y 0098.13 E 0108.05
 G1 X 0255.32 Y 0099.50 E 0111.58
G1 X 0255.32 Y 0099.50 E 0108.96
 G1 X 0253.48 Y 0100.82 E 0112.48
G1 X 0253.48 Y 0100.82 E 0109.86
 G1 X 0251.60 Y 0102.09 E 0113.39
G1 X 0251.60 Y 0102.09 E 0110.77
 G1 X 0249.70 Y 0103.33 E 0114.30
G1 X 0249.70 Y 0103.33 E 0111.68
 G1 X 0247.78 Y 0104.53 E 0115.21
G1 X 0247.78 Y 0104.53 E 0112.58
 G1 X 0245.84 Y 0105.71 E 0116.11
G1 X 0245.84 Y 0105.71 E 0113.49
 G1 X 0243.89 Y 0106.88 E 0117.02
G1 X 0243.89 Y 0106.88 E 0114.40
 G1 X 0241.95 Y 0108.04 E 0117.93
G1 X 0241.95 Y 0108.04 E 0115.31
 G1 X 0239.99 Y 0109.19 E 0118.83
G1 X 0239.99 Y 0109.19 E 0116.21
 G1 X 0238.01 Y 0110.30 E 0119.74
G1 X 0238.01 Y 0110.30 E 0117.12
 G1 X 0236.01 Y 0111.35 E 0120.65
G1 X 0236.01 Y 0111.35 E 0118.03
 G1 X 0233.97 Y 0112.35 E 0121.56
G1 X 0233.97 Y 0112.35 E 0118.93
 G1 X 0231.90 Y 0113.29 E 0122.46
G1 X 0231.90 Y 0113.29 E 0119.84
 G1 X 0229.82 Y 0114.18 E 0123.37
G1 X 0229.82 Y 0114.18 E 0120.75
 G1 X 0227.72 Y 0115.04 E 0124.28
G1 X 0227.72 Y 0115.04 E 0121.66
 G1 X 0225.61 Y 0115.86 E 0125.18
G1 X 0225.61 Y 0115.86 E 0122.56
 G1 X 0223.47 Y 0116.62 E 0126.09
G1 X 0223.47 Y 0116.62 E 0123.47
 G1 X 0221.32 Y 0117.33 E 0127.00
G1 X 0221.32 Y 0117.33 E 0124.38
 G1 X 0219.15 Y 0118.00 E 0127.91
G1 X 0219.15 Y 0118.00 E 0125.29
 G1 X 0216.97 Y 0118.65 E 0128.81
G1 X 0216.97 Y 0118.65 E 0126.19
 G1 X 0214.79 Y 0119.27 E 0129.72
G1 X 0214.79 Y 0119.27 E 0127.10
 G1 X 0212.61 Y 0119.89 E 0130.63
G1 X 0212.61 Y 0119.89 E 0128.01
 G1 X 0210.43 Y 0120.53 E 0131.53
G1 X 0210.43 Y 0120.53 E 0128.91
 G1 X 0208.25 Y 0121.15 E 0132.44
G1 X 0208.25 Y 0121.15 E 0129.82
 G1 X 0206.06 Y 0121.72 E 0133.35
G1 X 0206.06 Y 0121.72 E 0130.73
 G1 X 0203.86 Y 0122.28 E 0134.26
G1 X 0203.86 Y 0122.28 E 0131.64
 G1 X 0201.68 Y 0122.89 E 0135.16
G1 X 0201.68 Y 0122.89 E 0132.54
 G1 X 0199.50 Y 0123.51 E 0136.07
G1 X 0199.50 Y 0123.51 E 0133.45
 G1 X 0197.33 Y 0124.15 E 0136.98
G1 X 0197.33 Y 0124.15 E 0134.36
 G1 X 0195.14 Y 0124.79 E 0137.89
G1 X 0195.14 Y 0124.79 E 0135.26
 G1 X 0192.96 Y 0125.40 E 0138.79
G1 X 0192.96 Y 0125.40 E 0136.17
 G1 X 0190.77 Y 0125.98 E 0139.70
G1 X 0190.77 Y 0125.98 E 0137.08
 G1 X 0188.57 Y 0126.55 E 0140.61
G1 X 0188.57 Y 0126.55 E 0137.99
 G1 X 0186.37 Y 0127.10 E 0141.51
G1 X 0186.37 Y 0127.10 E 0138.89
 G1 X 0184.17 Y 0127.66 E 0142.42
G1 X 0184.17 Y 0127.66 E 0139.80
 G1 X 0181.97 Y 0128.21 E 0143.33
G1 X 0181.97 Y 0128.21 E 0140.71
 G1 X 0179.77 Y 0128.77 E 0144.24
G1 X 0179.77 Y 0128.77 E 0141.62
 G1 X 0177.58 Y 0129.33 E 0145.14
G1 X 0177.58 Y 0129.33 E 0142.52
 G1 X 0175.38 Y 0129.90 E 0146.05
G1 X 0175.38 Y 0129.90 E 0143.43
 G1 X 0173.19 Y 0130.48 E 0146.96
G1 X 0173.19 Y 0130.48 E 0144.34
 G1 X 0171.00 Y 0131.07 E 0147.86
G1 X 0171.00 Y 0131.07 E 0145.24
 G1 X 0168.81 Y 0131.67 E 0148.77
G1 X 0168.81 Y 0131.67 E 0146.15
 G1 X 0166.63 Y 0132.29 E 0149.68
G1 X 0166.63 Y 0132.29 E 0147.06
 G1 X 0164.45 Y 0132.92 E 0150.59
G1 X 0164.45 Y 0132.92 E 0147.97
 G1 X 0162.28 Y 0133.58 E 0151.49
G1 X 0162.28 Y 0133.58 E 0148.87
 G1 X 0160.11 Y 0134.25 E 0152.40
G1 X 0160.11 Y 0134.25 E 0149.78
 G1 X 0157.96 Y 0134.95 E 0153.31
G1 X 0157.96 Y 0134.95 E 0150.69
 G1 X 0155.81 Y 0135.67 E 0154.22
G1 X 0155.81 Y 0135.67 E 0151.59
 G1 X 0153.67 Y 0136.42 E 0155.12
G1 X 0153.67 Y 0136.42 E 0152.50
 G1 X 0151.54 Y 0137.21 E 0156.03
G1 X 0151.54 Y 0137.21 E 0153.41
 G1 X 0149.43 Y 0138.03 E 0156.94
G1 X 0149.43 Y 0138.03 E 0154.32
 G1 X 0147.33 Y 0138.90 E 0157.84
G1 X 0147.33 Y 0138.90 E 0155.22
 G1 X 0145.26 Y 0139.82 E 0158.75
G1 X 0145.26 Y 0139.82 E 0156.13
 G1 X 0143.21 Y 0140.79 E 0159.66
G1 X 0143.21 Y 0140.79 E 0157.04
 G1 X 0141.19 Y 0141.82 E 0160.57
G1 X 0141.19 Y 0141.82 E 0157.95
 G1 X 0139.19 Y 0142.89 E 0161.47
G1 X 0139.19 Y 0142.89 E 0158.85
 G1 X 0137.22 Y 0144.01 E 0162.38
G1 X 0137.22 Y 0144.01 E 0159.76
 G1 X 0135.27 Y 0145.17 E 0163.29
G1 X 0135.27 Y 0145.17 E 0160.67
 G1 X 0133.34 Y 0146.37 E 0164.19
G1 X 0133.34 Y 0146.37 E 0161.57
 G1 X 0131.43 Y 0147.59 E 0165.10
G1 X 0131.43 Y 0147.59 E 0162.48
 G1 X 0129.54 Y 0148.84 E 0166.01
G1 X 0129.54 Y 0148.84 E 0163.39
 G1 X 0127.67 Y 0150.12 E 0166.92
G1 X 0127.67 Y 0150.12 E 0164.30
 G1 X 0125.80 Y 0151.42 E 0167.82
G1 X 0125.80 Y 0151.42 E 0165.20
 G1 X 0123.96 Y 0152.73 E 0168.73
G1 X 0123.96 Y 0152.73 E 0166.11
 G1 X 0122.12 Y 0154.06 E 0169.64
G1 X 0122.12 Y 0154.06 E 0167.02
 G1 X 0120.29 Y 0155.40 E 0170.54
G1 X 0120.29 Y 0155.40 E 0167.92
 G1 X 0118.46 Y 0156.75 E 0171.45
G1 X 0118.46 Y 0156.75 E 0168.83
 G1 X 0116.64 Y 0158.10 E 0172.36
G1 X 0116.64 Y 0158.10 E 0169.74
 G1 X 0114.83 Y 0159.46 E 0173.27
G1 X 0114.83 Y 0159.46 E 0170.65
 G1 X 0113.01 Y 0160.82 E 0174.17
G1 X 0113.01 Y 0160.82 E 0171.55
 G1 X 0111.19 Y 0162.17 E 0175.08
G1 X 0111.19 Y 0162.17 E 0172.46
 G1 X 0109.37 Y 0163.52 E 0175.99
G1 X 0109.37 Y 0163.52 E 0173.37
 G1 X 0107.54 Y 0164.86 E 0176.90
G1 X 0107.54 Y 0164.86 E 0174.28
 G1 X 0105.70 Y 0166.18 E 0177.80
G1 X 0105.70 Y 0166.18 E 0175.18
 G1 X 0103.84 Y 0167.49 E 0178.71
G1 X 0103.84 Y 0167.49 E 0176.09
 G1 X 0101.97 Y 0168.77 E 0179.62
G1 X 0101.97 Y 0168.77 E 0177.00
 G1 X 0100.08 Y 0170.02 E 0180.52
G1 X 0100.08 Y 0170.02 E 0177.90
 G1 X 0098.19 Y 0171.27 E 0181.43
G1 X 0098.19 Y 0171.27 E 0178.81
 G1 X 0096.32 Y 0172.56 E 0182.34
G1 X 0096.32 Y 0172.56 E 0179.72
 G1 X 0094.47 Y 0173.87 E 0183.25
G1 X 0094.47 Y 0173.87 E 0180.63
 G1 X 0092.63 Y 0175.20 E 0184.15
G1 X 0092.63 Y 0175.20 E 0181.53
 G1 X 0090.80 Y 0176.54 E 0185.06
G1 X 0090.80 Y 0176.54 E 0182.44
 G1 X 0088.98 Y 0177.89 E 0185.97
G1 X 0088.98 Y 0177.89 E 0183.35
 G1 X 0087.16 Y 0179.25 E 0186.87
G1 X 0087.16 Y 0179.25 E 0184.25
 G1 X 0085.34 Y 0180.60 E 0187.78
G1 X 0085.34 Y 0180.60 E 0185.16
 G1 X 0083.51 Y 0181.94 E 0188.69
G1 X 0083.51 Y 0181.94 E 0186.07
 G1 X 0081.66 Y 0183.26 E 0189.60
G1 X 0081.66 Y 0183.26 E 0186.98
 G1 X 0079.80 Y 0184.54 E 0190.50
G1 X 0079.80 Y 0184.54 E 0187.88
 G1 X 0077.90 Y 0185.79 E 0191.41
G1 X 0077.90 Y 0185.79 E 0188.79
 G1 X 0075.98 Y 0186.99 E 0192.32
G1 X 0075.98 Y 0186.99 E 0189.70
 G1 X 0074.01 Y 0188.12 E 0193.23
G1 X 0074.01 Y 0188.12 E 0190.60
 G1 X 0072.00 Y 0189.16 E 0194.13
G1 X 0072.00 Y 0189.16 E 0191.51
 G1 X 0069.93 Y 0190.10 E 0195.04
G1 X 0069.93 Y 0190.10 E 0192.42
 G1 X 0067.82 Y 0190.92 E 0195.95
G1 X 0067.82 Y 0190.92 E 0193.33
 G1 X 0065.65 Y 0191.59 E 0196.85
G1 X 0065.65 Y 0191.59 E 0194.23
 G1 X 0063.44 Y 0192.09 E 0197.76
G1 X 0063.44 Y 0192.09 E 0195.14
 G1 X 0061.20 Y 0192.42 E 0198.67
G1 X 0061.20 Y 0192.42 E 0196.05
 G1 X 0058.94 Y 0192.61 E 0199.57
G1 X 0058.94 Y 0192.61 E 0196.95
 G1 X 0056.67 Y 0192.67 E 0200.48
G1 X 0056.67 Y 0192.67 E 0197.86
 G1 X 0054.40 Y 0192.62 E 0201.39
G1 X 0054.40 Y 0192.62 E 0198.77
 G1 X 0052.14 Y 0192.47 E 0202.30
G1 X 0052.14 Y 0192.47 E 0199.68
 G1 X 0049.88 Y 0192.23 E 0203.20
G1 X 0049.88 Y 0192.23 E 0200.58
 G1 X 0047.64 Y 0191.91 E 0204.11
G1 X 0047.64 Y 0191.91 E 0201.49
 G1 X 0045.40 Y 0191.53 E 0205.02
G1 X 0045.40 Y 0191.53 E 0202.40
 G1 X 0043.18 Y 0191.08 E 0205.93
G1 X 0043.18 Y 0191.08 E 0203.30
 G1 X 0040.97 Y 0190.56 E 0206.83
G1 X 0040.97 Y 0190.56 E 0204.21
 G1 X 0038.78 Y 0189.99 E 0207.74
