;FLAVOR:UltiGCode
; TIME:400
;MATERIAL:160
; MATERIAL2: 0
;NOZZLE_DIAMETER:0.400000
;NOZZLE_DIAMETER2:  0.400000
;Layer count: 98
;LAYER: 0
M107
G0  F600 Z0.3
;INSOLE EDGES
G0 X 0071.30 Y 0076.37 G1 X 0070.32 Y 0110.48 E 0006.82
G0 X 0090.25 Y 0064.94 G1 X 0071.30 Y 0076.37 E 0011.25
G0 X 0058.04 Y 0063.60 G1 X 0076.25 Y 0046.03 E 0016.31
G0 X 0058.81 Y 0070.02 G1 X 0071.30 Y 0076.37 E 0019.11
G0 X 0058.81 Y 0070.02 G1 X 0058.04 Y 0063.60 E 0020.40
G0 X 0039.81 Y 0082.92 G1 X 0058.81 Y 0070.02 E 0025.00
G0 X 0041.34 Y 0045.99 G1 X 0058.04 Y 0063.60 E 0029.85
;CONTOUR EDGES
G0 X 0018.70 Y 0062.79 G1 X 0063.85 Y 0029.28 E 0041.10
G0 X 0063.85 Y 0029.28 G1 X 0110.07 Y 0091.72 E 0056.64
G0 X 0110.07 Y 0091.72 G1 X 0073.38 Y 0113.24 E 0065.14
G0 X 0073.38 Y 0113.24 G1 X 0018.70 Y 0063.85 E 0079.88
G0 X 0018.70 Y 0063.85 G1 X 0018.70 Y 0062.79 E 0080.09
G0  F600 Z0.6
;INSOLE EDGES
G0 X 0071.30 Y 0076.37 G1 X 0070.32 Y 0110.48 E 0086.92
G0 X 0090.25 Y 0064.94 G1 X 0071.30 Y 0076.37 E 0091.34
G0 X 0058.04 Y 0063.60 G1 X 0076.25 Y 0046.03 E 0096.40
G0 X 0058.81 Y 0070.02 G1 X 0071.30 Y 0076.37 E 0099.20
G0 X 0058.81 Y 0070.02 G1 X 0058.04 Y 0063.60 E 0100.50
G0 X 0039.81 Y 0082.92 G1 X 0058.81 Y 0070.02 E 0105.09
G0 X 0041.34 Y 0045.99 G1 X 0058.04 Y 0063.60 E 0109.95
;CONTOUR EDGES
G0 X 0018.70 Y 0062.79 G1 X 0063.85 Y 0029.28 E 0121.19
G0 X 0063.85 Y 0029.28 G1 X 0110.07 Y 0091.72 E 0136.73
G0 X 0110.07 Y 0091.72 G1 X 0073.38 Y 0113.24 E 0145.24
G0 X 0073.38 Y 0113.24 G1 X 0018.70 Y 0063.85 E 0159.97
G0 X 0018.70 Y 0063.85 G1 X 0018.70 Y 0062.79 E 0160.18
G0  F600 Z0.90000004
;INSOLE EDGES
G0 X 0071.30 Y 0076.37 G1 X 0070.32 Y 0110.48 E 0167.01
G0 X 0090.25 Y 0064.94 G1 X 0071.30 Y 0076.37 E 0171.43
G0 X 0058.04 Y 0063.60 G1 X 0076.25 Y 0046.03 E 0176.49
G0 X 0058.81 Y 0070.02 G1 X 0071.30 Y 0076.37 E 0179.30
G0 X 0058.81 Y 0070.02 G1 X 0058.04 Y 0063.60 E 0180.59
G0 X 0039.81 Y 0082.92 G1 X 0058.81 Y 0070.02 E 0185.18
G0 X 0041.34 Y 0045.99 G1 X 0058.04 Y 0063.60 E 0190.04
;CONTOUR EDGES
G0 X 0018.70 Y 0062.79 G1 X 0063.85 Y 0029.28 E 0201.28
G0 X 0063.85 Y 0029.28 G1 X 0110.07 Y 0091.72 E 0216.82
G0 X 0110.07 Y 0091.72 G1 X 0073.38 Y 0113.24 E 0225.33
G0 X 0073.38 Y 0113.24 G1 X 0018.70 Y 0063.85 E 0240.06
G0 X 0018.70 Y 0063.85 G1 X 0018.70 Y 0062.79 E 0240.28
G0  F600 Z1.2
;INSOLE EDGES
G0 X 0071.30 Y 0076.37 G1 X 0070.32 Y 0110.48 E 0247.10
G0 X 0090.25 Y 0064.94 G1 X 0071.30 Y 0076.37 E 0251.52
G0 X 0058.04 Y 0063.60 G1 X 0076.25 Y 0046.03 E 0256.59
G0 X 0058.81 Y 0070.02 G1 X 0071.30 Y 0076.37 E 0259.39
G0 X 0058.81 Y 0070.02 G1 X 0058.04 Y 0063.60 E 0260.68
G0 X 0039.81 Y 0082.92 G1 X 0058.81 Y 0070.02 E 0265.27
G0 X 0041.34 Y 0045.99 G1 X 0058.04 Y 0063.60 E 0270.13
;CONTOUR EDGES
G0 X 0018.70 Y 0062.79 G1 X 0063.85 Y 0029.28 E 0281.38
G0 X 0063.85 Y 0029.28 G1 X 0110.07 Y 0091.72 E 0296.91
G0 X 0110.07 Y 0091.72 G1 X 0073.38 Y 0113.24 E 0305.42
G0 X 0073.38 Y 0113.24 G1 X 0018.70 Y 0063.85 E 0320.16
G0 X 0018.70 Y 0063.85 G1 X 0018.70 Y 0062.79 E 0320.37
G0  F600 Z1.5
;INSOLE EDGES
G0 X 0071.30 Y 0076.37 G1 X 0070.32 Y 0110.48 E 0327.19
G0 X 0090.25 Y 0064.94 G1 X 0071.30 Y 0076.37 E 0331.62
G0 X 0058.04 Y 0063.60 G1 X 0076.25 Y 0046.03 E 0336.68
G0 X 0058.81 Y 0070.02 G1 X 0071.30 Y 0076.37 E 0339.48
G0 X 0058.81 Y 0070.02 G1 X 0058.04 Y 0063.60 E 0340.77
G0 X 0039.81 Y 0082.92 G1 X 0058.81 Y 0070.02 E 0345.37
G0 X 0041.34 Y 0045.99 G1 X 0058.04 Y 0063.60 E 0350.22
;CONTOUR EDGES
G0 X 0018.70 Y 0062.79 G1 X 0063.85 Y 0029.28 E 0361.47
G0 X 0063.85 Y 0029.28 G1 X 0110.07 Y 0091.72 E 0377.00
G0 X 0110.07 Y 0091.72 G1 X 0073.38 Y 0113.24 E 0385.51
G0 X 0073.38 Y 0113.24 G1 X 0018.70 Y 0063.85 E 0400.25
G0 X 0018.70 Y 0063.85 G1 X 0018.70 Y 0062.79 E 0400.46
G0  F600 Z1.8
M107
G10
G0 F9000 X110.000 Y126.900 Z15.000
M25 ;Stop reading from this point on.
;CURA_PROFILE_STRING:eNrtWt1v2zYQfxWC/RF8bLHGk2S7aWvoYe2SvqRDgXhYmxeBlmiLi0QKJBXHCfy/746iFNlRunQN1o/JDw70093xePe7j6LO6YapOGN8lZnIHwXemuZ5bDKeXAimNUATTzGjaGK4FDETdJGzaK4q5mmZ8zTOrYGuwnNvycFGyoTmZhOFvlcqLkysS8bSaNo8GlaUTFFTKRaFQQ8aRj3guA+c9IHTFlywdOe0I9/TVVlKZaK5rJKMixVZVDxPy5wa5uH3UqoipmnGNNw6+l0K1qjEaUXzmF0ZVdl3r6XJvDUvWWzkmqnohOaadYD4UuZVwaJg6kl5zWKdcZanTgwCRQsGLqYc/hpQD0cvpndhDMUdcNwHTvrAaRdc5nIdBb4/8j0hr69zcIlfs/1E18maoFQHpYWshIkmo2kXtRFxr4Lnu+8KLmJ4uGR5FOy+SWSxgMhHv+b5ngIvdiIMPoRdiUyWiHkLaYwsdqg39iwd/XjNU5PFS9CQCi/rycVfLAEOcnEBwZCXTOW0tJ4j66de7aO7djDt2K8JXr8ALnNh2V0/o5gtA6oY7WBcaGb8feCqAyRS5jY4rn44UAQST5sSS12NXXCgXM4Fg3jZ+DpoRctojKfbpyZoORMrkzn/0diyAl9ddU8d5u7od57igl5ZpHVrCSiUC/DWgRmjUOx8aRx16+o3kIvucx2zW3bnsQs18h8KkFs+QkVCgbG4jmVjwNWX2ZQsOoUb6xaiYgVN53lbtrG1XLs3bcGrDRBeGyoSZPNRi193YZQvuaI5ct4dzIsSqqCQqWtsC3CzG3PIuqJLiDJVKy5sHO2zFdElTZDG4wZdUM32SHmLo4rlJlSDk4cOxRQwdVcpPNp/e6tqSxVfUq6ABzF0bMupDoYWwhrQldNHouloD+07s9XYOXHJr6D0lOLAzrgSth3gqIB0xbQO3KdEFi0pujIQElkyES+40X0C0AVwjFxCnA03tlU7sTKvIBmQIeDQKmrqO2EYr/gqOgz2oA1APwENlBmtEkz17CznCUsJNa/ITUo3W/w2DP5gMW4PZq+p5gmBujVwqn5FTjGApC4mUMk7k3NL/oSLgszN7vjckhNgKsDdiQim3+NcIngOvHOTqz70xLVpAqFJa8W6bdf9dVt0oHV99qqjlUhtulr4DFbfBS99cnbTOw63ZPaHgGZs9Y0kNE3JRlaKyLUgIEs6sgQpgeb8l625h5q6Y+ZtGBD3mUFbUBDsS5pXTB+8BW+bN3QBnaUyjJQSggeUgmQcvHsRtgKQIGKHRQrZwUMbBSzoA3D1qJXE7JM1NxkxGSPQ/YhcLsGPF+SDTz766Ae0K/Lhl49oCNogYSLV0OO0FTr3nbModH5XJCDnATQHcnLTnSZbp4BHNqsFSTEiwbQo4K4hOW6ve/uZXTMlrZK7XErq7o7nnIS+T47HexpOkIyLAi5GsIUTcC25+PxDCF1RLuxRu5cB7laG2Mzj2lQAyemKESnI6ZvfiE4UYwKCHhyR905mNBp5EKOm6o5FSt6+camZkLMerzp3wXqDolQ2Ue+CiX+vgpVLLWFvVcgTvkQGkgyuQLh5CpEIyAM+M8UgVdB3dmgH4Tg+hJCMff8flO2yUrOsKU1KoMmRevIRHKQYP5Sot7BnyCc4lcGYIFoWDFNoOaMgxlA0ll8/+6Mp+DAlHw5DoCx+9bPtnFSlO5JCxBuPWm/YJRNQIWj2lv6fvNR9pfEMvLWO4oZAuCYSCOJ8X9MN1OrkfqPasBK6gq4L8eX9PvT3gRn0IAl3wvEAdFttPVvj4dDiH6HFT768xdeTYh70WQr/lSn/686db32azO/pbrOzNa5PeApqhtASmg77JRMo8PsnUOA/6giyZx3e9P+Tc3sw9x906SVX2nxP136kyRveM3rn/mdOX9QJhok9TOzHn9jjYWIPE/v/ObHDBw2vsfqhJvawpgxryt6aMv6aawrqhMNqM6w2j7/aTIbV5ptabcLHW22GLek/25LGD5qdE3D6B1oYhtVwWA2H1VCkk+9tNUSd8bBODuvk466T7gct3V8xtODtf7HWv9fZEbJIR0IxmLEJGyX6MvIgCXWbOXa8bBfWuvksmFlDZdpLJ5VSNsQNhTEBNtGAtOgzss5Aoa10u0wUVW54mbftQunRwWyeQVDxNAwurDeW5ZZFaHT+RDz1ICbmW/KPLrEAG/f+BnWV/Wo=
