;FLAVOR:UltiGCode
; TIME:400
;MATERIAL:160
; MATERIAL2: 0
;NOZZLE_DIAMETER:0.400000
;NOZZLE_DIAMETER2:  0.400000
;Layer count: 98
;LAYER: 0
M107
G0  F600 Z0.3
;INSOLE EDGES
G0 X 0037.86 Y 0035.81 G1 X 0049.35 Y 0014.61 E 0004.82
G0 X 0044.52 Y 0035.71 G1 X 0056.82 Y 0020.06 E 0008.80
G0 X 0044.52 Y 0035.71 G1 X 0037.86 Y 0035.81 E 0010.14
G0 X 0050.31 Y 0071.08 G1 X 0048.91 Y 0068.26 E 0010.76
G0 X 0130.10 Y 0149.36 G1 X 0157.52 Y 0162.80 E 0016.87
G0 X 0120.80 Y 0167.26 G1 X 0130.10 Y 0149.36 E 0020.91
G0 X 0052.49 Y 0092.61 G1 X 0050.31 Y 0071.08 E 0025.23
G0 X 0069.63 Y 0125.68 G1 X 0080.34 Y 0112.89 E 0028.57
G0 X 0042.37 Y 0102.90 G1 X 0052.49 Y 0092.61 E 0031.46
G0 X 0042.75 Y 0066.30 G1 X 0048.91 Y 0068.26 E 0032.75
G0 X 0018.99 Y 0075.49 G1 X 0042.75 Y 0066.30 E 0037.85
G0 X 0050.74 Y 0037.18 G1 X 0044.52 Y 0035.71 E 0039.12
G0 X 0050.74 Y 0037.18 G1 X 0055.82 Y 0040.19 E 0040.30
G0 X 0066.63 Y 0027.22 G1 X 0055.82 Y 0040.19 E 0043.68
G0 X 0062.01 Y 0023.85 G1 X 0050.74 Y 0037.18 E 0047.17
G0 X 0059.15 Y 0059.45 G1 X 0048.91 Y 0068.26 E 0049.87
G0 X 0108.63 Y 0085.04 G1 X 0098.85 Y 0087.79 E 0051.91
G0 X 0126.87 Y 0139.66 G1 X 0130.10 Y 0149.36 E 0053.95
G0 X 0126.87 Y 0139.66 G1 X 0145.41 Y 0120.50 E 0059.28
G0 X 0108.00 Y 0136.77 G1 X 0097.73 Y 0150.18 E 0062.66
G0 X 0108.00 Y 0136.77 G1 X 0126.87 Y 0139.66 E 0066.48
G0 X 0102.79 Y 0118.75 G1 X 0080.34 Y 0112.89 E 0071.12
G0 X 0102.79 Y 0118.75 G1 X 0121.90 Y 0099.64 E 0076.53
G0 X 0102.79 Y 0118.75 G1 X 0108.00 Y 0136.77 E 0080.28
G0 X 0033.85 Y 0038.39 G1 X 0042.75 Y 0066.30 E 0086.14
G0 X 0007.77 Y 0044.26 G1 X 0033.85 Y 0038.39 E 0091.49
G0 X 0034.95 Y 0036.73 G1 X 0037.86 Y 0035.81 E 0092.10
G0 X 0034.95 Y 0036.73 G1 X 0033.85 Y 0038.39 E 0092.49
G0 X 0034.95 Y 0036.73 G1 X 0023.99 Y 0004.36 E 0099.33
G0 X 0082.00 Y 0079.36 G1 X 0098.85 Y 0087.79 E 0103.10
G0 X 0095.26 Y 0067.31 G1 X 0082.00 Y 0079.36 E 0106.68
G0 X 0060.47 Y 0053.81 G1 X 0059.15 Y 0059.45 E 0107.84
G0 X 0060.47 Y 0053.81 G1 X 0079.43 Y 0044.34 E 0112.08
G0 X 0060.77 Y 0094.81 G1 X 0052.49 Y 0092.61 E 0113.79
G0 X 0076.12 Y 0079.45 G1 X 0050.31 Y 0071.08 E 0119.22
G0 X 0076.12 Y 0079.45 G1 X 0060.77 Y 0094.81 E 0123.56
G0 X 0077.48 Y 0079.28 G1 X 0076.12 Y 0079.45 E 0123.84
G0 X 0078.21 Y 0079.73 G1 X 0082.00 Y 0079.36 E 0124.60
G0 X 0078.21 Y 0079.73 G1 X 0077.48 Y 0079.28 E 0124.77
G0 X 0081.34 Y 0104.78 G1 X 0098.85 Y 0087.79 E 0129.65
G0 X 0081.34 Y 0104.78 G1 X 0078.21 Y 0079.73 E 0134.70
G0 X 0079.64 Y 0109.06 G1 X 0080.34 Y 0112.89 E 0135.48
G0 X 0079.64 Y 0109.06 G1 X 0060.77 Y 0094.81 E 0140.21
G0 X 0079.64 Y 0109.06 G1 X 0081.34 Y 0104.78 E 0141.13
G0 X 0077.19 Y 0067.07 G1 X 0077.48 Y 0079.28 E 0143.57
G0 X 0077.19 Y 0067.07 G1 X 0088.00 Y 0057.70 E 0146.43
G0 X 0063.90 Y 0060.20 G1 X 0059.15 Y 0059.45 E 0147.39
G0 X 0063.90 Y 0060.20 G1 X 0083.95 Y 0051.76 E 0151.75
G0 X 0063.90 Y 0060.20 G1 X 0077.19 Y 0067.07 E 0154.74
G0 X 0059.49 Y 0046.37 G1 X 0060.47 Y 0053.81 E 0156.24
G0 X 0059.49 Y 0046.37 G1 X 0075.47 Y 0037.84 E 0159.86
G0 X 0057.24 Y 0041.77 G1 X 0055.82 Y 0040.19 E 0160.29
G0 X 0057.24 Y 0041.77 G1 X 0072.46 Y 0032.89 E 0163.81
G0 X 0057.24 Y 0041.77 G1 X 0059.49 Y 0046.37 E 0164.84
;CONTOUR EDGES
G0 X 0008.82 Y 0010.94 G1 X 0014.82 Y 0006.00 E 0166.39
G0 X 0014.82 Y 0006.00 G1 X 0024.69 Y 0004.23 E 0168.40
G0 X 0024.69 Y 0004.23 G1 X 0040.92 Y 0008.47 E 0171.75
G0 X 0040.92 Y 0008.47 G1 X 0070.91 Y 0030.34 E 0179.17
G0 X 0070.91 Y 0030.34 G1 X 0085.72 Y 0054.68 E 0184.87
G0 X 0085.72 Y 0054.68 G1 X 0115.01 Y 0093.49 E 0194.60
G0 X 0115.01 Y 0093.49 G1 X 0141.11 Y 0116.77 E 0201.59
G0 X 0141.11 Y 0116.77 G1 X 0159.81 Y 0133.00 E 0206.54
G0 X 0159.81 Y 0133.00 G1 X 0158.40 Y 0162.28 E 0212.41
G0 X 0158.40 Y 0162.28 G1 X 0134.41 Y 0176.74 E 0218.01
G0 X 0134.41 Y 0176.74 G1 X 0103.01 Y 0154.87 E 0225.66
G0 X 0103.01 Y 0154.87 G1 X 0077.96 Y 0132.64 E 0232.36
G0 X 0077.96 Y 0132.64 G1 X 0024.34 Y 0087.84 E 0246.33
G0 X 0024.34 Y 0087.84 G1 X 0010.58 Y 0056.09 E 0253.26
G0 X 0010.58 Y 0056.09 G1 X 0010.58 Y 0056.09 E 0253.26
G0 X 0010.58 Y 0056.09 G1 X 0005.29 Y 0033.87 E 0257.82
G0 X 0005.29 Y 0033.87 G1 X 0005.29 Y 0020.46 E 0260.51
G0 X 0005.29 Y 0020.46 G1 X 0008.82 Y 0010.94 E 0262.54
G0  F600 Z0.6
;INSOLE EDGES
G0 X 0037.86 Y 0035.81 G1 X 0049.35 Y 0014.61 E 0267.36
G0 X 0044.52 Y 0035.71 G1 X 0056.82 Y 0020.06 E 0271.34
G0 X 0044.52 Y 0035.71 G1 X 0037.86 Y 0035.81 E 0272.67
G0 X 0050.31 Y 0071.08 G1 X 0048.91 Y 0068.26 E 0273.30
G0 X 0130.10 Y 0149.36 G1 X 0157.52 Y 0162.80 E 0279.41
G0 X 0120.80 Y 0167.26 G1 X 0130.10 Y 0149.36 E 0283.44
G0 X 0052.49 Y 0092.61 G1 X 0050.31 Y 0071.08 E 0287.77
G0 X 0069.63 Y 0125.68 G1 X 0080.34 Y 0112.89 E 0291.11
G0 X 0042.37 Y 0102.90 G1 X 0052.49 Y 0092.61 E 0293.99
G0 X 0042.75 Y 0066.30 G1 X 0048.91 Y 0068.26 E 0295.29
G0 X 0018.99 Y 0075.49 G1 X 0042.75 Y 0066.30 E 0300.38
G0 X 0050.74 Y 0037.18 G1 X 0044.52 Y 0035.71 E 0301.66
G0 X 0050.74 Y 0037.18 G1 X 0055.82 Y 0040.19 E 0302.84
G0 X 0066.63 Y 0027.22 G1 X 0055.82 Y 0040.19 E 0306.22
G0 X 0062.01 Y 0023.85 G1 X 0050.74 Y 0037.18 E 0309.71
G0 X 0059.15 Y 0059.45 G1 X 0048.91 Y 0068.26 E 0312.41
G0 X 0108.63 Y 0085.04 G1 X 0098.85 Y 0087.79 E 0314.44
G0 X 0126.87 Y 0139.66 G1 X 0130.10 Y 0149.36 E 0316.49
G0 X 0126.87 Y 0139.66 G1 X 0145.41 Y 0120.50 E 0321.82
G0 X 0108.00 Y 0136.77 G1 X 0097.73 Y 0150.18 E 0325.20
G0 X 0108.00 Y 0136.77 G1 X 0126.87 Y 0139.66 E 0329.02
G0 X 0102.79 Y 0118.75 G1 X 0080.34 Y 0112.89 E 0333.66
G0 X 0102.79 Y 0118.75 G1 X 0121.90 Y 0099.64 E 0339.06
G0 X 0102.79 Y 0118.75 G1 X 0108.00 Y 0136.77 E 0342.82
G0 X 0033.85 Y 0038.39 G1 X 0042.75 Y 0066.30 E 0348.68
G0 X 0007.77 Y 0044.26 G1 X 0033.85 Y 0038.39 E 0354.02
G0 X 0034.95 Y 0036.73 G1 X 0037.86 Y 0035.81 E 0354.63
G0 X 0034.95 Y 0036.73 G1 X 0033.85 Y 0038.39 E 0355.03
G0 X 0034.95 Y 0036.73 G1 X 0023.99 Y 0004.36 E 0361.87
G0 X 0082.00 Y 0079.36 G1 X 0098.85 Y 0087.79 E 0365.64
G0 X 0095.26 Y 0067.31 G1 X 0082.00 Y 0079.36 E 0369.22
G0 X 0060.47 Y 0053.81 G1 X 0059.15 Y 0059.45 E 0370.38
G0 X 0060.47 Y 0053.81 G1 X 0079.43 Y 0044.34 E 0374.61
G0 X 0060.77 Y 0094.81 G1 X 0052.49 Y 0092.61 E 0376.33
G0 X 0076.12 Y 0079.45 G1 X 0050.31 Y 0071.08 E 0381.76
G0 X 0076.12 Y 0079.45 G1 X 0060.77 Y 0094.81 E 0386.10
G0 X 0077.48 Y 0079.28 G1 X 0076.12 Y 0079.45 E 0386.37
G0 X 0078.21 Y 0079.73 G1 X 0082.00 Y 0079.36 E 0387.13
G0 X 0078.21 Y 0079.73 G1 X 0077.48 Y 0079.28 E 0387.31
G0 X 0081.34 Y 0104.78 G1 X 0098.85 Y 0087.79 E 0392.19
G0 X 0081.34 Y 0104.78 G1 X 0078.21 Y 0079.73 E 0397.24
G0 X 0079.64 Y 0109.06 G1 X 0080.34 Y 0112.89 E 0398.02
G0 X 0079.64 Y 0109.06 G1 X 0060.77 Y 0094.81 E 0402.75
G0 X 0079.64 Y 0109.06 G1 X 0081.34 Y 0104.78 E 0403.67
G0 X 0077.19 Y 0067.07 G1 X 0077.48 Y 0079.28 E 0406.11
G0 X 0077.19 Y 0067.07 G1 X 0088.00 Y 0057.70 E 0408.97
G0 X 0063.90 Y 0060.20 G1 X 0059.15 Y 0059.45 E 0409.93
G0 X 0063.90 Y 0060.20 G1 X 0083.95 Y 0051.76 E 0414.28
G0 X 0063.90 Y 0060.20 G1 X 0077.19 Y 0067.07 E 0417.27
G0 X 0059.49 Y 0046.37 G1 X 0060.47 Y 0053.81 E 0418.78
G0 X 0059.49 Y 0046.37 G1 X 0075.47 Y 0037.84 E 0422.40
G0 X 0057.24 Y 0041.77 G1 X 0055.82 Y 0040.19 E 0422.83
G0 X 0057.24 Y 0041.77 G1 X 0072.46 Y 0032.89 E 0426.35
G0 X 0057.24 Y 0041.77 G1 X 0059.49 Y 0046.37 E 0427.37
;CONTOUR EDGES
G0 X 0008.82 Y 0010.94 G1 X 0014.82 Y 0006.00 E 0428.93
G0 X 0014.82 Y 0006.00 G1 X 0024.69 Y 0004.23 E 0430.93
G0 X 0024.69 Y 0004.23 G1 X 0040.92 Y 0008.47 E 0434.29
G0 X 0040.92 Y 0008.47 G1 X 0070.91 Y 0030.34 E 0441.71
G0 X 0070.91 Y 0030.34 G1 X 0085.72 Y 0054.68 E 0447.41
G0 X 0085.72 Y 0054.68 G1 X 0115.01 Y 0093.49 E 0457.13
G0 X 0115.01 Y 0093.49 G1 X 0141.11 Y 0116.77 E 0464.13
G0 X 0141.11 Y 0116.77 G1 X 0159.81 Y 0133.00 E 0469.08
G0 X 0159.81 Y 0133.00 G1 X 0158.40 Y 0162.28 E 0474.94
G0 X 0158.40 Y 0162.28 G1 X 0134.41 Y 0176.74 E 0480.55
G0 X 0134.41 Y 0176.74 G1 X 0103.01 Y 0154.87 E 0488.20
G0 X 0103.01 Y 0154.87 G1 X 0077.96 Y 0132.64 E 0494.90
G0 X 0077.96 Y 0132.64 G1 X 0024.34 Y 0087.84 E 0508.87
G0 X 0024.34 Y 0087.84 G1 X 0010.58 Y 0056.09 E 0515.79
G0 X 0010.58 Y 0056.09 G1 X 0010.58 Y 0056.09 E 0515.79
G0 X 0010.58 Y 0056.09 G1 X 0005.29 Y 0033.87 E 0520.36
G0 X 0005.29 Y 0033.87 G1 X 0005.29 Y 0020.46 E 0523.04
G0 X 0005.29 Y 0020.46 G1 X 0008.82 Y 0010.94 E 0525.07
G0  F600 Z0.90000004
;INSOLE EDGES
G0 X 0037.86 Y 0035.81 G1 X 0049.35 Y 0014.61 E 0529.90
G0 X 0044.52 Y 0035.71 G1 X 0056.82 Y 0020.06 E 0533.88
G0 X 0044.52 Y 0035.71 G1 X 0037.86 Y 0035.81 E 0535.21
G0 X 0050.31 Y 0071.08 G1 X 0048.91 Y 0068.26 E 0535.84
G0 X 0130.10 Y 0149.36 G1 X 0157.52 Y 0162.80 E 0541.95
G0 X 0120.80 Y 0167.26 G1 X 0130.10 Y 0149.36 E 0545.98
G0 X 0052.49 Y 0092.61 G1 X 0050.31 Y 0071.08 E 0550.31
G0 X 0069.63 Y 0125.68 G1 X 0080.34 Y 0112.89 E 0553.64
G0 X 0042.37 Y 0102.90 G1 X 0052.49 Y 0092.61 E 0556.53
G0 X 0042.75 Y 0066.30 G1 X 0048.91 Y 0068.26 E 0557.82
G0 X 0018.99 Y 0075.49 G1 X 0042.75 Y 0066.30 E 0562.92
G0 X 0050.74 Y 0037.18 G1 X 0044.52 Y 0035.71 E 0564.20
G0 X 0050.74 Y 0037.18 G1 X 0055.82 Y 0040.19 E 0565.38
G0 X 0066.63 Y 0027.22 G1 X 0055.82 Y 0040.19 E 0568.75
G0 X 0062.01 Y 0023.85 G1 X 0050.74 Y 0037.18 E 0572.25
G0 X 0059.15 Y 0059.45 G1 X 0048.91 Y 0068.26 E 0574.95
G0 X 0108.63 Y 0085.04 G1 X 0098.85 Y 0087.79 E 0576.98
G0 X 0126.87 Y 0139.66 G1 X 0130.10 Y 0149.36 E 0579.03
G0 X 0126.87 Y 0139.66 G1 X 0145.41 Y 0120.50 E 0584.36
G0 X 0108.00 Y 0136.77 G1 X 0097.73 Y 0150.18 E 0587.74
G0 X 0108.00 Y 0136.77 G1 X 0126.87 Y 0139.66 E 0591.55
G0 X 0102.79 Y 0118.75 G1 X 0080.34 Y 0112.89 E 0596.20
G0 X 0102.79 Y 0118.75 G1 X 0121.90 Y 0099.64 E 0601.60
G0 X 0102.79 Y 0118.75 G1 X 0108.00 Y 0136.77 E 0605.35
G0 X 0033.85 Y 0038.39 G1 X 0042.75 Y 0066.30 E 0611.21
G0 X 0007.77 Y 0044.26 G1 X 0033.85 Y 0038.39 E 0616.56
G0 X 0034.95 Y 0036.73 G1 X 0037.86 Y 0035.81 E 0617.17
G0 X 0034.95 Y 0036.73 G1 X 0033.85 Y 0038.39 E 0617.57
G0 X 0034.95 Y 0036.73 G1 X 0023.99 Y 0004.36 E 0624.40
G0 X 0082.00 Y 0079.36 G1 X 0098.85 Y 0087.79 E 0628.17
G0 X 0095.26 Y 0067.31 G1 X 0082.00 Y 0079.36 E 0631.76
G0 X 0060.47 Y 0053.81 G1 X 0059.15 Y 0059.45 E 0632.91
G0 X 0060.47 Y 0053.81 G1 X 0079.43 Y 0044.34 E 0637.15
G0 X 0060.77 Y 0094.81 G1 X 0052.49 Y 0092.61 E 0638.87
G0 X 0076.12 Y 0079.45 G1 X 0050.31 Y 0071.08 E 0644.29
G0 X 0076.12 Y 0079.45 G1 X 0060.77 Y 0094.81 E 0648.64
G0 X 0077.48 Y 0079.28 G1 X 0076.12 Y 0079.45 E 0648.91
G0 X 0078.21 Y 0079.73 G1 X 0082.00 Y 0079.36 E 0649.67
G0 X 0078.21 Y 0079.73 G1 X 0077.48 Y 0079.28 E 0649.84
G0 X 0081.34 Y 0104.78 G1 X 0098.85 Y 0087.79 E 0654.72
G0 X 0081.34 Y 0104.78 G1 X 0078.21 Y 0079.73 E 0659.77
G0 X 0079.64 Y 0109.06 G1 X 0080.34 Y 0112.89 E 0660.55
G0 X 0079.64 Y 0109.06 G1 X 0060.77 Y 0094.81 E 0665.28
G0 X 0079.64 Y 0109.06 G1 X 0081.34 Y 0104.78 E 0666.20
G0 X 0077.19 Y 0067.07 G1 X 0077.48 Y 0079.28 E 0668.65
G0 X 0077.19 Y 0067.07 G1 X 0088.00 Y 0057.70 E 0671.51
G0 X 0063.90 Y 0060.20 G1 X 0059.15 Y 0059.45 E 0672.47
G0 X 0063.90 Y 0060.20 G1 X 0083.95 Y 0051.76 E 0676.82
G0 X 0063.90 Y 0060.20 G1 X 0077.19 Y 0067.07 E 0679.81
G0 X 0059.49 Y 0046.37 G1 X 0060.47 Y 0053.81 E 0681.31
G0 X 0059.49 Y 0046.37 G1 X 0075.47 Y 0037.84 E 0684.94
G0 X 0057.24 Y 0041.77 G1 X 0055.82 Y 0040.19 E 0685.36
G0 X 0057.24 Y 0041.77 G1 X 0072.46 Y 0032.89 E 0688.89
G0 X 0057.24 Y 0041.77 G1 X 0059.49 Y 0046.37 E 0689.91
;CONTOUR EDGES
G0 X 0008.82 Y 0010.94 G1 X 0014.82 Y 0006.00 E 0691.47
G0 X 0014.82 Y 0006.00 G1 X 0024.69 Y 0004.23 E 0693.47
G0 X 0024.69 Y 0004.23 G1 X 0040.92 Y 0008.47 E 0696.83
G0 X 0040.92 Y 0008.47 G1 X 0070.91 Y 0030.34 E 0704.25
G0 X 0070.91 Y 0030.34 G1 X 0085.72 Y 0054.68 E 0709.95
G0 X 0085.72 Y 0054.68 G1 X 0115.01 Y 0093.49 E 0719.67
G0 X 0115.01 Y 0093.49 G1 X 0141.11 Y 0116.77 E 0726.67
G0 X 0141.11 Y 0116.77 G1 X 0159.81 Y 0133.00 E 0731.62
G0 X 0159.81 Y 0133.00 G1 X 0158.40 Y 0162.28 E 0737.48
G0 X 0158.40 Y 0162.28 G1 X 0134.41 Y 0176.74 E 0743.08
G0 X 0134.41 Y 0176.74 G1 X 0103.01 Y 0154.87 E 0750.74
G0 X 0103.01 Y 0154.87 G1 X 0077.96 Y 0132.64 E 0757.43
G0 X 0077.96 Y 0132.64 G1 X 0024.34 Y 0087.84 E 0771.41
G0 X 0024.34 Y 0087.84 G1 X 0010.58 Y 0056.09 E 0778.33
G0 X 0010.58 Y 0056.09 G1 X 0010.58 Y 0056.09 E 0778.33
G0 X 0010.58 Y 0056.09 G1 X 0005.29 Y 0033.87 E 0782.90
G0 X 0005.29 Y 0033.87 G1 X 0005.29 Y 0020.46 E 0785.58
G0 X 0005.29 Y 0020.46 G1 X 0008.82 Y 0010.94 E 0787.61
G0  F600 Z1.2
;INSOLE EDGES
G0 X 0037.86 Y 0035.81 G1 X 0049.35 Y 0014.61 E 0792.43
G0 X 0044.52 Y 0035.71 G1 X 0056.82 Y 0020.06 E 0796.41
G0 X 0044.52 Y 0035.71 G1 X 0037.86 Y 0035.81 E 0797.75
G0 X 0050.31 Y 0071.08 G1 X 0048.91 Y 0068.26 E 0798.38
G0 X 0130.10 Y 0149.36 G1 X 0157.52 Y 0162.80 E 0804.48
G0 X 0120.80 Y 0167.26 G1 X 0130.10 Y 0149.36 E 0808.52
G0 X 0052.49 Y 0092.61 G1 X 0050.31 Y 0071.08 E 0812.85
G0 X 0069.63 Y 0125.68 G1 X 0080.34 Y 0112.89 E 0816.18
G0 X 0042.37 Y 0102.90 G1 X 0052.49 Y 0092.61 E 0819.07
G0 X 0042.75 Y 0066.30 G1 X 0048.91 Y 0068.26 E 0820.36
G0 X 0018.99 Y 0075.49 G1 X 0042.75 Y 0066.30 E 0825.46
G0 X 0050.74 Y 0037.18 G1 X 0044.52 Y 0035.71 E 0826.73
G0 X 0050.74 Y 0037.18 G1 X 0055.82 Y 0040.19 E 0827.92
G0 X 0066.63 Y 0027.22 G1 X 0055.82 Y 0040.19 E 0831.29
G0 X 0062.01 Y 0023.85 G1 X 0050.74 Y 0037.18 E 0834.78
G0 X 0059.15 Y 0059.45 G1 X 0048.91 Y 0068.26 E 0837.49
G0 X 0108.63 Y 0085.04 G1 X 0098.85 Y 0087.79 E 0839.52
G0 X 0126.87 Y 0139.66 G1 X 0130.10 Y 0149.36 E 0841.56
G0 X 0126.87 Y 0139.66 G1 X 0145.41 Y 0120.50 E 0846.90
G0 X 0108.00 Y 0136.77 G1 X 0097.73 Y 0150.18 E 0850.27
G0 X 0108.00 Y 0136.77 G1 X 0126.87 Y 0139.66 E 0854.09
G0 X 0102.79 Y 0118.75 G1 X 0080.34 Y 0112.89 E 0858.73
G0 X 0102.79 Y 0118.75 G1 X 0121.90 Y 0099.64 E 0864.14
G0 X 0102.79 Y 0118.75 G1 X 0108.00 Y 0136.77 E 0867.89
G0 X 0033.85 Y 0038.39 G1 X 0042.75 Y 0066.30 E 0873.75
G0 X 0007.77 Y 0044.26 G1 X 0033.85 Y 0038.39 E 0879.10
G0 X 0034.95 Y 0036.73 G1 X 0037.86 Y 0035.81 E 0879.71
G0 X 0034.95 Y 0036.73 G1 X 0033.85 Y 0038.39 E 0880.11
G0 X 0034.95 Y 0036.73 G1 X 0023.99 Y 0004.36 E 0886.94
G0 X 0082.00 Y 0079.36 G1 X 0098.85 Y 0087.79 E 0890.71
G0 X 0095.26 Y 0067.31 G1 X 0082.00 Y 0079.36 E 0894.29
G0 X 0060.47 Y 0053.81 G1 X 0059.15 Y 0059.45 E 0895.45
G0 X 0060.47 Y 0053.81 G1 X 0079.43 Y 0044.34 E 0899.69
G0 X 0060.77 Y 0094.81 G1 X 0052.49 Y 0092.61 E 0901.40
G0 X 0076.12 Y 0079.45 G1 X 0050.31 Y 0071.08 E 0906.83
G0 X 0076.12 Y 0079.45 G1 X 0060.77 Y 0094.81 E 0911.17
G0 X 0077.48 Y 0079.28 G1 X 0076.12 Y 0079.45 E 0911.45
G0 X 0078.21 Y 0079.73 G1 X 0082.00 Y 0079.36 E 0912.21
G0 X 0078.21 Y 0079.73 G1 X 0077.48 Y 0079.28 E 0912.38
G0 X 0081.34 Y 0104.78 G1 X 0098.85 Y 0087.79 E 0917.26
G0 X 0081.34 Y 0104.78 G1 X 0078.21 Y 0079.73 E 0922.31
G0 X 0079.64 Y 0109.06 G1 X 0080.34 Y 0112.89 E 0923.09
G0 X 0079.64 Y 0109.06 G1 X 0060.77 Y 0094.81 E 0927.82
G0 X 0079.64 Y 0109.06 G1 X 0081.34 Y 0104.78 E 0928.74
G0 X 0077.19 Y 0067.07 G1 X 0077.48 Y 0079.28 E 0931.18
G0 X 0077.19 Y 0067.07 G1 X 0088.00 Y 0057.70 E 0934.04
G0 X 0063.90 Y 0060.20 G1 X 0059.15 Y 0059.45 E 0935.01
G0 X 0063.90 Y 0060.20 G1 X 0083.95 Y 0051.76 E 0939.36
G0 X 0063.90 Y 0060.20 G1 X 0077.19 Y 0067.07 E 0942.35
G0 X 0059.49 Y 0046.37 G1 X 0060.47 Y 0053.81 E 0943.85
G0 X 0059.49 Y 0046.37 G1 X 0075.47 Y 0037.84 E 0947.48
G0 X 0057.24 Y 0041.77 G1 X 0055.82 Y 0040.19 E 0947.90
G0 X 0057.24 Y 0041.77 G1 X 0072.46 Y 0032.89 E 0951.42
G0 X 0057.24 Y 0041.77 G1 X 0059.49 Y 0046.37 E 0952.45
;CONTOUR EDGES
G0 X 0008.82 Y 0010.94 G1 X 0014.82 Y 0006.00 E 0954.00
G0 X 0014.82 Y 0006.00 G1 X 0024.69 Y 0004.23 E 0956.01
G0 X 0024.69 Y 0004.23 G1 X 0040.92 Y 0008.47 E 0959.36
G0 X 0040.92 Y 0008.47 G1 X 0070.91 Y 0030.34 E 0966.79
G0 X 0070.91 Y 0030.34 G1 X 0085.72 Y 0054.68 E 0972.49
G0 X 0085.72 Y 0054.68 G1 X 0115.01 Y 0093.49 E 0982.21
G0 X 0115.01 Y 0093.49 G1 X 0141.11 Y 0116.77 E 0989.20
G0 X 0141.11 Y 0116.77 G1 X 0159.81 Y 0133.00 E 0994.16
G0 X 0159.81 Y 0133.00 G1 X 0158.40 Y 0162.28 E 1000.02
