;FLAVOR:UltiGCode
; TIME:400
;MATERIAL:160
; MATERIAL2: 0
;NOZZLE_DIAMETER:0.400000
;NOZZLE_DIAMETER2:  0.400000
;Layer count: 98
;LAYER: 0
M107
G0  F600 Z0.3
;INSOLE EDGES
G0 X 0117.01 Y 0085.03
 G1 X 0141.00 Y 0073.67 E 0005.31
G0 X 0117.01 Y 0085.03
 G1 X 0096.19 Y 0065.31 E 0011.04
G0 X 0110.26 Y 0117.02
 G1 X 0117.01 Y 0085.03 E 0017.58
;CONTOUR EDGES
G0 X 0138.99 Y 0041.63
 G1 X 0145.34 Y 0142.87 E 0037.87
G0 X 0145.34 Y 0142.87
 G1 X 0063.50 Y 0082.55 E 0058.21
G0 X 0063.50 Y 0082.55
 G1 X 0128.41 Y 0048.33 E 0072.88
G0 X 0128.41 Y 0048.33
 G1 X 0138.99 Y 0041.63 E 0075.39
G0  F600 Z0.6
;INSOLE EDGES
G0 X 0117.01 Y 0085.03
 G1 X 0141.00 Y 0073.67 E 0080.70
G0 X 0117.01 Y 0085.03
 G1 X 0096.19 Y 0065.31 E 0086.43
G0 X 0110.26 Y 0117.02
 G1 X 0117.01 Y 0085.03 E 0092.97
;CONTOUR EDGES
G0 X 0138.99 Y 0041.63
 G1 X 0145.34 Y 0142.87 E 0113.26
G0 X 0145.34 Y 0142.87
 G1 X 0063.50 Y 0082.55 E 0133.59
G0 X 0063.50 Y 0082.55
 G1 X 0128.41 Y 0048.33 E 0148.27
G0 X 0128.41 Y 0048.33
 G1 X 0138.99 Y 0041.63 E 0150.77
G0  F600 Z0.90000004
;INSOLE EDGES
G0 X 0117.01 Y 0085.03
 G1 X 0141.00 Y 0073.67 E 0156.08
G0 X 0117.01 Y 0085.03
 G1 X 0096.19 Y 0065.31 E 0161.82
G0 X 0110.26 Y 0117.02
 G1 X 0117.01 Y 0085.03 E 0168.36
;CONTOUR EDGES
G0 X 0138.99 Y 0041.63
 G1 X 0145.34 Y 0142.87 E 0188.64
G0 X 0145.34 Y 0142.87
 G1 X 0063.50 Y 0082.55 E 0208.98
G0 X 0063.50 Y 0082.55
 G1 X 0128.41 Y 0048.33 E 0223.66
G0 X 0128.41 Y 0048.33
 G1 X 0138.99 Y 0041.63 E 0226.16
G0  F600 Z1.2
;INSOLE EDGES
G0 X 0117.01 Y 0085.03
 G1 X 0141.00 Y 0073.67 E 0231.47
G0 X 0117.01 Y 0085.03
 G1 X 0096.19 Y 0065.31 E 0237.21
G0 X 0110.26 Y 0117.02
 G1 X 0117.01 Y 0085.03 E 0243.74
;CONTOUR EDGES
G0 X 0138.99 Y 0041.63
 G1 X 0145.34 Y 0142.87 E 0264.03
G0 X 0145.34 Y 0142.87
 G1 X 0063.50 Y 0082.55 E 0284.37
G0 X 0063.50 Y 0082.55
 G1 X 0128.41 Y 0048.33 E 0299.04
G0 X 0128.41 Y 0048.33
 G1 X 0138.99 Y 0041.63 E 0301.55
G0  F600 Z1.5
;INSOLE EDGES
G0 X 0117.01 Y 0085.03
 G1 X 0141.00 Y 0073.67 E 0306.86
G0 X 0117.01 Y 0085.03
 G1 X 0096.19 Y 0065.31 E 0312.59
G0 X 0110.26 Y 0117.02
 G1 X 0117.01 Y 0085.03 E 0319.13
;CONTOUR EDGES
G0 X 0138.99 Y 0041.63
 G1 X 0145.34 Y 0142.87 E 0339.42
G0 X 0145.34 Y 0142.87
 G1 X 0063.50 Y 0082.55 E 0359.75
G0 X 0063.50 Y 0082.55
 G1 X 0128.41 Y 0048.33 E 0374.43
G0 X 0128.41 Y 0048.33
 G1 X 0138.99 Y 0041.63 E 0376.93
G0  F600 Z1.8
M107
G10
G0 F9000 X110.000 Y126.900 Z15.000
M25 ;Stop reading from this point on.
;CURA_PROFILE_STRING:eNrtWt1v2zYQfxWC/RF8bLHGk2S7aWvoYe2SvqRDgXhYmxeBlmiLi0QKJBXHCfy/746iFNlRunQN1o/JDw70093xePe7j6LO6YapOGN8lZnIHwXemuZ5bDKeXAimNUATTzGjaGK4FDETdJGzaK4q5mmZ8zTOrYGuwnNvycFGyoTmZhOFvlcqLkysS8bSaNo8GlaUTFFTKRaFQQ8aRj3guA+c9IHTFlywdOe0I9/TVVlKZaK5rJKMixVZVDxPy5wa5uH3UqoipmnGNNw6+l0K1qjEaUXzmF0ZVdl3r6XJvDUvWWzkmqnohOaadYD4UuZVwaJg6kl5zWKdcZanTgwCRQsGLqYc/hpQD0cvpndhDMUdcNwHTvrAaRdc5nIdBb4/8j0hr69zcIlfs/1E18maoFQHpYWshIkmo2kXtRFxr4Lnu+8KLmJ4uGR5FOy+SWSxgMhHv+b5ngIvdiIMPoRdiUyWiHkLaYwsdqg39iwd/XjNU5PFS9CQCi/rycVfLAEOcnEBwZCXTOW0tJ4j66de7aO7djDt2K8JXr8ALnNh2V0/o5gtA6oY7WBcaGb8feCqAyRS5jY4rn44UAQST5sSS12NXXCgXM4Fg3jZ+DpoRctojKfbpyZoORMrkzn/0diyAl9ddU8d5u7od57igl5ZpHVrCSiUC/DWgRmjUOx8aRx16+o3kIvucx2zW3bnsQs18h8KkFs+QkVCgbG4jmVjwNWX2ZQsOoUb6xaiYgVN53lbtrG1XLs3bcGrDRBeGyoSZPNRi193YZQvuaI5ct4dzIsSqqCQqWtsC3CzG3PIuqJLiDJVKy5sHO2zFdElTZDG4wZdUM32SHmLo4rlJlSDk4cOxRQwdVcpPNp/e6tqSxVfUq6ABzF0bMupDoYWwhrQldNHouloD+07s9XYOXHJr6D0lOLAzrgSth3gqIB0xbQO3KdEFi0pujIQElkyES+40X0C0AVwjFxCnA03tlU7sTKvIBmQIeDQKmrqO2EYr/gqOgz2oA1APwENlBmtEkz17CznCUsJNa/ITUo3W/w2DP5gMW4PZq+p5gmBujVwqn5FTjGApC4mUMk7k3NL/oSLgszN7vjckhNgKsDdiQim3+NcIngOvHOTqz70xLVpAqFJa8W6bdf9dVt0oHV99qqjlUhtulr4DFbfBS99cnbTOw63ZPaHgGZs9Y0kNE3JRlaKyLUgIEs6sgQpgeb8l625h5q6Y+ZtGBD3mUFbUBDsS5pXTB+8BW+bN3QBnaUyjJQSggeUgmQcvHsRtgKQIGKHRQrZwUMbBSzoA3D1qJXE7JM1NxkxGSPQ/YhcLsGPF+SDTz766Ae0K/Lhl49oCNogYSLV0OO0FTr3nbModH5XJCDnATQHcnLTnSZbp4BHNqsFSTEiwbQo4K4hOW6ve/uZXTMlrZK7XErq7o7nnIS+T47HexpOkIyLAi5GsIUTcC25+PxDCF1RLuxRu5cB7laG2Mzj2lQAyemKESnI6ZvfiE4UYwKCHhyR905mNBp5EKOm6o5FSt6+camZkLMerzp3wXqDolQ2Ue+CiX+vgpVLLWFvVcgTvkQGkgyuQLh5CpEIyAM+M8UgVdB3dmgH4Tg+hJCMff8flO2yUrOsKU1KoMmRevIRHKQYP5Sot7BnyCc4lcGYIFoWDFNoOaMgxlA0ll8/+6Mp+DAlHw5DoCx+9bPtnFSlO5JCxBuPWm/YJRNQIWj2lv6fvNR9pfEMvLWO4oZAuCYSCOJ8X9MN1OrkfqPasBK6gq4L8eX9PvT3gRn0IAl3wvEAdFttPVvj4dDiH6HFT768xdeTYh70WQr/lSn/686db32azO/pbrOzNa5PeApqhtASmg77JRMo8PsnUOA/6giyZx3e9P+Tc3sw9x906SVX2nxP136kyRveM3rn/mdOX9QJhok9TOzHn9jjYWIPE/v/ObHDBw2vsfqhJvawpgxryt6aMv6aawrqhMNqM6w2j7/aTIbV5ptabcLHW22GLek/25LGD5qdE3D6B1oYhtVwWA2H1VCkk+9tNUSd8bBODuvk466T7gct3V8xtODtf7HWv9fZEbJIR0IxmLEJGyX6MvIgCXWbOXa8bBfWuvksmFlDZdpLJ5VSNsQNhTEBNtGAtOgzss5Aoa10u0wUVW54mbftQunRwWyeQVDxNAwurDeW5ZZFaHT+RDz1ICbmW/KPLrEAG/f+BnWV/Wo=
