;FLAVOR:UltiGCode
; TIME:400
;MATERIAL:160
; MATERIAL2: 0
;NOZZLE_DIAMETER:0.400000
;NOZZLE_DIAMETER2:  0.400000
;Layer count: 98
;LAYER: 0
M107
G0  F600 Z0.3
;INSOLE EDGES
G1 X 0177.45 Y 0178.15 E 0000.42
 G1 X 0184.07 Y 0181.46 E 0001.48
G1 X 0177.45 Y 0187.62 E 0000.63
 G1 X 0178.02 Y 0188.51 E 0001.69
G1 X 0177.45 Y 0187.62 E 0002.53
 G1 X 0177.45 Y 0178.15 E 0003.59
G1 X 0028.32 Y 0040.79 E 0006.55
 G1 X 0048.24 Y 0043.63 E 0007.61
G1 X 0048.86 Y 0044.09 E 0006.71
 G1 X 0048.24 Y 0043.63 E 0007.77
G1 X 0048.86 Y 0024.45 E 0010.64
 G1 X 0048.86 Y 0044.09 E 0011.69
G1 X 0054.68 Y 0042.66 E 0014.30
 G1 X 0054.68 Y 0024.34 E 0015.36
G1 X 0066.92 Y 0069.22 E 0021.27
 G1 X 0035.21 Y 0083.64 E 0022.33
G1 X 0072.62 Y 0053.20 E 0024.70
 G1 X 0083.06 Y 0039.55 E 0025.76
G1 X 0072.62 Y 0053.20 E 0026.17
 G1 X 0067.13 Y 0058.06 E 0027.23
G1 X 0047.73 Y 0042.96 E 0026.34
 G1 X 0048.24 Y 0043.63 E 0027.40
G1 X 0033.28 Y 0031.22 E 0030.06
 G1 X 0047.73 Y 0042.96 E 0031.12
G1 X 0041.35 Y 0025.96 E 0033.69
 G1 X 0047.73 Y 0042.96 E 0034.75
G1 X 0162.81 Y 0169.30 E 0039.03
 G1 X 0162.81 Y 0196.00 E 0040.09
G1 X 0160.67 Y 0167.30 E 0039.23
 G1 X 0159.87 Y 0166.71 E 0040.29
G1 X 0160.67 Y 0167.30 E 0039.82
 G1 X 0162.81 Y 0169.30 E 0040.88
G1 X 0186.34 Y 0161.80 E 0045.07
 G1 X 0160.67 Y 0167.30 E 0046.13
G1 X 0164.81 Y 0170.57 E 0048.02
 G1 X 0177.45 Y 0178.15 E 0049.08
G1 X 0164.81 Y 0170.57 E 0052.64
 G1 X 0187.93 Y 0170.57 E 0053.70
G1 X 0164.63 Y 0170.52 E 0056.92
 G1 X 0177.45 Y 0187.62 E 0057.98
G1 X 0164.63 Y 0170.52 E 0056.95
 G1 X 0164.81 Y 0170.57 E 0058.01
G1 X 0164.43 Y 0170.44 E 0061.68
 G1 X 0170.93 Y 0193.17 E 0062.74
G1 X 0164.43 Y 0170.44 E 0062.08
 G1 X 0162.81 Y 0169.30 E 0063.14
G1 X 0164.43 Y 0170.44 E 0062.12
 G1 X 0164.63 Y 0170.52 E 0063.18
G1 X 0161.73 Y 0165.54 E 0062.56
 G1 X 0159.87 Y 0166.71 E 0063.62
G1 X 0179.67 Y 0150.35 E 0067.26
 G1 X 0161.73 Y 0165.54 E 0068.32
G1 X 0183.64 Y 0156.14 E 0072.03
 G1 X 0161.73 Y 0165.54 E 0073.09
G1 X 0044.83 Y 0099.36 E 0079.23
 G1 X 0074.32 Y 0078.71 E 0080.29
G1 X 0076.27 Y 0080.79 E 0079.80
 G1 X 0074.32 Y 0078.71 E 0080.86
G1 X 0076.27 Y 0080.79 E 0086.39
 G1 X 0101.18 Y 0059.20 E 0087.45
G1 X 0159.43 Y 0166.54 E 0086.49
 G1 X 0159.87 Y 0166.71 E 0087.54
G1 X 0159.32 Y 0166.95 E 0092.29
 G1 X 0154.55 Y 0195.60 E 0093.35
G1 X 0159.32 Y 0166.95 E 0092.38
 G1 X 0159.43 Y 0166.54 E 0093.44
G1 X 0146.58 Y 0192.43 E 0098.08
 G1 X 0159.32 Y 0166.95 E 0099.13
G1 X 0052.19 Y 0047.73 E 0099.06
 G1 X 0048.86 Y 0044.09 E 0100.12
G1 X 0052.19 Y 0047.73 E 0104.13
 G1 X 0026.91 Y 0049.14 E 0105.18
G1 X 0053.26 Y 0048.54 E 0105.34
 G1 X 0054.68 Y 0042.66 E 0106.39
G1 X 0053.26 Y 0048.54 E 0106.21
 G1 X 0055.70 Y 0052.17 E 0107.27
G1 X 0053.26 Y 0048.54 E 0106.48
 G1 X 0052.19 Y 0047.73 E 0107.54
G1 X 0063.13 Y 0062.44 E 0107.66
 G1 X 0067.13 Y 0058.06 E 0108.72
G1 X 0063.13 Y 0062.44 E 0108.70
 G1 X 0059.71 Y 0058.58 E 0109.75
G1 X 0063.72 Y 0063.82 E 0109.95
 G1 X 0066.92 Y 0069.22 E 0111.01
G1 X 0063.72 Y 0063.82 E 0116.71
 G1 X 0032.25 Y 0076.05 E 0117.76
G1 X 0063.72 Y 0063.82 E 0117.01
 G1 X 0063.13 Y 0062.44 E 0118.06
G1 X 0058.11 Y 0055.32 E 0117.73
 G1 X 0059.71 Y 0058.58 E 0118.79
G1 X 0056.66 Y 0053.25 E 0118.02
 G1 X 0055.70 Y 0052.17 E 0119.08
G1 X 0056.66 Y 0053.25 E 0118.53
 G1 X 0058.11 Y 0055.32 E 0119.58
G1 X 0062.88 Y 0027.28 E 0122.01
 G1 X 0054.68 Y 0042.66 E 0123.07
G1 X 0067.82 Y 0029.06 E 0127.34
 G1 X 0056.66 Y 0053.25 E 0128.40
G1 X 0077.65 Y 0034.91 E 0132.43
 G1 X 0067.13 Y 0058.06 E 0133.48
G1 X 0073.80 Y 0032.50 E 0137.97
 G1 X 0058.11 Y 0055.32 E 0139.02
G1 X 0082.43 Y 0091.22 E 0144.90
 G1 X 0053.59 Y 0110.44 E 0145.96
G1 X 0082.69 Y 0091.58 E 0151.70
 G1 X 0058.65 Y 0115.62 E 0152.76
G1 X 0082.69 Y 0091.58 E 0151.79
 G1 X 0082.43 Y 0091.22 E 0152.85
G1 X 0073.21 Y 0077.07 E 0152.18
 G1 X 0074.32 Y 0078.71 E 0153.24
G1 X 0068.51 Y 0071.66 E 0159.28
 G1 X 0039.94 Y 0092.71 E 0160.34
G1 X 0068.51 Y 0071.66 E 0160.71
 G1 X 0073.21 Y 0077.07 E 0161.77
G1 X 0067.19 Y 0069.55 E 0160.80
 G1 X 0066.92 Y 0069.22 E 0161.86
G1 X 0067.19 Y 0069.55 E 0161.30
 G1 X 0068.51 Y 0071.66 E 0162.36
G1 X 0089.58 Y 0045.37 E 0165.03
 G1 X 0072.62 Y 0053.20 E 0166.09
G1 X 0092.96 Y 0048.61 E 0171.67
 G1 X 0067.19 Y 0069.55 E 0172.73
G1 X 0097.00 Y 0053.28 E 0178.40
 G1 X 0073.21 Y 0077.07 E 0179.46
G1 X 0080.39 Y 0087.43 E 0179.26
 G1 X 0082.43 Y 0091.22 E 0180.32
G1 X 0079.64 Y 0086.34 E 0186.44
 G1 X 0048.85 Y 0104.82 E 0187.50
G1 X 0079.64 Y 0086.34 E 0186.71
 G1 X 0080.39 Y 0087.43 E 0187.77
G1 X 0077.85 Y 0082.98 E 0187.25
 G1 X 0076.27 Y 0080.79 E 0188.31
G1 X 0077.85 Y 0082.98 E 0188.01
 G1 X 0079.64 Y 0086.34 E 0189.07
G1 X 0106.05 Y 0065.75 E 0194.62
 G1 X 0077.85 Y 0082.98 E 0195.68
G1 X 0110.49 Y 0071.38 E 0201.44
 G1 X 0080.39 Y 0087.43 E 0202.50
G1 X 0123.36 Y 0134.41 E 0202.15
 G1 X 0125.93 Y 0136.81 E 0203.20
G1 X 0141.10 Y 0114.89 E 0207.42
 G1 X 0123.36 Y 0134.41 E 0208.48
G1 X 0151.61 Y 0159.80 E 0207.85
 G1 X 0149.78 Y 0158.72 E 0208.90
G1 X 0152.29 Y 0160.27 E 0213.20
 G1 X 0171.22 Y 0141.34 E 0214.26
G1 X 0152.29 Y 0160.27 E 0213.37
 G1 X 0151.61 Y 0159.80 E 0214.42
G1 X 0155.93 Y 0163.42 E 0218.70
 G1 X 0175.47 Y 0145.28 E 0219.76
G1 X 0155.93 Y 0163.42 E 0219.66
 G1 X 0152.29 Y 0160.27 E 0220.72
G1 X 0156.99 Y 0164.67 E 0220.28
 G1 X 0159.43 Y 0166.54 E 0221.34
G1 X 0156.99 Y 0164.67 E 0220.60
 G1 X 0155.93 Y 0163.42 E 0221.66
G1 X 0140.09 Y 0188.33 E 0226.42
 G1 X 0156.99 Y 0164.67 E 0227.48
G1 X 0132.50 Y 0181.76 E 0232.18
 G1 X 0149.78 Y 0158.72 E 0233.24
G1 X 0128.66 Y 0140.33 E 0233.07
 G1 X 0125.93 Y 0136.81 E 0234.13
G1 X 0098.35 Y 0114.97 E 0233.65
 G1 X 0100.16 Y 0112.75 E 0234.70
G1 X 0098.35 Y 0114.97 E 0239.15
 G1 X 0076.58 Y 0131.80 E 0240.21
G1 X 0144.74 Y 0153.85 E 0240.55
 G1 X 0149.78 Y 0158.72 E 0241.61
G1 X 0142.25 Y 0152.47 E 0246.16
 G1 X 0125.24 Y 0174.79 E 0247.22
G1 X 0142.25 Y 0152.47 E 0246.73
 G1 X 0144.74 Y 0153.85 E 0247.79
G1 X 0138.12 Y 0148.93 E 0247.82
 G1 X 0142.25 Y 0152.47 E 0248.88
G1 X 0059.69 Y 0058.58 E 0247.82
 G1 X 0059.71 Y 0058.58 E 0248.88
G1 X 0029.55 Y 0069.13 E 0254.21
 G1 X 0059.69 Y 0058.58 E 0255.27
G1 X 0027.71 Y 0055.67 E 0259.85
 G1 X 0055.70 Y 0052.17 E 0260.91
G1 X 0028.33 Y 0060.67 E 0266.14
 G1 X 0059.69 Y 0058.58 E 0267.19
G1 X 0106.40 Y 0117.74 E 0271.76
 G1 X 0129.81 Y 0102.14 E 0272.82
G1 X 0102.97 Y 0114.70 E 0272.45
 G1 X 0100.16 Y 0112.75 E 0273.50
G1 X 0102.97 Y 0114.70 E 0278.20
 G1 X 0125.75 Y 0097.17 E 0279.25
G1 X 0102.97 Y 0114.70 E 0279.11
 G1 X 0106.40 Y 0117.74 E 0280.17
G1 X 0099.26 Y 0106.06 E 0284.61
 G1 X 0122.93 Y 0092.13 E 0285.67
G1 X 0099.26 Y 0106.06 E 0290.22
 G1 X 0119.12 Y 0086.20 E 0291.28
G1 X 0096.98 Y 0107.73 E 0291.41
 G1 X 0100.16 Y 0112.75 E 0292.47
G1 X 0096.98 Y 0107.73 E 0291.98
 G1 X 0099.26 Y 0106.06 E 0293.04
G1 X 0088.58 Y 0097.44 E 0298.53
 G1 X 0112.64 Y 0075.22 E 0299.59
G1 X 0088.58 Y 0097.44 E 0304.91
 G1 X 0116.79 Y 0082.58 E 0305.97
G1 X 0086.58 Y 0096.14 E 0306.11
 G1 X 0082.69 Y 0091.58 E 0307.16
G1 X 0088.39 Y 0097.56 E 0306.15
 G1 X 0088.58 Y 0097.44 E 0307.21
G1 X 0088.39 Y 0097.56 E 0306.61
 G1 X 0086.58 Y 0096.14 E 0307.67
G1 X 0093.21 Y 0103.99 E 0307.67
 G1 X 0096.98 Y 0107.73 E 0308.73
G1 X 0093.21 Y 0103.99 E 0309.28
 G1 X 0088.39 Y 0097.56 E 0310.34
G1 X 0070.41 Y 0126.79 E 0315.73
 G1 X 0093.21 Y 0103.99 E 0316.79
G1 X 0072.17 Y 0112.00 E 0318.34
 G1 X 0060.14 Y 0117.15 E 0319.40
G1 X 0072.17 Y 0112.00 E 0322.63
 G1 X 0086.58 Y 0096.14 E 0323.69
G1 X 0072.17 Y 0112.00 E 0325.29
 G1 X 0067.51 Y 0124.43 E 0326.34
G1 X 0109.95 Y 0159.94 E 0330.71
 G1 X 0128.66 Y 0140.33 E 0331.77
G1 X 0117.26 Y 0167.08 E 0336.24
 G1 X 0138.12 Y 0148.93 E 0337.30
G1 X 0114.11 Y 0126.76 E 0338.61
 G1 X 0106.40 Y 0117.74 E 0339.67
G1 X 0114.81 Y 0127.22 E 0344.19
 G1 X 0132.98 Y 0106.03 E 0345.25
G1 X 0114.81 Y 0127.22 E 0344.36
 G1 X 0114.11 Y 0126.76 E 0345.42
G1 X 0116.73 Y 0128.93 E 0349.78
 G1 X 0137.40 Y 0111.44 E 0350.83
G1 X 0116.73 Y 0128.93 E 0350.29
 G1 X 0114.81 Y 0127.22 E 0351.35
G1 X 0118.22 Y 0130.64 E 0351.56
 G1 X 0123.36 Y 0134.41 E 0352.62
G1 X 0118.22 Y 0130.64 E 0357.06
 G1 X 0102.99 Y 0153.50 E 0358.11
G1 X 0118.22 Y 0130.64 E 0357.51
 G1 X 0116.73 Y 0128.93 E 0358.57
G1 X 0167.82 Y 0138.19 E 0362.91
 G1 X 0151.61 Y 0159.80 E 0363.97
G1 X 0146.18 Y 0152.15 E 0363.36
 G1 X 0144.74 Y 0153.85 E 0364.42
G1 X 0146.18 Y 0152.15 E 0368.36
 G1 X 0164.47 Y 0135.08 E 0369.42
G1 X 0146.25 Y 0119.21 E 0373.74
 G1 X 0125.93 Y 0136.81 E 0374.80
G1 X 0158.98 Y 0130.21 E 0378.82
 G1 X 0146.18 Y 0152.15 E 0379.87
G1 X 0136.25 Y 0146.33 E 0379.46
 G1 X 0138.12 Y 0148.93 E 0380.52
G1 X 0136.25 Y 0146.33 E 0384.89
 G1 X 0155.44 Y 0127.13 E 0385.95
G1 X 0136.00 Y 0146.08 E 0386.75
 G1 X 0128.66 Y 0140.33 E 0387.81
G1 X 0136.00 Y 0146.08 E 0392.27
 G1 X 0149.70 Y 0122.12 E 0393.33
G1 X 0136.00 Y 0146.08 E 0392.34
 G1 X 0136.25 Y 0146.33 E 0393.40
G1 X 0093.20 Y 0145.34 E 0397.94
 G1 X 0114.11 Y 0126.76 E 0398.99
G1 X 0095.78 Y 0120.12 E 0399.09
 G1 X 0098.35 Y 0114.97 E 0400.15
G1 X 0095.78 Y 0120.12 E 0403.61
 G1 X 0088.63 Y 0141.58 E 0404.67
G1 X 0095.78 Y 0120.12 E 0407.85
 G1 X 0083.31 Y 0137.26 E 0408.91
;CONTOUR EDGES
G1 X 0127.35 Y 0099.13 E 0411.31
 G1 X 0138.29 Y 0112.54 E 0412.37
G1 X 0138.29 Y 0112.54 E 0414.16
 G1 X 0149.22 Y 0121.71 E 0415.22
G1 X 0149.22 Y 0121.71 E 0417.81
 G1 X 0162.98 Y 0133.70 E 0418.87
G1 X 0162.98 Y 0133.70 E 0421.76
 G1 X 0177.45 Y 0147.11 E 0422.82
G1 X 0177.45 Y 0147.11 E 0424.75
 G1 X 0185.91 Y 0159.46 E 0425.81
G1 X 0185.91 Y 0159.46 E 0427.12
 G1 X 0188.03 Y 0171.10 E 0428.18
G1 X 0188.03 Y 0171.10 E 0429.69
 G1 X 0183.44 Y 0183.09 E 0430.75
G1 X 0183.44 Y 0183.09 E 0431.58
 G1 X 0176.74 Y 0189.79 E 0432.64
G1 X 0176.74 Y 0189.79 E 0434.11
 G1 X 0165.81 Y 0196.14 E 0435.17
G1 X 0165.81 Y 0196.14 E 0437.01
 G1 X 0151.34 Y 0195.44 E 0438.07
G1 X 0151.34 Y 0195.44 E 0440.18
 G1 X 0137.94 Y 0186.97 E 0441.24
G1 X 0137.94 Y 0186.97 E 0444.97
 G1 X 0120.65 Y 0170.39 E 0446.03
G1 X 0120.65 Y 0170.39 E 0449.21
 G1 X 0105.48 Y 0155.57 E 0450.27
G1 X 0105.48 Y 0155.57 E 0453.07
 G1 X 0090.66 Y 0143.23 E 0454.13
G1 X 0090.66 Y 0143.23 E 0459.34
 G1 X 0066.32 Y 0123.47 E 0460.40
G1 X 0066.32 Y 0123.47 E 0463.68
 G1 X 0051.15 Y 0107.95 E 0464.74
G1 X 0051.15 Y 0107.95 E 0468.32
 G1 X 0037.39 Y 0089.25 E 0469.38
G1 X 0037.39 Y 0089.25 E 0472.79
 G1 X 0029.28 Y 0068.44 E 0473.85
G1 X 0029.28 Y 0068.44 E 0476.84
 G1 X 0026.81 Y 0048.33 E 0477.90
G1 X 0026.81 Y 0048.33 E 0479.00
 G1 X 0028.93 Y 0037.75 E 0480.06
G1 X 0028.93 Y 0037.75 E 0480.78
 G1 X 0033.87 Y 0030.34 E 0481.84
G1 X 0033.87 Y 0030.34 E 0482.21
 G1 X 0039.86 Y 0026.46 E 0483.27
G1 X 0039.86 Y 0026.46 E 0483.33
 G1 X 0045.16 Y 0024.69 E 0484.38
G1 X 0045.16 Y 0024.69 E 0484.39
 G1 X 0050.45 Y 0024.34 E 0485.44
G1 X 0050.45 Y 0024.34 E 0485.30
 G1 X 0055.03 Y 0024.34 E 0486.36
G1 X 0055.03 Y 0024.34 E 0486.29
 G1 X 0059.62 Y 0026.11 E 0487.34
G1 X 0059.62 Y 0026.11 E 0488.16
 G1 X 0068.44 Y 0029.28 E 0489.22
G1 X 0068.44 Y 0029.28 E 0490.22
 G1 X 0077.26 Y 0034.57 E 0491.28
G1 X 0077.26 Y 0034.57 E 0492.82
 G1 X 0087.14 Y 0043.04 E 0493.88
G1 X 0087.14 Y 0043.04 E 0495.07
 G1 X 0095.25 Y 0050.80 E 0496.12
G1 X 0095.25 Y 0050.80 E 0498.00
 G1 X 0103.72 Y 0062.79 E 0499.06
G1 X 0103.72 Y 0062.79 E 0500.16
 G1 X 0110.42 Y 0071.26 E 0501.22
G1 X 0110.42 Y 0071.26 E 0502.75
 G1 X 0116.77 Y 0082.55 E 0503.81
G1 X 0116.77 Y 0082.55 E 0505.10
 G1 X 0123.12 Y 0092.43 E 0506.16
G1 X 0123.12 Y 0092.43 E 0506.55
 G1 X 0126.65 Y 0098.78 E 0507.61
G1 X 0126.65 Y 0098.78 E 0506.71
 G1 X 0127.35 Y 0099.13 E 0507.77
G0  F600 Z0.6
;INSOLE EDGES
G1 X 0177.45 Y 0178.15 E 0508.19
 G1 X 0184.07 Y 0181.46 E 0509.25
G1 X 0177.45 Y 0187.62 E 0508.40
 G1 X 0178.02 Y 0188.51 E 0509.46
G1 X 0177.45 Y 0187.62 E 0510.30
 G1 X 0177.45 Y 0178.15 E 0511.36
G1 X 0028.32 Y 0040.79 E 0514.32
 G1 X 0048.24 Y 0043.63 E 0515.38
G1 X 0048.86 Y 0044.09 E 0514.48
 G1 X 0048.24 Y 0043.63 E 0515.53
G1 X 0048.86 Y 0024.45 E 0518.41
 G1 X 0048.86 Y 0044.09 E 0519.46
G1 X 0054.68 Y 0042.66 E 0522.07
 G1 X 0054.68 Y 0024.34 E 0523.13
G1 X 0066.92 Y 0069.22 E 0529.04
 G1 X 0035.21 Y 0083.64 E 0530.10
G1 X 0072.62 Y 0053.20 E 0532.47
 G1 X 0083.06 Y 0039.55 E 0533.53
G1 X 0072.62 Y 0053.20 E 0533.94
 G1 X 0067.13 Y 0058.06 E 0535.00
G1 X 0047.73 Y 0042.96 E 0534.11
 G1 X 0048.24 Y 0043.63 E 0535.17
G1 X 0033.28 Y 0031.22 E 0537.83
 G1 X 0047.73 Y 0042.96 E 0538.89
G1 X 0041.35 Y 0025.96 E 0541.46
 G1 X 0047.73 Y 0042.96 E 0542.52
G1 X 0162.81 Y 0169.30 E 0546.80
 G1 X 0162.81 Y 0196.00 E 0547.86
G1 X 0160.67 Y 0167.30 E 0547.00
 G1 X 0159.87 Y 0166.71 E 0548.06
G1 X 0160.67 Y 0167.30 E 0547.59
 G1 X 0162.81 Y 0169.30 E 0548.65
G1 X 0186.34 Y 0161.80 E 0552.84
 G1 X 0160.67 Y 0167.30 E 0553.90
G1 X 0164.81 Y 0170.57 E 0555.79
 G1 X 0177.45 Y 0178.15 E 0556.85
G1 X 0164.81 Y 0170.57 E 0560.41
 G1 X 0187.93 Y 0170.57 E 0561.47
G1 X 0164.63 Y 0170.52 E 0564.69
 G1 X 0177.45 Y 0187.62 E 0565.74
G1 X 0164.63 Y 0170.52 E 0564.72
 G1 X 0164.81 Y 0170.57 E 0565.78
G1 X 0164.43 Y 0170.44 E 0569.45
 G1 X 0170.93 Y 0193.17 E 0570.51
G1 X 0164.43 Y 0170.44 E 0569.85
 G1 X 0162.81 Y 0169.30 E 0570.91
G1 X 0164.43 Y 0170.44 E 0569.89
 G1 X 0164.63 Y 0170.52 E 0570.95
G1 X 0161.73 Y 0165.54 E 0570.33
 G1 X 0159.87 Y 0166.71 E 0571.39
G1 X 0179.67 Y 0150.35 E 0575.03
 G1 X 0161.73 Y 0165.54 E 0576.09
G1 X 0183.64 Y 0156.14 E 0579.80
 G1 X 0161.73 Y 0165.54 E 0580.86
G1 X 0044.83 Y 0099.36 E 0587.00
 G1 X 0074.32 Y 0078.71 E 0588.06
G1 X 0076.27 Y 0080.79 E 0587.57
 G1 X 0074.32 Y 0078.71 E 0588.63
G1 X 0076.27 Y 0080.79 E 0594.16
 G1 X 0101.18 Y 0059.20 E 0595.22
G1 X 0159.43 Y 0166.54 E 0594.26
 G1 X 0159.87 Y 0166.71 E 0595.31
G1 X 0159.32 Y 0166.95 E 0600.06
 G1 X 0154.55 Y 0195.60 E 0601.12
G1 X 0159.32 Y 0166.95 E 0600.15
 G1 X 0159.43 Y 0166.54 E 0601.21
G1 X 0146.58 Y 0192.43 E 0605.85
 G1 X 0159.32 Y 0166.95 E 0606.90
G1 X 0052.19 Y 0047.73 E 0606.83
 G1 X 0048.86 Y 0044.09 E 0607.89
G1 X 0052.19 Y 0047.73 E 0611.90
 G1 X 0026.91 Y 0049.14 E 0612.95
G1 X 0053.26 Y 0048.54 E 0613.10
 G1 X 0054.68 Y 0042.66 E 0614.16
G1 X 0053.26 Y 0048.54 E 0613.98
 G1 X 0055.70 Y 0052.17 E 0615.04
G1 X 0053.26 Y 0048.54 E 0614.25
 G1 X 0052.19 Y 0047.73 E 0615.31
G1 X 0063.13 Y 0062.44 E 0615.43
 G1 X 0067.13 Y 0058.06 E 0616.49
G1 X 0063.13 Y 0062.44 E 0616.47
 G1 X 0059.71 Y 0058.58 E 0617.52
G1 X 0063.72 Y 0063.82 E 0617.72
 G1 X 0066.92 Y 0069.22 E 0618.78
G1 X 0063.72 Y 0063.82 E 0624.48
 G1 X 0032.25 Y 0076.05 E 0625.53
G1 X 0063.72 Y 0063.82 E 0624.77
 G1 X 0063.13 Y 0062.44 E 0625.83
G1 X 0058.11 Y 0055.32 E 0625.50
 G1 X 0059.71 Y 0058.58 E 0626.56
G1 X 0056.66 Y 0053.25 E 0625.79
 G1 X 0055.70 Y 0052.17 E 0626.85
G1 X 0056.66 Y 0053.25 E 0626.30
 G1 X 0058.11 Y 0055.32 E 0627.35
G1 X 0062.88 Y 0027.28 E 0629.78
 G1 X 0054.68 Y 0042.66 E 0630.84
G1 X 0067.82 Y 0029.06 E 0635.11
 G1 X 0056.66 Y 0053.25 E 0636.17
G1 X 0077.65 Y 0034.91 E 0640.20
 G1 X 0067.13 Y 0058.06 E 0641.25
G1 X 0073.80 Y 0032.50 E 0645.74
 G1 X 0058.11 Y 0055.32 E 0646.79
G1 X 0082.43 Y 0091.22 E 0652.67
 G1 X 0053.59 Y 0110.44 E 0653.73
G1 X 0082.69 Y 0091.58 E 0659.47
 G1 X 0058.65 Y 0115.62 E 0660.53
G1 X 0082.69 Y 0091.58 E 0659.56
 G1 X 0082.43 Y 0091.22 E 0660.62
G1 X 0073.21 Y 0077.07 E 0659.95
 G1 X 0074.32 Y 0078.71 E 0661.01
G1 X 0068.51 Y 0071.66 E 0667.05
 G1 X 0039.94 Y 0092.71 E 0668.11
G1 X 0068.51 Y 0071.66 E 0668.48
 G1 X 0073.21 Y 0077.07 E 0669.54
G1 X 0067.19 Y 0069.55 E 0668.57
 G1 X 0066.92 Y 0069.22 E 0669.63
G1 X 0067.19 Y 0069.55 E 0669.07
 G1 X 0068.51 Y 0071.66 E 0670.13
G1 X 0089.58 Y 0045.37 E 0672.80
 G1 X 0072.62 Y 0053.20 E 0673.86
G1 X 0092.96 Y 0048.61 E 0679.44
 G1 X 0067.19 Y 0069.55 E 0680.50
G1 X 0097.00 Y 0053.28 E 0686.17
 G1 X 0073.21 Y 0077.07 E 0687.23
G1 X 0080.39 Y 0087.43 E 0687.03
 G1 X 0082.43 Y 0091.22 E 0688.09
G1 X 0079.64 Y 0086.34 E 0694.21
 G1 X 0048.85 Y 0104.82 E 0695.27
G1 X 0079.64 Y 0086.34 E 0694.48
 G1 X 0080.39 Y 0087.43 E 0695.54
G1 X 0077.85 Y 0082.98 E 0695.02
