;FLAVOR:UltiGCode
; TIME:400
;MATERIAL:160
; MATERIAL2: 0
;NOZZLE_DIAMETER:0.400000
;NOZZLE_DIAMETER2:  0.400000
;Layer count: 98
;LAYER: 0
M107
G0  F600 Z0.3
;INSOLE EDGES
G1 X 0060.59 Y 0026.77 E 0002.92
 G1 X 0078.39 Y 0035.67 E 0003.98
G1 X 0059.77 Y 0049.67 E 0006.81
 G1 X 0042.16 Y 0057.92 E 0007.87
G1 X 0060.50 Y 0026.61 E 0006.85
 G1 X 0060.59 Y 0026.77 E 0007.91
G1 X 0060.50 Y 0026.61 E 0006.90
 G1 X 0060.50 Y 0026.32 E 0007.96
G1 X 0172.21 Y 0153.51 E 0008.45
 G1 X 0178.68 Y 0149.27 E 0009.51
G1 X 0185.37 Y 0163.70 E 0008.74
 G1 X 0186.81 Y 0163.80 E 0009.80
G1 X 0185.37 Y 0163.70 E 0012.07
 G1 X 0172.21 Y 0153.51 E 0013.13
G1 X 0170.50 Y 0175.14 E 0014.96
 G1 X 0183.30 Y 0181.91 E 0016.02
G1 X 0170.50 Y 0175.14 E 0018.72
 G1 X 0185.37 Y 0163.70 E 0019.78
G1 X 0169.85 Y 0175.16 E 0018.85
 G1 X 0170.50 Y 0175.14 E 0019.91
G1 X 0133.76 Y 0153.22 E 0023.12
 G1 X 0152.30 Y 0142.63 E 0024.17
G1 X 0133.70 Y 0153.33 E 0023.22
 G1 X 0133.73 Y 0153.82 E 0024.27
G1 X 0133.70 Y 0153.33 E 0023.24
 G1 X 0133.76 Y 0153.22 E 0024.30
G1 X 0080.55 Y 0057.82 E 0026.20
 G1 X 0092.94 Y 0049.68 E 0027.26
G1 X 0078.92 Y 0057.87 E 0026.53
 G1 X 0080.55 Y 0057.82 E 0027.59
G1 X 0042.13 Y 0057.96 E 0026.54
 G1 X 0042.16 Y 0057.92 E 0027.60
G1 X 0042.13 Y 0057.96 E 0029.75
 G1 X 0027.53 Y 0051.32 E 0030.80
G1 X 0042.14 Y 0058.23 E 0030.07
 G1 X 0042.93 Y 0059.66 E 0031.13
G1 X 0042.14 Y 0058.23 E 0030.13
 G1 X 0042.13 Y 0057.96 E 0031.19
G1 X 0029.80 Y 0066.78 E 0033.13
 G1 X 0042.14 Y 0058.23 E 0034.19
G1 X 0041.75 Y 0078.44 E 0036.89
 G1 X 0042.93 Y 0059.66 E 0037.95
G1 X 0041.75 Y 0078.44 E 0039.22
 G1 X 0031.30 Y 0073.37 E 0040.27
G1 X 0041.70 Y 0081.80 E 0042.47
 G1 X 0042.58 Y 0098.05 E 0043.53
G1 X 0041.70 Y 0081.80 E 0043.78
 G1 X 0035.70 Y 0084.49 E 0044.84
G1 X 0041.44 Y 0034.81 E 0045.48
 G1 X 0042.12 Y 0026.33 E 0046.54
G1 X 0041.44 Y 0034.81 E 0047.30
 G1 X 0033.04 Y 0031.35 E 0048.36
G1 X 0042.49 Y 0036.55 E 0051.41
 G1 X 0060.50 Y 0026.61 E 0052.47
G1 X 0042.49 Y 0036.55 E 0051.82
 G1 X 0041.44 Y 0034.81 E 0052.88
G1 X 0042.53 Y 0037.85 E 0052.08
 G1 X 0042.49 Y 0036.55 E 0053.14
G1 X 0042.16 Y 0038.49 E 0055.97
 G1 X 0042.16 Y 0057.92 E 0057.03
G1 X 0042.16 Y 0038.49 E 0059.08
 G1 X 0028.07 Y 0045.06 E 0060.13
G1 X 0042.16 Y 0038.49 E 0059.22
 G1 X 0042.53 Y 0037.85 E 0060.28
G1 X 0061.29 Y 0068.49 E 0063.00
 G1 X 0059.77 Y 0049.67 E 0064.06
G1 X 0077.95 Y 0059.65 E 0063.41
 G1 X 0078.92 Y 0057.87 E 0064.46
G1 X 0077.95 Y 0059.65 E 0067.18
 G1 X 0061.29 Y 0068.49 E 0068.24
G1 X 0060.00 Y 0069.67 E 0071.14
 G1 X 0042.93 Y 0059.66 E 0072.19
G1 X 0060.66 Y 0069.67 E 0071.40
 G1 X 0061.29 Y 0068.49 E 0072.46
G1 X 0060.66 Y 0069.67 E 0071.54
 G1 X 0060.00 Y 0069.67 E 0072.59
G1 X 0060.78 Y 0069.90 E 0075.59
 G1 X 0078.57 Y 0079.65 E 0076.65
G1 X 0060.78 Y 0069.90 E 0075.64
 G1 X 0060.66 Y 0069.67 E 0076.70
G1 X 0060.24 Y 0089.80 E 0079.63
 G1 X 0060.78 Y 0069.90 E 0080.68
G1 X 0042.51 Y 0080.30 E 0079.97
 G1 X 0041.70 Y 0081.80 E 0081.03
G1 X 0042.51 Y 0080.30 E 0083.99
 G1 X 0060.24 Y 0089.80 E 0085.05
G1 X 0042.50 Y 0079.59 E 0084.27
 G1 X 0041.75 Y 0078.44 E 0085.32
G1 X 0042.50 Y 0079.59 E 0088.29
 G1 X 0060.00 Y 0069.67 E 0089.35
G1 X 0042.50 Y 0079.59 E 0088.43
 G1 X 0042.51 Y 0080.30 E 0089.49
G1 X 0115.90 Y 0143.31 E 0092.52
 G1 X 0133.70 Y 0153.33 E 0093.57
G1 X 0115.90 Y 0143.31 E 0092.52
 G1 X 0115.90 Y 0143.31 E 0093.58
G1 X 0130.49 Y 0175.47 E 0093.27
 G1 X 0127.36 Y 0177.56 E 0094.33
G1 X 0130.49 Y 0175.47 E 0093.90
 G1 X 0133.61 Y 0175.59 E 0094.95
G1 X 0115.74 Y 0165.26 E 0094.07
 G1 X 0115.27 Y 0166.01 E 0095.13
G1 X 0115.74 Y 0165.26 E 0097.66
 G1 X 0130.49 Y 0175.47 E 0098.72
G1 X 0115.81 Y 0164.20 E 0097.87
 G1 X 0115.74 Y 0165.26 E 0098.93
G1 X 0131.71 Y 0156.69 E 0098.57
 G1 X 0133.73 Y 0153.82 E 0099.63
G1 X 0131.71 Y 0156.69 E 0102.37
 G1 X 0133.61 Y 0175.59 E 0103.43
G1 X 0131.71 Y 0156.69 E 0105.89
 G1 X 0115.81 Y 0164.20 E 0106.95
G1 X 0150.06 Y 0164.25 E 0109.77
 G1 X 0133.73 Y 0153.82 E 0110.83
G1 X 0133.92 Y 0175.78 E 0109.84
 G1 X 0133.61 Y 0175.59 E 0110.90
G1 X 0133.92 Y 0175.78 E 0113.81
 G1 X 0150.06 Y 0164.25 E 0114.87
G1 X 0152.57 Y 0189.01 E 0114.89
 G1 X 0151.97 Y 0194.37 E 0115.94
G1 X 0166.27 Y 0195.37 E 0117.91
 G1 X 0152.57 Y 0189.01 E 0118.97
G1 X 0152.32 Y 0142.65 E 0117.91
 G1 X 0152.30 Y 0142.63 E 0118.97
G1 X 0165.57 Y 0136.80 E 0120.81
 G1 X 0152.32 Y 0142.65 E 0121.87
G1 X 0171.45 Y 0153.44 E 0120.96
 G1 X 0172.21 Y 0153.51 E 0122.02
G1 X 0171.45 Y 0153.44 E 0123.56
 G1 X 0170.01 Y 0140.54 E 0124.62
G1 X 0096.44 Y 0130.79 E 0127.33
 G1 X 0096.93 Y 0111.97 E 0128.38
G1 X 0078.09 Y 0123.45 E 0129.04
 G1 X 0073.79 Y 0130.84 E 0130.09
G1 X 0078.09 Y 0123.45 E 0132.99
 G1 X 0096.44 Y 0130.79 E 0134.05
G1 X 0078.14 Y 0121.69 E 0137.22
 G1 X 0096.93 Y 0111.97 E 0138.28
G1 X 0078.14 Y 0121.69 E 0137.57
 G1 X 0078.09 Y 0123.45 E 0138.63
G1 X 0115.71 Y 0122.07 E 0137.60
 G1 X 0115.71 Y 0122.20 E 0138.65
G1 X 0116.12 Y 0121.33 E 0137.77
 G1 X 0115.71 Y 0122.07 E 0138.82
G1 X 0133.75 Y 0111.09 E 0137.91
 G1 X 0134.11 Y 0110.46 E 0138.97
G1 X 0133.75 Y 0111.09 E 0141.99
 G1 X 0116.12 Y 0121.33 E 0143.05
G1 X 0134.30 Y 0134.03 E 0145.83
 G1 X 0133.76 Y 0153.22 E 0146.89
G1 X 0133.35 Y 0132.32 E 0149.95
 G1 X 0115.90 Y 0143.31 E 0151.01
G1 X 0133.35 Y 0132.32 E 0150.34
 G1 X 0134.30 Y 0134.03 E 0151.40
G1 X 0133.35 Y 0132.12 E 0154.39
 G1 X 0115.71 Y 0122.20 E 0155.45
G1 X 0133.35 Y 0132.12 E 0154.43
 G1 X 0133.35 Y 0132.32 E 0155.49
G1 X 0134.32 Y 0130.65 E 0158.34
 G1 X 0133.75 Y 0111.09 E 0159.40
G1 X 0134.32 Y 0130.65 E 0158.70
 G1 X 0133.35 Y 0132.12 E 0159.75
G1 X 0150.72 Y 0123.70 E 0162.26
 G1 X 0134.32 Y 0130.65 E 0163.32
G1 X 0152.11 Y 0142.31 E 0162.33
 G1 X 0152.30 Y 0142.63 E 0163.39
G1 X 0152.11 Y 0142.31 E 0166.26
 G1 X 0134.30 Y 0134.03 E 0167.32
G1 X 0152.11 Y 0142.31 E 0169.78
 G1 X 0151.66 Y 0124.72 E 0170.84
G1 X 0078.49 Y 0037.71 E 0170.07
 G1 X 0079.28 Y 0036.48 E 0171.13
G1 X 0078.49 Y 0057.20 E 0170.23
 G1 X 0078.92 Y 0057.87 E 0171.29
G1 X 0078.49 Y 0057.20 E 0174.13
 G1 X 0078.49 Y 0037.71 E 0175.19
G1 X 0060.69 Y 0048.01 E 0174.51
 G1 X 0059.77 Y 0049.67 E 0175.57
G1 X 0060.69 Y 0048.01 E 0178.52
 G1 X 0078.49 Y 0057.20 E 0179.57
G1 X 0060.66 Y 0046.91 E 0182.57
 G1 X 0042.53 Y 0037.85 E 0183.63
G1 X 0060.66 Y 0046.91 E 0182.79
 G1 X 0060.69 Y 0048.01 E 0183.85
G1 X 0061.11 Y 0046.12 E 0186.66
 G1 X 0060.59 Y 0026.77 E 0187.72
G1 X 0061.11 Y 0046.12 E 0190.52
 G1 X 0078.49 Y 0037.71 E 0191.58
G1 X 0061.11 Y 0046.12 E 0190.71
 G1 X 0060.66 Y 0046.91 E 0191.76
G1 X 0097.37 Y 0133.97 E 0193.36
 G1 X 0085.26 Y 0139.44 E 0194.42
G1 X 0115.24 Y 0123.01 E 0193.55
 G1 X 0115.71 Y 0122.20 E 0194.61
G1 X 0115.82 Y 0143.17 E 0193.58
 G1 X 0115.90 Y 0143.31 E 0194.64
G1 X 0115.82 Y 0143.17 E 0197.62
 G1 X 0115.24 Y 0123.01 E 0198.67
G1 X 0097.52 Y 0133.71 E 0197.68
 G1 X 0097.37 Y 0133.97 E 0198.73
G1 X 0097.52 Y 0133.71 E 0201.80
 G1 X 0115.82 Y 0143.17 E 0202.85
G1 X 0097.55 Y 0132.71 E 0202.24
 G1 X 0096.44 Y 0130.79 E 0203.30
G1 X 0097.55 Y 0132.71 E 0206.28
 G1 X 0115.24 Y 0123.01 E 0207.34
G1 X 0097.55 Y 0132.71 E 0206.48
 G1 X 0097.52 Y 0133.71 E 0207.53
G1 X 0097.37 Y 0149.22 E 0209.53
 G1 X 0097.37 Y 0133.97 E 0210.59
G1 X 0114.65 Y 0145.42 E 0210.02
 G1 X 0115.90 Y 0143.31 E 0211.07
G1 X 0114.65 Y 0145.42 E 0213.23
 G1 X 0099.64 Y 0151.11 E 0214.29
G1 X 0114.65 Y 0162.43 E 0213.65
 G1 X 0115.81 Y 0164.20 E 0214.71
G1 X 0114.65 Y 0162.43 E 0214.53
 G1 X 0110.48 Y 0160.99 E 0215.59
G1 X 0114.65 Y 0162.43 E 0217.93
 G1 X 0114.65 Y 0145.42 E 0218.99
G1 X 0059.32 Y 0111.40 E 0221.09
 G1 X 0045.97 Y 0102.99 E 0222.15
G1 X 0056.19 Y 0113.19 E 0221.81
 G1 X 0059.32 Y 0111.40 E 0222.87
G1 X 0059.95 Y 0091.68 E 0225.48
 G1 X 0043.45 Y 0099.69 E 0226.54
G1 X 0060.64 Y 0090.56 E 0225.65
 G1 X 0060.24 Y 0089.80 E 0226.71
G1 X 0060.64 Y 0090.56 E 0225.92
 G1 X 0059.95 Y 0091.68 E 0226.97
G1 X 0135.12 Y 0178.28 E 0226.47
 G1 X 0133.92 Y 0175.78 E 0227.53
G1 X 0135.12 Y 0178.28 E 0227.53
 G1 X 0133.89 Y 0183.46 E 0228.59
G1 X 0151.38 Y 0184.98 E 0231.05
 G1 X 0135.12 Y 0178.28 E 0232.11
G1 X 0151.36 Y 0186.54 E 0231.60
 G1 X 0152.57 Y 0189.01 E 0232.66
G1 X 0151.36 Y 0186.54 E 0233.40
 G1 X 0143.67 Y 0191.15 E 0234.45
G1 X 0151.36 Y 0186.54 E 0233.71
 G1 X 0151.38 Y 0184.98 E 0234.77
G1 X 0169.62 Y 0175.29 E 0233.76
 G1 X 0169.85 Y 0175.16 E 0234.82
G1 X 0167.82 Y 0178.35 E 0236.74
 G1 X 0170.20 Y 0193.06 E 0237.80
G1 X 0167.82 Y 0178.35 E 0237.45
 G1 X 0169.62 Y 0175.29 E 0238.51
G1 X 0151.61 Y 0184.65 E 0237.53
 G1 X 0151.38 Y 0184.98 E 0238.59
G1 X 0151.61 Y 0184.65 E 0241.01
 G1 X 0167.82 Y 0178.35 E 0242.07
G1 X 0151.04 Y 0164.30 E 0241.21
 G1 X 0150.06 Y 0164.25 E 0242.27
G1 X 0151.04 Y 0164.30 E 0245.28
 G1 X 0151.61 Y 0184.65 E 0246.34
G1 X 0151.90 Y 0164.29 E 0249.45
 G1 X 0169.62 Y 0175.29 E 0250.51
G1 X 0151.08 Y 0164.28 E 0249.46
 G1 X 0151.04 Y 0164.30 E 0250.52
G1 X 0151.08 Y 0164.28 E 0249.62
 G1 X 0151.90 Y 0164.29 E 0250.68
G1 X 0152.88 Y 0143.89 E 0249.89
 G1 X 0152.32 Y 0142.65 E 0250.95
G1 X 0152.88 Y 0143.89 E 0253.99
 G1 X 0151.08 Y 0164.28 E 0255.05
G1 X 0169.31 Y 0154.63 E 0254.48
 G1 X 0171.45 Y 0153.44 E 0255.54
G1 X 0169.31 Y 0154.63 E 0258.40
 G1 X 0152.88 Y 0143.89 E 0259.46
G1 X 0169.19 Y 0154.81 E 0262.48
 G1 X 0169.85 Y 0175.16 E 0263.54
G1 X 0169.19 Y 0154.81 E 0266.42
 G1 X 0151.90 Y 0164.29 E 0267.48
G1 X 0169.19 Y 0154.81 E 0266.47
 G1 X 0169.31 Y 0154.63 E 0267.52
G1 X 0134.68 Y 0110.13 E 0266.60
 G1 X 0134.11 Y 0110.46 E 0267.66
G1 X 0134.68 Y 0110.13 E 0267.27
 G1 X 0137.50 Y 0112.01 E 0268.33
G1 X 0135.14 Y 0109.33 E 0267.46
 G1 X 0134.68 Y 0110.13 E 0268.52
G1 X 0114.97 Y 0101.31 E 0271.47
 G1 X 0116.12 Y 0121.33 E 0272.53
G1 X 0097.03 Y 0111.83 E 0275.73
 G1 X 0115.71 Y 0122.07 E 0276.79
G1 X 0097.03 Y 0111.83 E 0279.89
 G1 X 0114.97 Y 0101.31 E 0280.95
G1 X 0097.01 Y 0111.83 E 0279.92
 G1 X 0096.93 Y 0111.97 E 0280.98
G1 X 0097.01 Y 0111.83 E 0279.92
 G1 X 0097.03 Y 0111.83 E 0280.98
G1 X 0096.73 Y 0111.33 E 0284.04
 G1 X 0078.67 Y 0101.43 E 0285.10
G1 X 0096.73 Y 0111.33 E 0284.16
 G1 X 0097.01 Y 0111.83 E 0285.22
G1 X 0097.30 Y 0090.95 E 0284.24
 G1 X 0097.06 Y 0090.60 E 0285.30
G1 X 0097.30 Y 0090.95 E 0288.32
 G1 X 0096.73 Y 0111.33 E 0289.38
G1 X 0097.02 Y 0089.20 E 0288.60
 G1 X 0097.06 Y 0090.60 E 0289.66
G1 X 0079.11 Y 0079.32 E 0288.73
 G1 X 0078.57 Y 0079.65 E 0289.78
G1 X 0079.11 Y 0079.32 E 0292.82
 G1 X 0097.02 Y 0089.20 E 0293.88
G1 X 0080.06 Y 0077.57 E 0296.43
 G1 X 0077.95 Y 0059.65 E 0297.49
G1 X 0080.06 Y 0077.57 E 0296.83
 G1 X 0079.11 Y 0079.32 E 0297.88
G1 X 0116.99 Y 0101.07 E 0300.73
 G1 X 0134.11 Y 0110.46 E 0301.79
G1 X 0115.10 Y 0101.07 E 0300.79
 G1 X 0114.97 Y 0101.31 E 0301.84
G1 X 0115.10 Y 0101.07 E 0301.16
 G1 X 0116.99 Y 0101.07 E 0302.22
G1 X 0113.53 Y 0098.16 E 0304.72
 G1 X 0097.30 Y 0090.95 E 0305.78
G1 X 0113.53 Y 0098.16 E 0305.38
 G1 X 0115.10 Y 0101.07 E 0306.44
G1 X 0117.04 Y 0082.41 E 0308.61
 G1 X 0113.53 Y 0098.16 E 0309.67
G1 X 0124.97 Y 0095.42 E 0310.56
 G1 X 0116.99 Y 0101.07 E 0311.62
G1 X 0079.39 Y 0099.17 E 0314.49
 G1 X 0097.06 Y 0090.60 E 0315.55
G1 X 0078.67 Y 0100.36 E 0314.70
 G1 X 0078.67 Y 0101.43 E 0315.76
G1 X 0078.67 Y 0100.36 E 0314.98
 G1 X 0079.39 Y 0099.17 E 0316.04
G1 X 0060.80 Y 0090.56 E 0315.01
 G1 X 0060.64 Y 0090.56 E 0316.07
G1 X 0060.80 Y 0090.56 E 0319.09
 G1 X 0078.67 Y 0100.36 E 0320.15
G1 X 0078.31 Y 0080.18 E 0319.21
 G1 X 0078.57 Y 0079.65 E 0320.27
G1 X 0078.31 Y 0080.18 E 0323.01
 G1 X 0079.39 Y 0099.17 E 0324.07
G1 X 0078.31 Y 0080.18 E 0327.08
 G1 X 0060.80 Y 0090.56 E 0328.14
G1 X 0060.43 Y 0111.44 E 0328.18
 G1 X 0060.27 Y 0116.92 E 0329.24
G1 X 0060.42 Y 0111.42 E 0328.40
 G1 X 0059.32 Y 0111.40 E 0329.46
G1 X 0060.42 Y 0111.42 E 0328.41
 G1 X 0060.43 Y 0111.44 E 0329.46
G1 X 0061.02 Y 0110.34 E 0332.14
 G1 X 0059.95 Y 0091.68 E 0333.20
G1 X 0061.02 Y 0110.34 E 0332.39
 G1 X 0060.42 Y 0111.42 E 0333.45
G1 X 0078.60 Y 0101.55 E 0332.42
 G1 X 0078.67 Y 0101.43 E 0333.48
G1 X 0078.60 Y 0101.55 E 0336.35
 G1 X 0061.02 Y 0110.34 E 0337.41
G1 X 0078.04 Y 0121.50 E 0336.39
 G1 X 0078.14 Y 0121.69 E 0337.45
G1 X 0078.04 Y 0121.50 E 0340.45
 G1 X 0060.43 Y 0111.44 E 0341.51
G1 X 0078.04 Y 0121.50 E 0344.44
 G1 X 0078.60 Y 0101.55 E 0345.50
G1 X 0098.03 Y 0066.99 E 0346.63
 G1 X 0098.32 Y 0056.05 E 0347.69
G1 X 0101.52 Y 0067.21 E 0347.53
 G1 X 0105.30 Y 0064.79 E 0348.58
G1 X 0101.52 Y 0067.21 E 0348.23
 G1 X 0098.03 Y 0066.99 E 0349.28
G1 X 0113.69 Y 0077.26 E 0351.38
 G1 X 0101.52 Y 0067.21 E 0352.44
G1 X 0099.09 Y 0085.23 E 0352.28
 G1 X 0097.02 Y 0089.20 E 0353.34
G1 X 0099.09 Y 0085.23 E 0355.66
 G1 X 0114.68 Y 0078.73 E 0356.72
G1 X 0095.31 Y 0069.70 E 0359.09
 G1 X 0080.06 Y 0077.57 E 0360.15
G1 X 0095.31 Y 0069.70 E 0362.29
 G1 X 0099.09 Y 0085.23 E 0363.35
G1 X 0095.79 Y 0068.54 E 0366.01
 G1 X 0080.55 Y 0057.82 E 0367.07
G1 X 0095.79 Y 0068.54 E 0366.56
 G1 X 0098.03 Y 0066.99 E 0367.62
G1 X 0095.79 Y 0068.54 E 0366.81
 G1 X 0095.31 Y 0069.70 E 0367.87
;CONTOUR EDGES
G1 X 0034.57 Y 0029.99 E 0368.17
 G1 X 0040.57 Y 0026.81 E 0369.22
G1 X 0040.57 Y 0026.81 E 0370.09
 G1 X 0049.74 Y 0023.99 E 0371.14
G1 X 0049.74 Y 0023.99 E 0372.02
 G1 X 0059.27 Y 0025.75 E 0373.08
G1 X 0059.27 Y 0025.75 E 0374.04
 G1 X 0068.44 Y 0029.99 E 0375.10
G1 X 0068.44 Y 0029.99 E 0376.22
 G1 X 0077.96 Y 0035.28 E 0377.28
G1 X 0077.96 Y 0035.28 E 0379.57
 G1 X 0090.31 Y 0046.57 E 0380.63
G1 X 0090.31 Y 0046.57 E 0383.72
 G1 X 0103.72 Y 0062.44 E 0384.78
G1 X 0103.72 Y 0062.44 E 0388.15
 G1 X 0116.06 Y 0080.79 E 0389.20
G1 X 0116.06 Y 0080.79 E 0391.03
 G1 X 0123.47 Y 0093.13 E 0392.08
G1 X 0123.47 Y 0093.13 E 0393.22
 G1 X 0129.47 Y 0102.31 E 0394.28
G1 X 0129.47 Y 0102.31 E 0395.58
 G1 X 0136.88 Y 0111.48 E 0396.63
G1 X 0136.88 Y 0111.48 E 0398.83
 G1 X 0149.22 Y 0122.06 E 0399.89
G1 X 0149.22 Y 0122.06 E 0401.13
 G1 X 0156.99 Y 0130.53 E 0402.18
G1 X 0156.99 Y 0130.53 E 0403.40
 G1 X 0166.16 Y 0137.23 E 0404.46
G1 X 0166.16 Y 0137.23 E 0406.00
 G1 X 0176.04 Y 0145.70 E 0407.06
G1 X 0176.04 Y 0145.70 E 0408.37
 G1 X 0183.09 Y 0155.22 E 0409.43
G1 X 0183.09 Y 0155.22 E 0410.68
 G1 X 0187.68 Y 0165.81 E 0411.74
G1 X 0187.68 Y 0165.81 E 0412.38
 G1 X 0186.62 Y 0174.27 E 0413.44
G1 X 0186.62 Y 0174.27 E 0414.15
 G1 X 0183.09 Y 0182.39 E 0415.21
G1 X 0183.09 Y 0182.39 E 0415.71
 G1 X 0178.15 Y 0188.38 E 0416.77
G1 X 0178.15 Y 0188.38 E 0418.49
 G1 X 0166.16 Y 0195.44 E 0419.55
G1 X 0166.16 Y 0195.44 E 0422.24
 G1 X 0147.46 Y 0194.03 E 0423.30
G1 X 0147.46 Y 0194.03 E 0425.16
 G1 X 0135.82 Y 0185.21 E 0426.22
G1 X 0135.82 Y 0185.21 E 0428.11
 G1 X 0124.88 Y 0175.33 E 0429.17
G1 X 0124.88 Y 0175.33 E 0431.35
 G1 X 0113.24 Y 0164.04 E 0432.41
G1 X 0113.24 Y 0164.04 E 0433.35
 G1 X 0106.54 Y 0156.63 E 0434.41
G1 X 0106.54 Y 0156.63 E 0435.16
 G1 X 0099.48 Y 0150.99 E 0436.22
G1 X 0099.48 Y 0150.99 E 0437.91
 G1 X 0088.90 Y 0142.17 E 0438.97
G1 X 0088.90 Y 0142.17 E 0441.79
 G1 X 0073.38 Y 0130.53 E 0442.85
G1 X 0073.38 Y 0130.53 E 0444.89
 G1 X 0062.79 Y 0119.24 E 0445.95
G1 X 0062.79 Y 0119.24 E 0448.33
 G1 X 0050.09 Y 0107.60 E 0449.39
G1 X 0050.09 Y 0107.60 E 0450.13
 G1 X 0044.10 Y 0100.89 E 0451.19
G1 X 0044.10 Y 0100.89 E 0452.37
 G1 X 0038.81 Y 0091.02 E 0453.43
G1 X 0038.81 Y 0091.02 E 0455.50
 G1 X 0032.10 Y 0076.91 E 0456.56
G1 X 0032.10 Y 0076.91 E 0458.68
 G1 X 0028.57 Y 0061.38 E 0459.74
G1 X 0028.57 Y 0061.38 E 0460.74
 G1 X 0027.52 Y 0051.15 E 0461.80
G1 X 0027.52 Y 0051.15 E 0462.30
 G1 X 0028.22 Y 0043.39 E 0463.36
G1 X 0028.22 Y 0043.39 E 0463.35
 G1 X 0029.99 Y 0038.45 E 0464.40
G1 X 0029.99 Y 0038.45 E 0464.46
 G1 X 0031.75 Y 0033.16 E 0465.52
G1 X 0031.75 Y 0033.16 E 0465.07
 G1 X 0033.51 Y 0030.69 E 0466.13
G1 X 0033.51 Y 0030.69 E 0465.07
 G1 X 0033.51 Y 0030.69 E 0466.13
G1 X 0033.51 Y 0030.69 E 0465.32
 G1 X 0034.57 Y 0029.99 E 0466.38
G0  F600 Z0.6
;INSOLE EDGES
G1 X 0060.59 Y 0026.77 E 0469.30
 G1 X 0078.39 Y 0035.67 E 0470.36
G1 X 0059.77 Y 0049.67 E 0473.19
 G1 X 0042.16 Y 0057.92 E 0474.25
G1 X 0060.50 Y 0026.61 E 0473.23
