;FLAVOR:UltiGCode
; TIME:400
;MATERIAL:160
; MATERIAL2: 0
;NOZZLE_DIAMETER:0.400000
;NOZZLE_DIAMETER2:  0.400000
;Layer count: 98
;LAYER: 0
M107
G0  F600 Z0.3
;INSOLE EDGES
G1 X 0168.07 Y 0187.79 E 0000.27
 G1 X 0171.16 Y 0193.64 E 0001.32
G1 X 0171.84 Y 0180.87 E 0001.84
 G1 X 0168.07 Y 0187.79 E 0002.90
G1 X 0168.40 Y 0175.02 E 0003.20
 G1 X 0171.84 Y 0180.87 E 0004.26
G1 X 0183.35 Y 0181.17 E 0005.50
 G1 X 0171.84 Y 0180.87 E 0006.56
G1 X 0178.89 Y 0167.04 E 0007.94
 G1 X 0185.18 Y 0177.51 E 0009.00
G1 X 0172.64 Y 0167.04 E 0009.75
 G1 X 0168.40 Y 0175.02 E 0010.81
G1 X 0172.64 Y 0167.04 E 0011.00
 G1 X 0178.89 Y 0167.04 E 0012.06
G1 X 0081.57 Y 0038.39 E 0013.57
 G1 X 0075.23 Y 0049.57 E 0014.63
G1 X 0050.61 Y 0035.72 E 0016.00
 G1 X 0056.86 Y 0025.30 E 0017.06
G1 X 0054.58 Y 0041.94 E 0017.48
 G1 X 0050.61 Y 0035.72 E 0018.54
G1 X 0062.72 Y 0042.75 E 0020.27
 G1 X 0069.69 Y 0030.63 E 0021.33
G1 X 0062.72 Y 0042.75 E 0021.91
 G1 X 0054.58 Y 0041.94 E 0022.97
G1 X 0066.21 Y 0048.91 E 0023.72
 G1 X 0075.23 Y 0049.57 E 0024.78
G1 X 0066.21 Y 0048.91 E 0025.26
 G1 X 0062.30 Y 0055.56 E 0026.32
G1 X 0066.21 Y 0048.91 E 0026.68
 G1 X 0062.72 Y 0042.75 E 0027.73
G1 X 0030.28 Y 0069.50 E 0028.41
 G1 X 0038.93 Y 0069.50 E 0029.47
G1 X 0160.10 Y 0187.57 E 0030.00
 G1 X 0168.07 Y 0187.79 E 0031.06
G1 X 0155.76 Y 0195.97 E 0031.89
 G1 X 0160.10 Y 0187.57 E 0032.95
G1 X 0185.87 Y 0157.94 E 0034.18
 G1 X 0178.89 Y 0167.04 E 0035.24
G1 X 0078.35 Y 0055.82 E 0035.58
 G1 X 0075.23 Y 0049.57 E 0036.64
G1 X 0086.78 Y 0056.26 E 0037.59
 G1 X 0092.09 Y 0047.71 E 0038.65
G1 X 0086.78 Y 0056.26 E 0039.28
 G1 X 0078.35 Y 0055.82 E 0040.34
G1 X 0091.33 Y 0063.30 E 0040.96
 G1 X 0086.78 Y 0056.26 E 0042.02
G1 X 0044.16 Y 0035.57 E 0042.25
 G1 X 0050.61 Y 0035.72 E 0043.31
G1 X 0038.39 Y 0027.80 E 0044.18
 G1 X 0044.16 Y 0035.57 E 0045.24
G1 X 0043.32 Y 0063.23 E 0045.71
 G1 X 0038.93 Y 0069.50 E 0046.77
G1 X 0050.29 Y 0050.00 E 0047.54
 G1 X 0054.58 Y 0041.94 E 0048.60
G1 X 0054.85 Y 0056.73 E 0049.05
 G1 X 0062.30 Y 0055.56 E 0050.11
G1 X 0054.85 Y 0056.73 E 0050.67
 G1 X 0050.29 Y 0050.00 E 0051.73
G1 X 0051.76 Y 0063.46 E 0052.36
 G1 X 0043.32 Y 0063.23 E 0053.42
G1 X 0051.76 Y 0063.46 E 0053.84
 G1 X 0054.85 Y 0056.73 E 0054.90
G1 X 0039.90 Y 0083.26 E 0054.84
 G1 X 0034.92 Y 0083.26 E 0055.90
G1 X 0043.37 Y 0076.51 E 0056.50
 G1 X 0038.93 Y 0069.50 E 0057.56
G1 X 0043.37 Y 0076.51 E 0058.02
 G1 X 0039.90 Y 0083.26 E 0059.08
G1 X 0133.13 Y 0126.20 E 0060.82
 G1 X 0140.59 Y 0114.34 E 0061.88
G1 X 0101.76 Y 0139.46 E 0062.91
 G1 X 0096.58 Y 0148.53 E 0063.97
G1 X 0167.91 Y 0146.84 E 0064.33
 G1 X 0171.51 Y 0140.73 E 0065.38
G1 X 0172.01 Y 0153.28 E 0066.49
 G1 X 0182.85 Y 0153.28 E 0067.55
G1 X 0172.01 Y 0153.28 E 0068.02
 G1 X 0167.91 Y 0146.84 E 0069.08
G1 X 0168.21 Y 0161.13 E 0069.50
 G1 X 0172.64 Y 0167.04 E 0070.56
G1 X 0168.21 Y 0161.13 E 0071.24
 G1 X 0172.01 Y 0153.28 E 0072.30
G1 X 0145.36 Y 0133.35 E 0073.54
 G1 X 0150.87 Y 0123.25 E 0074.60
G1 X 0137.33 Y 0133.35 E 0075.20
 G1 X 0133.13 Y 0126.20 E 0076.26
G1 X 0137.33 Y 0133.35 E 0076.81
 G1 X 0145.36 Y 0133.35 E 0077.87
G1 X 0160.64 Y 0174.60 E 0078.36
 G1 X 0168.40 Y 0175.02 E 0079.42
G1 X 0156.36 Y 0181.59 E 0079.77
 G1 X 0160.10 Y 0187.57 E 0080.83
G1 X 0156.36 Y 0181.59 E 0081.41
 G1 X 0160.64 Y 0174.60 E 0082.47
G1 X 0148.56 Y 0181.39 E 0083.44
 G1 X 0143.53 Y 0190.18 E 0084.50
G1 X 0148.56 Y 0181.39 E 0085.00
 G1 X 0156.36 Y 0181.59 E 0086.06
G1 X 0121.27 Y 0159.37 E 0087.34
 G1 X 0109.57 Y 0159.66 E 0088.40
G1 X 0086.72 Y 0070.20 E 0089.00
 G1 X 0091.33 Y 0063.30 E 0090.06
G1 X 0091.16 Y 0077.52 E 0090.71
 G1 X 0086.72 Y 0070.20 E 0091.77
G1 X 0126.07 Y 0111.23 E 0092.96
 G1 X 0137.30 Y 0111.49 E 0094.01
G1 X 0121.53 Y 0104.42 E 0094.59
 G1 X 0126.07 Y 0111.23 E 0095.65
G1 X 0121.53 Y 0104.42 E 0096.33
 G1 X 0125.69 Y 0096.80 E 0097.39
G1 X 0113.66 Y 0104.42 E 0097.93
 G1 X 0109.54 Y 0111.30 E 0098.99
G1 X 0113.66 Y 0104.42 E 0099.51
 G1 X 0121.53 Y 0104.42 E 0100.56
G1 X 0039.36 Y 0042.42 E 0101.18
 G1 X 0044.16 Y 0035.57 E 0102.24
G1 X 0039.36 Y 0042.42 E 0103.43
 G1 X 0028.11 Y 0042.73 E 0104.49
G1 X 0043.64 Y 0050.18 E 0104.76
 G1 X 0050.29 Y 0050.00 E 0105.82
G1 X 0043.64 Y 0050.18 E 0106.53
 G1 X 0039.36 Y 0042.42 E 0107.59
G1 X 0039.49 Y 0055.83 E 0108.20
 G1 X 0043.32 Y 0063.23 E 0109.26
G1 X 0039.49 Y 0055.83 E 0110.52
 G1 X 0027.89 Y 0055.52 E 0111.58
G1 X 0039.49 Y 0055.83 E 0111.92
 G1 X 0043.64 Y 0050.18 E 0112.98
G1 X 0051.75 Y 0075.81 E 0113.60
 G1 X 0043.37 Y 0076.51 E 0114.66
G1 X 0054.97 Y 0069.55 E 0114.98
 G1 X 0051.76 Y 0063.46 E 0116.04
G1 X 0054.97 Y 0069.55 E 0116.39
 G1 X 0051.75 Y 0075.81 E 0117.45
G1 X 0097.85 Y 0077.69 E 0117.72
 G1 X 0091.16 Y 0077.52 E 0118.78
G1 X 0103.72 Y 0062.71 E 0120.21
 G1 X 0091.33 Y 0063.30 E 0121.26
G1 X 0105.18 Y 0064.75 E 0123.18
 G1 X 0097.85 Y 0077.69 E 0124.24
G1 X 0086.64 Y 0084.76 E 0124.89
 G1 X 0091.16 Y 0077.52 E 0125.95
G1 X 0086.64 Y 0084.76 E 0126.36
 G1 X 0079.28 Y 0084.57 E 0127.42
G1 X 0090.37 Y 0090.91 E 0128.06
 G1 X 0086.56 Y 0098.51 E 0129.12
G1 X 0090.37 Y 0090.91 E 0129.50
 G1 X 0086.64 Y 0084.76 E 0130.56
G1 X 0102.36 Y 0111.64 E 0130.94
 G1 X 0109.54 Y 0111.30 E 0131.99
G1 X 0090.82 Y 0104.25 E 0132.36
 G1 X 0086.56 Y 0098.51 E 0133.42
G1 X 0097.74 Y 0104.25 E 0134.11
 G1 X 0102.36 Y 0111.64 E 0135.17
G1 X 0097.74 Y 0104.25 E 0135.49
 G1 X 0090.82 Y 0104.25 E 0136.55
G1 X 0113.52 Y 0146.23 E 0138.07
 G1 X 0107.20 Y 0157.45 E 0139.13
G1 X 0109.81 Y 0139.25 E 0139.68
 G1 X 0101.76 Y 0139.46 E 0140.74
G1 X 0109.81 Y 0139.25 E 0141.26
 G1 X 0113.52 Y 0146.23 E 0142.32
G1 X 0125.95 Y 0126.37 E 0142.70
 G1 X 0133.13 Y 0126.20 E 0143.75
G1 X 0121.47 Y 0133.09 E 0144.31
 G1 X 0125.95 Y 0126.37 E 0145.37
G1 X 0113.85 Y 0132.90 E 0145.81
 G1 X 0109.81 Y 0139.25 E 0146.87
G1 X 0113.85 Y 0132.90 E 0147.34
 G1 X 0121.47 Y 0133.09 E 0148.40
G1 X 0109.92 Y 0125.87 E 0148.95
 G1 X 0113.85 Y 0132.90 E 0150.01
G1 X 0114.25 Y 0118.71 E 0150.71
 G1 X 0109.54 Y 0111.30 E 0151.77
G1 X 0114.25 Y 0118.71 E 0152.38
 G1 X 0109.92 Y 0125.87 E 0153.44
G1 X 0121.16 Y 0118.71 E 0154.17
 G1 X 0126.07 Y 0111.23 E 0155.23
G1 X 0121.16 Y 0118.71 E 0155.98
 G1 X 0125.95 Y 0126.37 E 0157.04
G1 X 0121.16 Y 0118.71 E 0157.36
 G1 X 0114.25 Y 0118.71 E 0158.42
G1 X 0161.23 Y 0147.00 E 0158.70
 G1 X 0167.91 Y 0146.84 E 0159.76
G1 X 0149.17 Y 0139.63 E 0160.17
 G1 X 0145.36 Y 0133.35 E 0161.23
G1 X 0149.17 Y 0139.63 E 0161.84
 G1 X 0145.43 Y 0147.11 E 0162.90
G1 X 0156.68 Y 0139.43 E 0163.56
 G1 X 0161.18 Y 0132.09 E 0164.62
G1 X 0156.68 Y 0139.43 E 0165.33
 G1 X 0161.23 Y 0147.00 E 0166.38
G1 X 0156.68 Y 0139.43 E 0166.83
 G1 X 0149.17 Y 0139.63 E 0167.89
G1 X 0145.14 Y 0174.92 E 0168.29
 G1 X 0148.56 Y 0181.39 E 0169.35
G1 X 0133.65 Y 0140.30 E 0169.87
 G1 X 0137.33 Y 0133.35 E 0170.92
G1 X 0137.05 Y 0147.11 E 0171.54
 G1 X 0145.43 Y 0147.11 E 0172.60
G1 X 0137.05 Y 0147.11 E 0173.06
 G1 X 0133.65 Y 0140.30 E 0174.12
G1 X 0133.24 Y 0153.35 E 0174.79
 G1 X 0137.19 Y 0161.02 E 0175.85
G1 X 0133.24 Y 0153.35 E 0176.25
 G1 X 0137.05 Y 0147.11 E 0177.31
G1 X 0125.32 Y 0153.55 E 0177.67
 G1 X 0121.27 Y 0159.37 E 0178.73
G1 X 0125.32 Y 0153.55 E 0179.25
 G1 X 0133.24 Y 0153.35 E 0180.31
G1 X 0121.43 Y 0146.23 E 0180.84
 G1 X 0113.52 Y 0146.23 E 0181.89
G1 X 0121.43 Y 0146.23 E 0182.49
 G1 X 0125.32 Y 0153.55 E 0183.55
G1 X 0125.03 Y 0139.83 E 0184.02
 G1 X 0121.47 Y 0133.09 E 0185.08
G1 X 0125.03 Y 0139.83 E 0185.74
 G1 X 0133.65 Y 0140.30 E 0186.80
G1 X 0125.03 Y 0139.83 E 0187.21
 G1 X 0121.43 Y 0146.23 E 0188.27
G1 X 0075.25 Y 0062.36 E 0188.66
 G1 X 0078.35 Y 0055.82 E 0189.72
G1 X 0079.77 Y 0070.20 E 0190.05
 G1 X 0086.72 Y 0070.20 E 0191.11
G1 X 0079.77 Y 0070.20 E 0191.86
 G1 X 0075.25 Y 0062.36 E 0192.92
G1 X 0075.04 Y 0076.99 E 0193.60
 G1 X 0079.28 Y 0084.57 E 0194.66
G1 X 0075.04 Y 0076.99 E 0195.25
 G1 X 0079.77 Y 0070.20 E 0196.31
G1 X 0067.85 Y 0076.82 E 0196.69
 G1 X 0075.04 Y 0076.99 E 0197.75
G1 X 0063.70 Y 0069.77 E 0198.44
 G1 X 0054.97 Y 0069.55 E 0199.50
G1 X 0063.70 Y 0069.77 E 0200.08
 G1 X 0067.85 Y 0076.82 E 0201.13
G1 X 0067.36 Y 0063.43 E 0201.95
 G1 X 0062.30 Y 0055.56 E 0203.01
G1 X 0067.36 Y 0063.43 E 0203.54
 G1 X 0075.25 Y 0062.36 E 0204.60
G1 X 0067.36 Y 0063.43 E 0205.01
 G1 X 0063.70 Y 0069.77 E 0206.06
G1 X 0044.00 Y 0089.70 E 0206.53
 G1 X 0039.90 Y 0083.26 E 0207.59
G1 X 0054.05 Y 0111.64 E 0208.61
 G1 X 0064.44 Y 0111.36 E 0209.67
G1 X 0040.48 Y 0095.33 E 0209.94
 G1 X 0044.00 Y 0089.70 E 0211.00
G1 X 0101.98 Y 0083.26 E 0211.33
 G1 X 0097.85 Y 0077.69 E 0212.38
G1 X 0109.42 Y 0083.26 E 0212.87
 G1 X 0113.69 Y 0076.85 E 0213.92
G1 X 0109.42 Y 0083.26 E 0214.35
 G1 X 0101.98 Y 0083.26 E 0215.41
G1 X 0113.21 Y 0091.07 E 0216.08
 G1 X 0121.84 Y 0090.60 E 0217.14
G1 X 0113.21 Y 0091.07 E 0217.82
 G1 X 0109.42 Y 0083.26 E 0218.88
G1 X 0109.64 Y 0097.01 E 0219.51
 G1 X 0113.66 Y 0104.42 E 0220.56
G1 X 0109.64 Y 0097.01 E 0220.89
 G1 X 0113.21 Y 0091.07 E 0221.95
G1 X 0102.04 Y 0097.01 E 0222.57
 G1 X 0097.74 Y 0104.25 E 0223.63
G1 X 0102.04 Y 0097.01 E 0224.10
 G1 X 0109.64 Y 0097.01 E 0225.15
G1 X 0098.17 Y 0091.12 E 0225.66
 G1 X 0090.37 Y 0090.91 E 0226.72
G1 X 0098.17 Y 0091.12 E 0227.41
 G1 X 0101.98 Y 0083.26 E 0228.46
G1 X 0098.17 Y 0091.12 E 0228.81
 G1 X 0102.04 Y 0097.01 E 0229.87
G1 X 0075.06 Y 0091.19 E 0230.38
 G1 X 0079.28 Y 0084.57 E 0231.44
G1 X 0079.16 Y 0098.70 E 0231.87
 G1 X 0086.56 Y 0098.51 E 0232.92
G1 X 0079.16 Y 0098.70 E 0233.58
 G1 X 0075.06 Y 0091.19 E 0234.63
G1 X 0075.24 Y 0105.05 E 0235.07
 G1 X 0079.16 Y 0098.70 E 0236.13
G1 X 0068.08 Y 0105.58 E 0236.44
 G1 X 0064.44 Y 0111.36 E 0237.50
G1 X 0068.08 Y 0105.58 E 0237.87
 G1 X 0075.24 Y 0105.05 E 0238.93
G1 X 0097.79 Y 0118.71 E 0239.55
 G1 X 0102.36 Y 0111.64 E 0240.61
G1 X 0102.09 Y 0125.66 E 0241.12
 G1 X 0109.92 Y 0125.87 E 0242.18
G1 X 0102.09 Y 0125.66 E 0242.76
 G1 X 0097.79 Y 0118.71 E 0243.81
G1 X 0098.22 Y 0132.76 E 0244.27
 G1 X 0101.76 Y 0139.46 E 0245.33
G1 X 0098.22 Y 0132.76 E 0245.89
 G1 X 0102.09 Y 0125.66 E 0246.95
G1 X 0148.74 Y 0167.94 E 0247.46
 G1 X 0145.14 Y 0174.92 E 0248.52
G1 X 0144.08 Y 0161.37 E 0248.84
 G1 X 0137.19 Y 0161.02 E 0249.90
G1 X 0144.08 Y 0161.37 E 0250.45
 G1 X 0148.74 Y 0167.94 E 0251.51
G1 X 0149.34 Y 0152.89 E 0251.85
 G1 X 0145.43 Y 0147.11 E 0252.90
G1 X 0149.34 Y 0152.89 E 0253.84
 G1 X 0144.08 Y 0161.37 E 0254.90
G1 X 0156.24 Y 0153.73 E 0255.52
 G1 X 0161.23 Y 0147.00 E 0256.58
G1 X 0156.24 Y 0153.73 E 0256.91
 G1 X 0149.34 Y 0152.89 E 0257.97
G1 X 0160.04 Y 0161.33 E 0258.54
 G1 X 0168.21 Y 0161.13 E 0259.60
G1 X 0160.04 Y 0161.33 E 0260.24
 G1 X 0156.24 Y 0153.73 E 0261.30
G1 X 0156.58 Y 0167.15 E 0261.94
 G1 X 0160.64 Y 0174.60 E 0263.00
G1 X 0156.58 Y 0167.15 E 0263.51
 G1 X 0148.74 Y 0167.94 E 0264.57
G1 X 0156.58 Y 0167.15 E 0264.87
 G1 X 0160.04 Y 0161.33 E 0265.93
G1 X 0125.68 Y 0167.66 E 0266.75
 G1 X 0121.27 Y 0159.37 E 0267.80
G1 X 0132.88 Y 0167.48 E 0268.30
 G1 X 0137.19 Y 0161.02 E 0269.36
G1 X 0132.88 Y 0167.48 E 0269.74
 G1 X 0125.68 Y 0167.66 E 0270.80
G1 X 0136.94 Y 0174.70 E 0271.38
 G1 X 0145.14 Y 0174.92 E 0272.44
G1 X 0136.94 Y 0174.70 E 0273.04
 G1 X 0132.88 Y 0167.48 E 0274.10
G1 X 0132.49 Y 0181.97 E 0274.74
 G1 X 0136.94 Y 0174.70 E 0275.80
G1 X 0122.49 Y 0172.23 E 0275.86
 G1 X 0125.68 Y 0167.66 E 0276.92
G1 X 0063.09 Y 0083.96 E 0277.57
 G1 X 0067.85 Y 0076.82 E 0278.63
G1 X 0067.47 Y 0091.19 E 0279.09
 G1 X 0075.06 Y 0091.19 E 0280.15
G1 X 0067.47 Y 0091.19 E 0280.78
 G1 X 0063.09 Y 0083.96 E 0281.84
G1 X 0063.57 Y 0097.97 E 0282.55
 G1 X 0068.08 Y 0105.58 E 0283.61
G1 X 0063.57 Y 0097.97 E 0284.12
 G1 X 0067.47 Y 0091.19 E 0285.17
G1 X 0055.27 Y 0098.19 E 0286.24
 G1 X 0049.72 Y 0107.27 E 0287.30
G1 X 0055.27 Y 0098.19 E 0287.90
 G1 X 0063.57 Y 0097.97 E 0288.96
G1 X 0051.47 Y 0089.88 E 0289.40
 G1 X 0044.00 Y 0089.70 E 0290.46
G1 X 0051.47 Y 0089.88 E 0291.23
 G1 X 0055.27 Y 0098.19 E 0292.29
G1 X 0055.83 Y 0083.96 E 0293.05
 G1 X 0051.75 Y 0075.81 E 0294.11
G1 X 0055.83 Y 0083.96 E 0294.50
 G1 X 0063.09 Y 0083.96 E 0295.56
G1 X 0055.83 Y 0083.96 E 0295.97
 G1 X 0051.47 Y 0089.88 E 0297.03
G1 X 0082.60 Y 0132.33 E 0299.10
 G1 X 0098.22 Y 0132.76 E 0300.16
G1 X 0080.52 Y 0135.68 E 0299.89
 G1 X 0082.60 Y 0132.33 E 0300.94
G1 X 0067.88 Y 0118.66 E 0301.50
 G1 X 0064.44 Y 0111.36 E 0302.56
G1 X 0067.88 Y 0118.66 E 0302.34
 G1 X 0065.64 Y 0122.23 E 0303.40
G1 X 0082.63 Y 0131.61 E 0302.49
 G1 X 0082.60 Y 0132.33 E 0303.54
G1 X 0075.59 Y 0119.09 E 0304.03
 G1 X 0067.88 Y 0118.66 E 0305.09
G1 X 0075.59 Y 0119.09 E 0306.90
 G1 X 0082.63 Y 0131.61 E 0307.96
G1 X 0079.78 Y 0112.10 E 0308.58
 G1 X 0075.24 Y 0105.05 E 0309.64
G1 X 0079.78 Y 0112.10 E 0310.21
 G1 X 0075.59 Y 0119.09 E 0311.27
G1 X 0086.67 Y 0112.28 E 0312.02
 G1 X 0090.82 Y 0104.25 E 0313.08
G1 X 0086.67 Y 0112.28 E 0313.40
 G1 X 0079.78 Y 0112.10 E 0314.45
G1 X 0091.09 Y 0118.71 E 0314.74
 G1 X 0097.79 Y 0118.71 E 0315.79
G1 X 0091.09 Y 0118.71 E 0317.82
 G1 X 0082.63 Y 0131.61 E 0318.88
G1 X 0091.09 Y 0118.71 E 0319.38
 G1 X 0086.67 Y 0112.28 E 0320.44
;CONTOUR EDGES
G1 X 0034.22 Y 0030.69 E 0320.15
 G1 X 0037.39 Y 0028.57 E 0321.20
G1 X 0037.39 Y 0028.57 E 0320.95
 G1 X 0040.57 Y 0026.11 E 0322.01
G1 X 0040.57 Y 0026.11 E 0321.95
 G1 X 0045.51 Y 0025.40 E 0323.01
G1 X 0045.51 Y 0025.40 E 0323.46
 G1 X 0052.92 Y 0023.99 E 0324.51
G1 X 0052.92 Y 0023.99 E 0325.02
 G1 X 0060.32 Y 0026.46 E 0326.08
G1 X 0060.32 Y 0026.46 E 0326.45
 G1 X 0067.03 Y 0028.93 E 0327.51
G1 X 0067.03 Y 0028.93 E 0328.54
 G1 X 0075.85 Y 0034.57 E 0329.60
G1 X 0075.85 Y 0034.57 E 0330.32
 G1 X 0083.26 Y 0039.51 E 0331.38
G1 X 0083.26 Y 0039.51 E 0333.02
 G1 X 0093.13 Y 0048.68 E 0334.08
G1 X 0093.13 Y 0048.68 E 0335.69
 G1 X 0101.25 Y 0059.27 E 0336.74
G1 X 0101.25 Y 0059.27 E 0339.68
 G1 X 0112.89 Y 0075.49 E 0340.74
G1 X 0112.89 Y 0075.49 E 0342.87
 G1 X 0121.00 Y 0089.25 E 0343.93
G1 X 0121.00 Y 0089.25 E 0345.28
 G1 X 0127.35 Y 0099.48 E 0346.34
G1 X 0127.35 Y 0099.48 E 0348.29
 G1 X 0136.88 Y 0111.12 E 0349.35
G1 X 0136.88 Y 0111.12 E 0353.89
 G1 X 0158.04 Y 0129.47 E 0354.95
G1 X 0158.04 Y 0129.47 E 0358.40
 G1 X 0175.33 Y 0143.93 E 0359.46
G1 X 0175.33 Y 0143.93 E 0360.76
 G1 X 0182.74 Y 0153.11 E 0361.82
G1 X 0182.74 Y 0153.11 E 0362.19
 G1 X 0186.62 Y 0159.10 E 0363.25
G1 X 0186.62 Y 0159.10 E 0364.02
 G1 X 0186.97 Y 0168.27 E 0365.08
G1 X 0186.97 Y 0168.27 E 0365.44
 G1 X 0186.27 Y 0175.33 E 0366.50
G1 X 0186.27 Y 0175.33 E 0367.18
 G1 X 0182.39 Y 0183.09 E 0368.23
G1 X 0182.39 Y 0183.09 E 0369.34
 G1 X 0175.68 Y 0191.56 E 0370.39
G1 X 0175.68 Y 0191.56 E 0370.35
 G1 X 0171.10 Y 0193.67 E 0371.40
G1 X 0171.10 Y 0193.67 E 0371.68
 G1 X 0164.75 Y 0195.79 E 0372.74
G1 X 0164.75 Y 0195.79 E 0372.68
 G1 X 0159.81 Y 0196.14 E 0373.73
G1 X 0159.81 Y 0196.14 E 0374.30
 G1 X 0151.69 Y 0195.79 E 0375.36
G1 X 0151.69 Y 0195.79 E 0375.40
 G1 X 0147.46 Y 0192.26 E 0376.46
G1 X 0147.46 Y 0192.26 E 0376.76
 G1 X 0141.46 Y 0189.09 E 0377.82
G1 X 0141.46 Y 0189.09 E 0379.37
 G1 X 0131.23 Y 0180.97 E 0380.43
G1 X 0131.23 Y 0180.97 E 0383.96
 G1 X 0115.01 Y 0164.75 E 0385.02
G1 X 0115.01 Y 0164.75 E 0386.96
 G1 X 0104.07 Y 0154.52 E 0388.01
G1 X 0104.07 Y 0154.52 E 0389.67
 G1 X 0093.49 Y 0146.05 E 0390.72
G1 X 0093.49 Y 0146.05 E 0393.73
 G1 X 0077.61 Y 0133.35 E 0394.79
G1 X 0077.61 Y 0133.35 E 0397.78
 G1 X 0062.79 Y 0119.59 E 0398.83
G1 X 0062.79 Y 0119.59 E 0400.92
 G1 X 0051.15 Y 0109.01 E 0401.98
G1 X 0051.15 Y 0109.01 E 0404.03
 G1 X 0041.27 Y 0097.01 E 0405.09
G1 X 0041.27 Y 0097.01 E 0406.84
 G1 X 0035.28 Y 0084.31 E 0407.90
G1 X 0035.28 Y 0084.31 E 0409.90
 G1 X 0030.34 Y 0069.85 E 0410.95
G1 X 0030.34 Y 0069.85 E 0412.83
 G1 X 0027.87 Y 0055.39 E 0413.89
G1 X 0027.87 Y 0055.39 E 0414.74
 G1 X 0027.87 Y 0045.86 E 0415.79
G1 X 0027.87 Y 0045.86 E 0415.66
 G1 X 0028.22 Y 0041.27 E 0416.71
G1 X 0028.22 Y 0041.27 E 0416.64
 G1 X 0029.99 Y 0036.69 E 0417.70
G1 X 0029.99 Y 0036.69 E 0417.39
 G1 X 0032.46 Y 0033.87 E 0418.45
G1 X 0032.46 Y 0033.87 E 0417.70
 G1 X 0033.16 Y 0032.46 E 0418.76
