;FLAVOR:UltiGCode
; TIME:400
;MATERIAL:160
; MATERIAL2: 0
;NOZZLE_DIAMETER:0.400000
;NOZZLE_DIAMETER2:  0.400000
;Layer count: 98
;LAYER: 0
M107
G0  F600 Z0.3
;INSOLE EDGES
G1 X 0194.20 Y 0212.75 E 0002.61
 G1 X 0210.82 Y 0204.98 E 0003.67
G1 X 0193.41 Y 0219.54 E 0006.32
 G1 X 0202.02 Y 0235.97 E 0007.38
G1 X 0193.41 Y 0219.54 E 0007.69
 G1 X 0194.20 Y 0212.75 E 0008.74
G1 X 0186.42 Y 0159.61 E 0015.65
 G1 X 0151.61 Y 0178.90 E 0016.70
G1 X 0021.01 Y 0093.04 E 0019.82
 G1 X 0040.47 Y 0085.49 E 0020.88
G1 X 0061.87 Y 0045.40 E 0023.94
 G1 X 0063.87 Y 0024.91 E 0025.00
G1 X 0050.02 Y 0046.35 E 0028.37
 G1 X 0041.02 Y 0026.11 E 0029.42
G1 X 0050.02 Y 0046.35 E 0030.74
 G1 X 0061.87 Y 0045.40 E 0031.80
G1 X 0044.18 Y 0055.88 E 0032.98
 G1 X 0050.02 Y 0046.35 E 0034.04
G1 X 0046.46 Y 0065.14 E 0034.89
 G1 X 0044.18 Y 0055.88 E 0035.94
G1 X 0039.55 Y 0072.73 E 0037.44
 G1 X 0040.47 Y 0085.49 E 0038.50
G1 X 0039.55 Y 0072.73 E 0039.50
 G1 X 0046.46 Y 0065.14 E 0040.56
G1 X 0018.67 Y 0067.89 E 0043.79
 G1 X 0039.55 Y 0072.73 E 0044.84
G1 X 0022.92 Y 0046.83 E 0048.41
 G1 X 0044.18 Y 0055.88 E 0049.47
G1 X 0134.35 Y 0152.30 E 0054.75
 G1 X 0151.61 Y 0178.90 E 0055.81
G1 X 0134.35 Y 0152.30 E 0062.33
 G1 X 0154.23 Y 0120.04 E 0063.39
G1 X 0047.69 Y 0102.06 E 0066.77
 G1 X 0027.11 Y 0110.38 E 0067.82
G1 X 0047.55 Y 0092.05 E 0068.70
 G1 X 0040.47 Y 0085.49 E 0069.75
G1 X 0047.55 Y 0092.05 E 0070.70
 G1 X 0047.69 Y 0102.06 E 0071.76
G1 X 0151.56 Y 0179.21 E 0070.76
 G1 X 0151.61 Y 0178.90 E 0071.82
G1 X 0169.37 Y 0234.46 E 0076.42
 G1 X 0193.41 Y 0219.54 E 0077.48
G1 X 0159.73 Y 0192.21 E 0079.49
 G1 X 0151.56 Y 0179.21 E 0080.55
G1 X 0159.73 Y 0192.21 E 0086.23
 G1 X 0150.62 Y 0224.64 E 0087.29
G1 X 0178.18 Y 0199.86 E 0092.69
 G1 X 0199.24 Y 0175.37 E 0093.75
G1 X 0178.18 Y 0199.86 E 0096.68
 G1 X 0159.73 Y 0192.21 E 0097.74
G1 X 0179.81 Y 0204.64 E 0099.99
 G1 X 0194.20 Y 0212.75 E 0101.05
G1 X 0179.81 Y 0204.64 E 0106.50
 G1 X 0163.40 Y 0232.78 E 0107.56
G1 X 0179.81 Y 0204.64 E 0107.52
 G1 X 0178.18 Y 0199.86 E 0108.57
G1 X 0065.95 Y 0122.99 E 0113.07
 G1 X 0047.69 Y 0102.06 E 0114.13
G1 X 0107.05 Y 0156.08 E 0118.58
 G1 X 0134.35 Y 0152.30 E 0119.64
G1 X 0120.86 Y 0201.02 E 0126.11
 G1 X 0151.56 Y 0179.21 E 0127.17
G1 X 0092.49 Y 0176.51 E 0131.13
 G1 X 0107.05 Y 0156.08 E 0132.19
G1 X 0049.81 Y 0144.44 E 0136.50
 G1 X 0065.95 Y 0122.99 E 0137.56
G1 X 0065.79 Y 0048.55 E 0137.51
 G1 X 0061.87 Y 0045.40 E 0138.56
G1 X 0086.41 Y 0042.28 E 0141.82
 G1 X 0065.79 Y 0048.55 E 0142.87
G1 X 0099.98 Y 0069.26 E 0143.87
 G1 X 0106.42 Y 0061.26 E 0144.93
G1 X 0093.66 Y 0094.54 E 0150.69
 G1 X 0126.76 Y 0086.27 E 0151.75
G1 X 0093.66 Y 0094.54 E 0155.91
 G1 X 0099.98 Y 0069.26 E 0156.96
G1 X 0058.97 Y 0067.53 E 0158.45
 G1 X 0046.46 Y 0065.14 E 0159.51
G1 X 0065.79 Y 0058.89 E 0160.52
 G1 X 0065.79 Y 0048.55 E 0161.58
G1 X 0065.79 Y 0058.89 E 0162.72
 G1 X 0058.97 Y 0067.53 E 0163.78
G1 X 0080.33 Y 0062.31 E 0166.57
 G1 X 0095.47 Y 0050.41 E 0167.63
G1 X 0080.33 Y 0062.31 E 0169.56
 G1 X 0065.79 Y 0058.89 E 0170.62
G1 X 0076.78 Y 0080.46 E 0174.71
 G1 X 0099.98 Y 0069.26 E 0175.77
G1 X 0076.78 Y 0080.46 E 0178.41
 G1 X 0080.33 Y 0062.31 E 0179.47
G1 X 0073.87 Y 0084.80 E 0179.45
 G1 X 0076.78 Y 0080.46 E 0180.51
G1 X 0068.18 Y 0082.70 E 0183.98
 G1 X 0047.55 Y 0092.05 E 0185.04
G1 X 0068.18 Y 0082.70 E 0187.53
 G1 X 0058.97 Y 0067.53 E 0188.59
G1 X 0068.18 Y 0082.70 E 0188.75
 G1 X 0073.87 Y 0084.80 E 0189.80
G1 X 0111.12 Y 0117.04 E 0195.30
 G1 X 0141.16 Y 0103.97 E 0196.36
G1 X 0098.91 Y 0132.30 E 0200.33
 G1 X 0107.05 Y 0156.08 E 0201.38
G1 X 0098.91 Y 0132.30 E 0204.23
 G1 X 0111.12 Y 0117.04 E 0205.29
G1 X 0071.75 Y 0120.46 E 0205.50
 G1 X 0065.95 Y 0122.99 E 0206.56
G1 X 0071.75 Y 0120.46 E 0211.43
 G1 X 0098.91 Y 0132.30 E 0212.48
G1 X 0080.95 Y 0097.12 E 0214.27
 G1 X 0073.87 Y 0084.80 E 0215.33
G1 X 0080.95 Y 0097.12 E 0219.29
 G1 X 0071.75 Y 0120.46 E 0220.34
G1 X 0092.27 Y 0095.59 E 0219.63
 G1 X 0093.66 Y 0094.54 E 0220.69
G1 X 0092.27 Y 0095.59 E 0225.35
 G1 X 0111.12 Y 0117.04 E 0226.40
G1 X 0092.27 Y 0095.59 E 0227.63
 G1 X 0080.95 Y 0097.12 E 0228.69
;CONTOUR EDGES
G1 X 0191.21 Y 0240.59 E 0234.15
 G1 X 0159.81 Y 0231.77 E 0235.21
G1 X 0159.81 Y 0231.77 E 0242.55
 G1 X 0126.65 Y 0206.02 E 0243.61
G1 X 0126.65 Y 0206.02 E 0252.15
 G1 X 0090.31 Y 0174.62 E 0253.21
G1 X 0090.31 Y 0174.62 E 0258.74
 G1 X 0064.21 Y 0154.52 E 0259.80
G1 X 0064.21 Y 0154.52 E 0263.05
 G1 X 0046.57 Y 0142.17 E 0264.11
G1 X 0046.57 Y 0142.17 E 0265.64
 G1 X 0037.39 Y 0133.00 E 0266.70
G1 X 0037.39 Y 0133.00 E 0269.31
 G1 X 0029.63 Y 0116.42 E 0270.36
G1 X 0029.63 Y 0116.42 E 0273.51
 G1 X 0021.52 Y 0097.01 E 0274.57
G1 X 0021.52 Y 0097.01 E 0278.49
 G1 X 0018.34 Y 0072.32 E 0279.55
G1 X 0018.34 Y 0072.32 E 0281.39
 G1 X 0019.40 Y 0057.86 E 0282.45
G1 X 0019.40 Y 0057.86 E 0284.87
 G1 X 0024.69 Y 0041.27 E 0285.93
G1 X 0024.69 Y 0041.27 E 0290.27
 G1 X 0044.45 Y 0022.93 E 0291.32
G1 X 0044.45 Y 0022.93 E 0293.44
 G1 X 0060.32 Y 0022.93 E 0294.50
G1 X 0060.32 Y 0022.93 E 0296.19
 G1 X 0072.32 Y 0029.63 E 0297.25
G1 X 0072.32 Y 0029.63 E 0304.53
 G1 X 0103.36 Y 0057.50 E 0305.59
G1 X 0103.36 Y 0057.50 E 0335.73
 G1 X 0201.79 Y 0178.51 E 0336.79
G1 X 0201.79 Y 0178.51 E 0342.06
 G1 X 0212.02 Y 0208.49 E 0343.12
G1 X 0212.02 Y 0208.49 E 0347.73
 G1 X 0202.85 Y 0235.30 E 0348.79
G1 X 0202.85 Y 0235.30 E 0348.63
 G1 X 0199.32 Y 0238.12 E 0349.69
G1 X 0199.32 Y 0238.12 E 0349.59
 G1 X 0194.73 Y 0239.54 E 0350.65
G1 X 0194.73 Y 0239.54 E 0350.33
 G1 X 0191.21 Y 0240.59 E 0351.39
G0  F600.00 Z000.60
;INSOLE EDGES
G1 X 0194.20 Y 0212.75 E 0354.00
 G1 X 0210.82 Y 0204.98 E 0355.06
G1 X 0193.41 Y 0219.54 E 0357.71
 G1 X 0202.02 Y 0235.97 E 0358.77
G1 X 0193.41 Y 0219.54 E 0359.08
 G1 X 0194.20 Y 0212.75 E 0360.13
G1 X 0186.42 Y 0159.61 E 0367.03
 G1 X 0151.61 Y 0178.90 E 0368.09
G1 X 0021.01 Y 0093.04 E 0371.21
 G1 X 0040.47 Y 0085.49 E 0372.27
G1 X 0061.87 Y 0045.40 E 0375.33
 G1 X 0063.87 Y 0024.91 E 0376.38
G1 X 0050.02 Y 0046.35 E 0379.76
 G1 X 0041.02 Y 0026.11 E 0380.81
G1 X 0050.02 Y 0046.35 E 0382.13
 G1 X 0061.87 Y 0045.40 E 0383.19
G1 X 0044.18 Y 0055.88 E 0384.37
 G1 X 0050.02 Y 0046.35 E 0385.43
G1 X 0046.46 Y 0065.14 E 0386.28
 G1 X 0044.18 Y 0055.88 E 0387.33
G1 X 0039.55 Y 0072.73 E 0388.83
 G1 X 0040.47 Y 0085.49 E 0389.89
G1 X 0039.55 Y 0072.73 E 0390.89
 G1 X 0046.46 Y 0065.14 E 0391.95
G1 X 0018.67 Y 0067.89 E 0395.18
 G1 X 0039.55 Y 0072.73 E 0396.23
G1 X 0022.92 Y 0046.83 E 0399.80
 G1 X 0044.18 Y 0055.88 E 0400.85
G1 X 0134.35 Y 0152.30 E 0406.14
 G1 X 0151.61 Y 0178.90 E 0407.20
G1 X 0134.35 Y 0152.30 E 0413.72
 G1 X 0154.23 Y 0120.04 E 0414.78
G1 X 0047.69 Y 0102.06 E 0418.16
 G1 X 0027.11 Y 0110.38 E 0419.21
G1 X 0047.55 Y 0092.05 E 0420.09
 G1 X 0040.47 Y 0085.49 E 0421.14
G1 X 0047.55 Y 0092.05 E 0422.09
 G1 X 0047.69 Y 0102.06 E 0423.15
G1 X 0151.56 Y 0179.21 E 0422.15
 G1 X 0151.61 Y 0178.90 E 0423.21
G1 X 0169.37 Y 0234.46 E 0427.81
 G1 X 0193.41 Y 0219.54 E 0428.87
G1 X 0159.73 Y 0192.21 E 0430.88
 G1 X 0151.56 Y 0179.21 E 0431.94
G1 X 0159.73 Y 0192.21 E 0437.62
 G1 X 0150.62 Y 0224.64 E 0438.68
G1 X 0178.18 Y 0199.86 E 0444.08
 G1 X 0199.24 Y 0175.37 E 0445.14
G1 X 0178.18 Y 0199.86 E 0448.07
 G1 X 0159.73 Y 0192.21 E 0449.13
G1 X 0179.81 Y 0204.64 E 0451.38
 G1 X 0194.20 Y 0212.75 E 0452.44
G1 X 0179.81 Y 0204.64 E 0457.89
 G1 X 0163.40 Y 0232.78 E 0458.95
G1 X 0179.81 Y 0204.64 E 0458.90
 G1 X 0178.18 Y 0199.86 E 0459.96
G1 X 0065.95 Y 0122.99 E 0464.46
 G1 X 0047.69 Y 0102.06 E 0465.52
G1 X 0107.05 Y 0156.08 E 0469.97
 G1 X 0134.35 Y 0152.30 E 0471.03
G1 X 0120.86 Y 0201.02 E 0477.50
 G1 X 0151.56 Y 0179.21 E 0478.56
G1 X 0092.49 Y 0176.51 E 0482.52
 G1 X 0107.05 Y 0156.08 E 0483.58
G1 X 0049.81 Y 0144.44 E 0487.89
 G1 X 0065.95 Y 0122.99 E 0488.95
G1 X 0065.79 Y 0048.55 E 0488.90
 G1 X 0061.87 Y 0045.40 E 0489.95
G1 X 0086.41 Y 0042.28 E 0493.20
 G1 X 0065.79 Y 0048.55 E 0494.26
G1 X 0099.98 Y 0069.26 E 0495.26
 G1 X 0106.42 Y 0061.26 E 0496.32
G1 X 0093.66 Y 0094.54 E 0502.08
 G1 X 0126.76 Y 0086.27 E 0503.14
G1 X 0093.66 Y 0094.54 E 0507.29
 G1 X 0099.98 Y 0069.26 E 0508.35
G1 X 0058.97 Y 0067.53 E 0509.84
 G1 X 0046.46 Y 0065.14 E 0510.90
G1 X 0065.79 Y 0058.89 E 0511.91
 G1 X 0065.79 Y 0048.55 E 0512.97
G1 X 0065.79 Y 0058.89 E 0514.11
 G1 X 0058.97 Y 0067.53 E 0515.17
G1 X 0080.33 Y 0062.31 E 0517.96
 G1 X 0095.47 Y 0050.41 E 0519.02
G1 X 0080.33 Y 0062.31 E 0520.95
 G1 X 0065.79 Y 0058.89 E 0522.01
G1 X 0076.78 Y 0080.46 E 0526.10
 G1 X 0099.98 Y 0069.26 E 0527.16
G1 X 0076.78 Y 0080.46 E 0529.80
 G1 X 0080.33 Y 0062.31 E 0530.86
G1 X 0073.87 Y 0084.80 E 0530.84
 G1 X 0076.78 Y 0080.46 E 0531.90
G1 X 0068.18 Y 0082.70 E 0535.37
 G1 X 0047.55 Y 0092.05 E 0536.43
G1 X 0068.18 Y 0082.70 E 0538.92
 G1 X 0058.97 Y 0067.53 E 0539.98
G1 X 0068.18 Y 0082.70 E 0540.13
 G1 X 0073.87 Y 0084.80 E 0541.19
G1 X 0111.12 Y 0117.04 E 0546.69
 G1 X 0141.16 Y 0103.97 E 0547.75
G1 X 0098.91 Y 0132.30 E 0551.71
 G1 X 0107.05 Y 0156.08 E 0552.77
G1 X 0098.91 Y 0132.30 E 0555.62
 G1 X 0111.12 Y 0117.04 E 0556.68
G1 X 0071.75 Y 0120.46 E 0556.89
 G1 X 0065.95 Y 0122.99 E 0557.95
G1 X 0071.75 Y 0120.46 E 0562.82
 G1 X 0098.91 Y 0132.30 E 0563.87
G1 X 0080.95 Y 0097.12 E 0565.66
 G1 X 0073.87 Y 0084.80 E 0566.72
G1 X 0080.95 Y 0097.12 E 0570.67
 G1 X 0071.75 Y 0120.46 E 0571.73
G1 X 0092.27 Y 0095.59 E 0571.02
 G1 X 0093.66 Y 0094.54 E 0572.08
G1 X 0092.27 Y 0095.59 E 0576.73
 G1 X 0111.12 Y 0117.04 E 0577.79
G1 X 0092.27 Y 0095.59 E 0579.02
 G1 X 0080.95 Y 0097.12 E 0580.08
;CONTOUR EDGES
G1 X 0191.21 Y 0240.59 E 0585.54
 G1 X 0159.81 Y 0231.77 E 0586.60
G1 X 0159.81 Y 0231.77 E 0593.94
 G1 X 0126.65 Y 0206.02 E 0595.00
G1 X 0126.65 Y 0206.02 E 0603.54
 G1 X 0090.31 Y 0174.62 E 0604.60
G1 X 0090.31 Y 0174.62 E 0610.13
 G1 X 0064.21 Y 0154.52 E 0611.19
G1 X 0064.21 Y 0154.52 E 0614.44
 G1 X 0046.57 Y 0142.17 E 0615.50
G1 X 0046.57 Y 0142.17 E 0617.03
 G1 X 0037.39 Y 0133.00 E 0618.09
G1 X 0037.39 Y 0133.00 E 0620.70
 G1 X 0029.63 Y 0116.42 E 0621.75
G1 X 0029.63 Y 0116.42 E 0624.90
 G1 X 0021.52 Y 0097.01 E 0625.96
G1 X 0021.52 Y 0097.01 E 0629.88
 G1 X 0018.34 Y 0072.32 E 0630.94
G1 X 0018.34 Y 0072.32 E 0632.78
 G1 X 0019.40 Y 0057.86 E 0633.84
G1 X 0019.40 Y 0057.86 E 0636.26
 G1 X 0024.69 Y 0041.27 E 0637.32
G1 X 0024.69 Y 0041.27 E 0641.65
 G1 X 0044.45 Y 0022.93 E 0642.71
G1 X 0044.45 Y 0022.93 E 0644.83
 G1 X 0060.32 Y 0022.93 E 0645.89
G1 X 0060.32 Y 0022.93 E 0647.58
 G1 X 0072.32 Y 0029.63 E 0648.64
G1 X 0072.32 Y 0029.63 E 0655.92
 G1 X 0103.36 Y 0057.50 E 0656.98
G1 X 0103.36 Y 0057.50 E 0687.12
 G1 X 0201.79 Y 0178.51 E 0688.18
G1 X 0201.79 Y 0178.51 E 0693.45
 G1 X 0212.02 Y 0208.49 E 0694.51
G1 X 0212.02 Y 0208.49 E 0699.12
 G1 X 0202.85 Y 0235.30 E 0700.18
G1 X 0202.85 Y 0235.30 E 0700.02
 G1 X 0199.32 Y 0238.12 E 0701.08
G1 X 0199.32 Y 0238.12 E 0700.98
 G1 X 0194.73 Y 0239.54 E 0702.04
G1 X 0194.73 Y 0239.54 E 0701.72
 G1 X 0191.21 Y 0240.59 E 0702.78
G0  F600.00 Z000.90
;INSOLE EDGES
G1 X 0194.20 Y 0212.75 E 0705.39
 G1 X 0210.82 Y 0204.98 E 0706.45
G1 X 0193.41 Y 0219.54 E 0709.10
 G1 X 0202.02 Y 0235.97 E 0710.16
G1 X 0193.41 Y 0219.54 E 0710.46
 G1 X 0194.20 Y 0212.75 E 0711.52
G1 X 0186.42 Y 0159.61 E 0718.42
 G1 X 0151.61 Y 0178.90 E 0719.48
G1 X 0021.01 Y 0093.04 E 0722.60
 G1 X 0040.47 Y 0085.49 E 0723.66
G1 X 0061.87 Y 0045.40 E 0726.72
 G1 X 0063.87 Y 0024.91 E 0727.77
G1 X 0050.02 Y 0046.35 E 0731.14
 G1 X 0041.02 Y 0026.11 E 0732.20
G1 X 0050.02 Y 0046.35 E 0733.52
 G1 X 0061.87 Y 0045.40 E 0734.58
G1 X 0044.18 Y 0055.88 E 0735.76
 G1 X 0050.02 Y 0046.35 E 0736.82
G1 X 0046.46 Y 0065.14 E 0737.67
 G1 X 0044.18 Y 0055.88 E 0738.72
G1 X 0039.55 Y 0072.73 E 0740.22
 G1 X 0040.47 Y 0085.49 E 0741.28
G1 X 0039.55 Y 0072.73 E 0742.28
 G1 X 0046.46 Y 0065.14 E 0743.34
G1 X 0018.67 Y 0067.89 E 0746.56
 G1 X 0039.55 Y 0072.73 E 0747.62
G1 X 0022.92 Y 0046.83 E 0751.19
 G1 X 0044.18 Y 0055.88 E 0752.24
G1 X 0134.35 Y 0152.30 E 0757.53
 G1 X 0151.61 Y 0178.90 E 0758.59
G1 X 0134.35 Y 0152.30 E 0765.11
 G1 X 0154.23 Y 0120.04 E 0766.17
G1 X 0047.69 Y 0102.06 E 0769.55
 G1 X 0027.11 Y 0110.38 E 0770.60
G1 X 0047.55 Y 0092.05 E 0771.48
 G1 X 0040.47 Y 0085.49 E 0772.53
G1 X 0047.55 Y 0092.05 E 0773.48
 G1 X 0047.69 Y 0102.06 E 0774.54
G1 X 0151.56 Y 0179.21 E 0773.54
 G1 X 0151.61 Y 0178.90 E 0774.60
G1 X 0169.37 Y 0234.46 E 0779.20
 G1 X 0193.41 Y 0219.54 E 0780.26
G1 X 0159.73 Y 0192.21 E 0782.27
 G1 X 0151.56 Y 0179.21 E 0783.33
G1 X 0159.73 Y 0192.21 E 0789.01
 G1 X 0150.62 Y 0224.64 E 0790.07
G1 X 0178.18 Y 0199.86 E 0795.47
 G1 X 0199.24 Y 0175.37 E 0796.53
G1 X 0178.18 Y 0199.86 E 0799.46
 G1 X 0159.73 Y 0192.21 E 0800.52
G1 X 0179.81 Y 0204.64 E 0802.77
 G1 X 0194.20 Y 0212.75 E 0803.83
G1 X 0179.81 Y 0204.64 E 0809.28
 G1 X 0163.40 Y 0232.78 E 0810.34
G1 X 0179.81 Y 0204.64 E 0810.29
 G1 X 0178.18 Y 0199.86 E 0811.35
G1 X 0065.95 Y 0122.99 E 0815.85
 G1 X 0047.69 Y 0102.06 E 0816.91
G1 X 0107.05 Y 0156.08 E 0821.36
 G1 X 0134.35 Y 0152.30 E 0822.42
G1 X 0120.86 Y 0201.02 E 0828.89
 G1 X 0151.56 Y 0179.21 E 0829.95
G1 X 0092.49 Y 0176.51 E 0833.91
 G1 X 0107.05 Y 0156.08 E 0834.97
G1 X 0049.81 Y 0144.44 E 0839.28
 G1 X 0065.95 Y 0122.99 E 0840.34
G1 X 0065.79 Y 0048.55 E 0840.29
 G1 X 0061.87 Y 0045.40 E 0841.34
G1 X 0086.41 Y 0042.28 E 0844.59
 G1 X 0065.79 Y 0048.55 E 0845.65
G1 X 0099.98 Y 0069.26 E 0846.65
 G1 X 0106.42 Y 0061.26 E 0847.71
G1 X 0093.66 Y 0094.54 E 0853.47
 G1 X 0126.76 Y 0086.27 E 0854.53
G1 X 0093.66 Y 0094.54 E 0858.68
 G1 X 0099.98 Y 0069.26 E 0859.74
G1 X 0058.97 Y 0067.53 E 0861.23
 G1 X 0046.46 Y 0065.14 E 0862.29
G1 X 0065.79 Y 0058.89 E 0863.30
 G1 X 0065.79 Y 0048.55 E 0864.36
G1 X 0065.79 Y 0058.89 E 0865.50
 G1 X 0058.97 Y 0067.53 E 0866.56
G1 X 0080.33 Y 0062.31 E 0869.35
 G1 X 0095.47 Y 0050.41 E 0870.41
G1 X 0080.33 Y 0062.31 E 0872.34
 G1 X 0065.79 Y 0058.89 E 0873.40
G1 X 0076.78 Y 0080.46 E 0877.49
 G1 X 0099.98 Y 0069.26 E 0878.55
G1 X 0076.78 Y 0080.46 E 0881.19
 G1 X 0080.33 Y 0062.31 E 0882.25
G1 X 0073.87 Y 0084.80 E 0882.23
 G1 X 0076.78 Y 0080.46 E 0883.29
G1 X 0068.18 Y 0082.70 E 0886.76
 G1 X 0047.55 Y 0092.05 E 0887.82
G1 X 0068.18 Y 0082.70 E 0890.31
 G1 X 0058.97 Y 0067.53 E 0891.37
G1 X 0068.18 Y 0082.70 E 0891.52
 G1 X 0073.87 Y 0084.80 E 0892.58
G1 X 0111.12 Y 0117.04 E 0898.08
 G1 X 0141.16 Y 0103.97 E 0899.14
G1 X 0098.91 Y 0132.30 E 0903.10
 G1 X 0107.05 Y 0156.08 E 0904.16
G1 X 0098.91 Y 0132.30 E 0907.01
 G1 X 0111.12 Y 0117.04 E 0908.07
G1 X 0071.75 Y 0120.46 E 0908.28
 G1 X 0065.95 Y 0122.99 E 0909.34
G1 X 0071.75 Y 0120.46 E 0914.20
 G1 X 0098.91 Y 0132.30 E 0915.26
G1 X 0080.95 Y 0097.12 E 0917.05
 G1 X 0073.87 Y 0084.80 E 0918.11
G1 X 0080.95 Y 0097.12 E 0922.06
 G1 X 0071.75 Y 0120.46 E 0923.12
G1 X 0092.27 Y 0095.59 E 0922.41
 G1 X 0093.66 Y 0094.54 E 0923.47
G1 X 0092.27 Y 0095.59 E 0928.12
 G1 X 0111.12 Y 0117.04 E 0929.18
G1 X 0092.27 Y 0095.59 E 0930.41
 G1 X 0080.95 Y 0097.12 E 0931.47
;CONTOUR EDGES
G1 X 0191.21 Y 0240.59 E 0936.93
 G1 X 0159.81 Y 0231.77 E 0937.99
G1 X 0159.81 Y 0231.77 E 0945.33
 G1 X 0126.65 Y 0206.02 E 0946.39
G1 X 0126.65 Y 0206.02 E 0954.93
 G1 X 0090.31 Y 0174.62 E 0955.99
G1 X 0090.31 Y 0174.62 E 0961.52
 G1 X 0064.21 Y 0154.52 E 0962.58
G1 X 0064.21 Y 0154.52 E 0965.83
 G1 X 0046.57 Y 0142.17 E 0966.89
G1 X 0046.57 Y 0142.17 E 0968.42
 G1 X 0037.39 Y 0133.00 E 0969.48
G1 X 0037.39 Y 0133.00 E 0972.09
 G1 X 0029.63 Y 0116.42 E 0973.14
G1 X 0029.63 Y 0116.42 E 0976.29
 G1 X 0021.52 Y 0097.01 E 0977.35
G1 X 0021.52 Y 0097.01 E 0981.27
 G1 X 0018.34 Y 0072.32 E 0982.33
G1 X 0018.34 Y 0072.32 E 0984.17
 G1 X 0019.40 Y 0057.86 E 0985.23
G1 X 0019.40 Y 0057.86 E 0987.65
 G1 X 0024.69 Y 0041.27 E 0988.71
G1 X 0024.69 Y 0041.27 E 0993.04
 G1 X 0044.45 Y 0022.93 E 0994.10
G1 X 0044.45 Y 0022.93 E 0996.22
 G1 X 0060.32 Y 0022.93 E 0997.28
G1 X 0060.32 Y 0022.93 E 0998.97
 G1 X 0072.32 Y 0029.63 E 1000.03
G1 X 0072.32 Y 0029.63 E 1007.31
 G1 X 0103.36 Y 0057.50 E 1008.37
G1 X 0103.36 Y 0057.50 E 1038.51
