;FLAVOR:UltiGCode
; TIME:400
;MATERIAL:160
; MATERIAL2: 0
;NOZZLE_DIAMETER:0.400000
;NOZZLE_DIAMETER2:  0.400000
;Layer count: 98
;LAYER: 0
M107
G0  F600 Z0.3
;INSOLE EDGES
G1 X 0054.82 Y 0047.95 E 0003.74
 G1 X 0065.26 Y 0026.37 E 0004.80
G1 X 0051.03 Y 0023.70 E 0007.78
 G1 X 0049.09 Y 0043.81 E 0008.84
G1 X 0066.82 Y 0060.11 E 0012.96
 G1 X 0082.67 Y 0039.59 E 0014.02
G1 X 0061.00 Y 0054.29 E 0019.90
 G1 X 0032.15 Y 0073.52 E 0020.96
G1 X 0061.00 Y 0054.29 E 0021.54
 G1 X 0066.82 Y 0060.11 E 0022.60
G1 X 0060.64 Y 0053.68 E 0023.18
 G1 X 0054.82 Y 0047.95 E 0024.23
G1 X 0060.64 Y 0053.68 E 0028.30
 G1 X 0075.52 Y 0032.84 E 0029.36
G1 X 0060.64 Y 0053.68 E 0028.44
 G1 X 0061.00 Y 0054.29 E 0029.50
G1 X 0032.43 Y 0074.56 E 0028.65
 G1 X 0032.15 Y 0073.52 E 0029.71
G1 X 0032.43 Y 0074.56 E 0033.73
 G1 X 0008.34 Y 0082.59 E 0034.79
G1 X 0094.55 Y 0078.95 E 0038.10
 G1 X 0086.88 Y 0099.40 E 0039.16
G1 X 0101.25 Y 0092.51 E 0041.29
 G1 X 0086.88 Y 0099.40 E 0042.35
G1 X 0092.18 Y 0075.89 E 0042.06
 G1 X 0094.55 Y 0078.95 E 0043.12
G1 X 0085.06 Y 0072.16 E 0046.44
 G1 X 0101.05 Y 0057.17 E 0047.50
G1 X 0085.06 Y 0072.16 E 0048.05
 G1 X 0092.18 Y 0075.89 E 0049.11
G1 X 0029.92 Y 0069.43 E 0048.98
 G1 X 0032.15 Y 0073.52 E 0050.04
G1 X 0006.71 Y 0070.04 E 0053.63
 G1 X 0029.92 Y 0069.43 E 0054.69
G1 X 0040.33 Y 0038.94 E 0055.63
 G1 X 0049.09 Y 0043.81 E 0056.69
G1 X 0040.33 Y 0038.94 E 0058.98
 G1 X 0039.71 Y 0022.19 E 0060.04
G1 X 0085.70 Y 0100.65 E 0059.33
 G1 X 0086.88 Y 0099.40 E 0060.39
G1 X 0085.70 Y 0100.65 E 0059.36
 G1 X 0085.73 Y 0100.78 E 0060.41
G1 X 0051.68 Y 0134.81 E 0062.43
 G1 X 0048.11 Y 0149.79 E 0063.49
G1 X 0049.48 Y 0133.32 E 0065.37
 G1 X 0040.81 Y 0145.15 E 0066.42
G1 X 0049.48 Y 0133.32 E 0065.90
 G1 X 0051.68 Y 0134.81 E 0066.96
G1 X 0065.91 Y 0115.43 E 0070.83
 G1 X 0085.73 Y 0100.78 E 0071.89
G1 X 0071.19 Y 0123.57 E 0072.77
 G1 X 0065.91 Y 0115.43 E 0073.83
G1 X 0091.81 Y 0111.88 E 0077.51
 G1 X 0071.19 Y 0123.57 E 0078.57
G1 X 0090.97 Y 0108.84 E 0079.43
 G1 X 0085.73 Y 0100.78 E 0080.49
G1 X 0090.97 Y 0108.84 E 0080.06
 G1 X 0091.81 Y 0111.88 E 0081.12
G1 X 0101.25 Y 0102.35 E 0082.03
 G1 X 0101.25 Y 0092.51 E 0083.09
G1 X 0101.25 Y 0102.35 E 0084.46
 G1 X 0090.97 Y 0108.84 E 0085.52
G1 X 0105.65 Y 0101.89 E 0085.35
 G1 X 0101.25 Y 0102.35 E 0086.41
G1 X 0109.80 Y 0106.31 E 0086.56
 G1 X 0105.65 Y 0101.89 E 0087.62
G1 X 0096.73 Y 0117.28 E 0088.02
 G1 X 0091.81 Y 0111.88 E 0089.08
G1 X 0011.35 Y 0100.82 E 0092.42
 G1 X 0032.69 Y 0095.62 E 0093.47
G1 X 0073.14 Y 0084.81 E 0097.18
 G1 X 0053.47 Y 0098.27 E 0098.24
G1 X 0073.15 Y 0068.32 E 0102.67
 G1 X 0092.55 Y 0048.91 E 0103.73
G1 X 0073.82 Y 0069.68 E 0104.97
 G1 X 0085.06 Y 0072.16 E 0106.03
G1 X 0073.82 Y 0069.68 E 0105.28
 G1 X 0073.15 Y 0068.32 E 0106.34
G1 X 0072.39 Y 0075.37 E 0107.17
 G1 X 0073.14 Y 0084.81 E 0108.23
G1 X 0072.39 Y 0075.37 E 0108.35
 G1 X 0073.82 Y 0069.68 E 0109.40
G1 X 0045.44 Y 0090.24 E 0110.62
 G1 X 0053.47 Y 0098.27 E 0111.67
G1 X 0045.44 Y 0090.24 E 0116.77
 G1 X 0072.39 Y 0075.37 E 0117.83
G1 X 0037.23 Y 0087.03 E 0118.72
 G1 X 0032.69 Y 0095.62 E 0119.77
G1 X 0037.23 Y 0087.03 E 0120.48
 G1 X 0045.44 Y 0090.24 E 0121.54
G1 X 0101.82 Y 0092.00 E 0120.63
 G1 X 0101.25 Y 0092.51 E 0121.69
G1 X 0121.06 Y 0095.34 E 0120.92
 G1 X 0122.45 Y 0095.70 E 0121.98
G1 X 0106.81 Y 0096.69 E 0121.98
 G1 X 0105.65 Y 0101.89 E 0123.04
G1 X 0106.81 Y 0096.69 E 0123.35
 G1 X 0101.82 Y 0092.00 E 0124.41
G1 X 0106.81 Y 0096.69 E 0126.22
 G1 X 0121.06 Y 0095.34 E 0127.27
G1 X 0105.53 Y 0085.72 E 0129.87
 G1 X 0121.06 Y 0095.34 E 0130.93
G1 X 0103.14 Y 0085.72 E 0131.15
 G1 X 0101.82 Y 0092.00 E 0132.21
G1 X 0103.14 Y 0085.72 E 0131.63
 G1 X 0105.53 Y 0085.72 E 0132.69
G1 X 0099.78 Y 0081.73 E 0132.81
 G1 X 0094.55 Y 0078.95 E 0133.87
G1 X 0099.78 Y 0081.73 E 0133.86
 G1 X 0103.14 Y 0085.72 E 0134.92
G1 X 0106.64 Y 0065.20 E 0137.46
 G1 X 0092.18 Y 0075.89 E 0138.51
G1 X 0111.23 Y 0071.80 E 0140.49
 G1 X 0099.78 Y 0081.73 E 0141.55
G1 X 0115.96 Y 0078.59 E 0143.01
 G1 X 0105.53 Y 0085.72 E 0144.07
G1 X 0007.58 Y 0049.47 E 0146.65
 G1 X 0025.55 Y 0052.34 E 0147.71
G1 X 0029.72 Y 0067.55 E 0147.03
 G1 X 0029.92 Y 0069.43 E 0148.09
G1 X 0027.34 Y 0059.67 E 0151.12
 G1 X 0006.91 Y 0058.78 E 0152.18
G1 X 0027.34 Y 0059.67 E 0152.77
 G1 X 0029.72 Y 0067.55 E 0153.82
G1 X 0027.34 Y 0057.16 E 0153.79
 G1 X 0025.55 Y 0052.34 E 0154.85
G1 X 0027.34 Y 0057.16 E 0154.30
 G1 X 0027.34 Y 0059.67 E 0155.35
G1 X 0049.64 Y 0044.55 E 0154.48
 G1 X 0049.09 Y 0043.81 E 0155.54
G1 X 0049.64 Y 0044.55 E 0159.61
 G1 X 0027.34 Y 0057.16 E 0160.66
G1 X 0054.72 Y 0047.91 E 0159.63
 G1 X 0054.82 Y 0047.95 E 0160.69
G1 X 0054.72 Y 0047.91 E 0165.98
 G1 X 0029.72 Y 0067.55 E 0167.04
G1 X 0054.72 Y 0047.91 E 0167.20
 G1 X 0049.64 Y 0044.55 E 0168.26
G1 X 0031.40 Y 0035.98 E 0169.59
 G1 X 0030.41 Y 0024.09 E 0170.65
G1 X 0040.29 Y 0038.95 E 0169.60
 G1 X 0040.33 Y 0038.94 E 0170.66
G1 X 0040.29 Y 0038.95 E 0171.47
 G1 X 0031.40 Y 0035.98 E 0172.53
G1 X 0025.58 Y 0051.55 E 0171.63
 G1 X 0025.55 Y 0052.34 E 0172.69
G1 X 0025.58 Y 0051.55 E 0175.50
 G1 X 0040.29 Y 0038.95 E 0176.56
G1 X 0024.24 Y 0046.41 E 0178.40
 G1 X 0011.55 Y 0039.44 E 0179.46
G1 X 0024.24 Y 0046.41 E 0179.46
 G1 X 0025.58 Y 0051.55 E 0180.52
G1 X 0026.01 Y 0038.68 E 0181.85
 G1 X 0017.77 Y 0030.02 E 0182.91
G1 X 0026.01 Y 0038.68 E 0183.06
 G1 X 0031.40 Y 0035.98 E 0184.11
G1 X 0026.01 Y 0038.68 E 0184.64
 G1 X 0024.24 Y 0046.41 E 0185.70
G1 X 0075.07 Y 0089.68 E 0185.69
 G1 X 0073.14 Y 0084.81 E 0186.75
G1 X 0079.61 Y 0095.65 E 0187.27
 G1 X 0085.70 Y 0100.65 E 0188.32
G1 X 0079.61 Y 0095.65 E 0188.77
 G1 X 0075.07 Y 0089.68 E 0189.82
G1 X 0052.46 Y 0135.02 E 0188.93
 G1 X 0051.68 Y 0134.81 E 0189.99
G1 X 0071.28 Y 0124.56 E 0189.13
 G1 X 0071.19 Y 0123.57 E 0190.19
G1 X 0071.28 Y 0124.56 E 0193.43
 G1 X 0052.46 Y 0135.02 E 0194.49
G1 X 0063.20 Y 0145.42 E 0196.42
 G1 X 0052.46 Y 0135.02 E 0197.48
G1 X 0076.75 Y 0134.05 E 0198.62
 G1 X 0071.28 Y 0124.56 E 0199.67
G1 X 0055.37 Y 0102.51 E 0199.54
 G1 X 0053.47 Y 0098.27 E 0200.60
G1 X 0059.03 Y 0105.72 E 0204.08
 G1 X 0075.07 Y 0089.68 E 0205.14
G1 X 0059.03 Y 0105.72 E 0205.05
 G1 X 0055.37 Y 0102.51 E 0206.11
G1 X 0061.34 Y 0109.35 E 0209.62
 G1 X 0079.61 Y 0095.65 E 0210.68
G1 X 0061.34 Y 0109.35 E 0210.48
 G1 X 0059.03 Y 0105.72 E 0211.54
G1 X 0037.88 Y 0115.23 E 0214.81
 G1 X 0055.37 Y 0102.51 E 0215.87
G1 X 0040.78 Y 0120.76 E 0216.06
 G1 X 0037.88 Y 0115.23 E 0217.11
G1 X 0062.15 Y 0111.60 E 0216.54
 G1 X 0061.34 Y 0109.35 E 0217.59
G1 X 0062.15 Y 0111.60 E 0221.19
 G1 X 0040.78 Y 0120.76 E 0222.24
G1 X 0064.43 Y 0114.45 E 0221.54
 G1 X 0065.91 Y 0115.43 E 0222.60
G1 X 0064.43 Y 0114.45 E 0222.27
 G1 X 0062.15 Y 0111.60 E 0223.33
G1 X 0047.22 Y 0130.58 E 0222.98
 G1 X 0049.48 Y 0133.32 E 0224.04
G1 X 0047.22 Y 0130.58 E 0227.70
 G1 X 0064.43 Y 0114.45 E 0228.75
G1 X 0041.73 Y 0127.17 E 0230.57
 G1 X 0029.75 Y 0135.15 E 0231.63
G1 X 0041.73 Y 0127.17 E 0231.87
 G1 X 0040.78 Y 0120.76 E 0232.93
G1 X 0041.73 Y 0127.17 E 0233.17
 G1 X 0047.22 Y 0130.58 E 0234.22
G1 X 0033.22 Y 0106.56 E 0235.36
 G1 X 0032.69 Y 0095.62 E 0236.41
G1 X 0033.22 Y 0106.56 E 0238.88
 G1 X 0016.57 Y 0112.35 E 0239.94
G1 X 0037.09 Y 0114.59 E 0239.08
 G1 X 0037.88 Y 0115.23 E 0240.14
G1 X 0037.09 Y 0114.59 E 0242.64
 G1 X 0020.63 Y 0121.30 E 0243.70
G1 X 0037.09 Y 0114.59 E 0244.42
 G1 X 0033.22 Y 0106.56 E 0245.48
G1 X 0072.46 Y 0067.69 E 0244.61
 G1 X 0073.15 Y 0068.32 E 0245.66
G1 X 0035.73 Y 0082.82 E 0245.50
 G1 X 0037.23 Y 0087.03 E 0246.56
G1 X 0035.73 Y 0082.82 E 0253.44
 G1 X 0072.46 Y 0067.69 E 0254.50
G1 X 0035.57 Y 0082.54 E 0258.90
 G1 X 0009.35 Y 0090.03 E 0259.96
G1 X 0035.57 Y 0082.54 E 0258.96
 G1 X 0035.73 Y 0082.82 E 0260.02
G1 X 0034.04 Y 0077.76 E 0259.68
 G1 X 0032.43 Y 0074.56 E 0260.74
G1 X 0034.04 Y 0077.76 E 0260.68
 G1 X 0035.57 Y 0082.54 E 0261.74
G1 X 0067.89 Y 0061.97 E 0261.11
 G1 X 0066.82 Y 0060.11 E 0262.17
G1 X 0067.89 Y 0061.97 E 0262.58
 G1 X 0072.46 Y 0067.69 E 0263.64
G1 X 0067.89 Y 0061.97 E 0270.05
 G1 X 0034.04 Y 0077.76 E 0271.11
;CONTOUR EDGES
G1 X 0125.59 Y 0092.43 E 0278.82
 G1 X 0100.54 Y 0056.44 E 0279.87
G1 X 0100.54 Y 0056.44 E 0287.35
 G1 X 0069.50 Y 0027.16 E 0288.41
G1 X 0069.50 Y 0027.16 E 0293.09
 G1 X 0041.27 Y 0021.87 E 0294.15
G1 X 0041.27 Y 0021.87 E 0296.98
 G1 X 0022.22 Y 0025.75 E 0298.04
G1 X 0022.22 Y 0025.75 E 0299.33
 G1 X 0013.76 Y 0033.87 E 0300.39
G1 X 0013.76 Y 0033.87 E 0302.97
 G1 X 0007.06 Y 0050.80 E 0304.03
G1 X 0007.06 Y 0050.80 E 0306.92
 G1 X 0006.70 Y 0070.56 E 0307.98
G1 X 0006.70 Y 0070.56 E 0312.69
 G1 X 0010.58 Y 0099.13 E 0313.75
G1 X 0010.58 Y 0099.13 E 0318.50
 G1 X 0022.58 Y 0125.59 E 0319.56
G1 X 0022.58 Y 0125.59 E 0322.38
 G1 X 0034.22 Y 0141.11 E 0323.44
G1 X 0034.22 Y 0141.11 E 0324.94
 G1 X 0045.16 Y 0147.81 E 0326.00
G1 X 0045.16 Y 0147.81 E 0326.98
 G1 X 0053.62 Y 0153.46 E 0328.04
G1 X 0053.62 Y 0153.46 E 0345.31
 G1 X 0123.82 Y 0094.54 E 0346.37
G1 X 0123.82 Y 0094.54 E 0347.02
 G1 X 0116.42 Y 0090.31 E 0348.07
G1 X 0116.42 Y 0090.31 E 0348.90
 G1 X 0125.59 Y 0092.43 E 0349.96
G0  F600.00 Z000.60
;INSOLE EDGES
G1 X 0054.82 Y 0047.95 E 0353.69
 G1 X 0065.26 Y 0026.37 E 0354.75
G1 X 0051.03 Y 0023.70 E 0357.73
 G1 X 0049.09 Y 0043.81 E 0358.79
G1 X 0066.82 Y 0060.11 E 0362.92
 G1 X 0082.67 Y 0039.59 E 0363.98
G1 X 0061.00 Y 0054.29 E 0369.85
 G1 X 0032.15 Y 0073.52 E 0370.91
G1 X 0061.00 Y 0054.29 E 0371.50
 G1 X 0066.82 Y 0060.11 E 0372.56
G1 X 0060.64 Y 0053.68 E 0373.13
 G1 X 0054.82 Y 0047.95 E 0374.19
G1 X 0060.64 Y 0053.68 E 0378.25
 G1 X 0075.52 Y 0032.84 E 0379.31
G1 X 0060.64 Y 0053.68 E 0378.40
 G1 X 0061.00 Y 0054.29 E 0379.45
G1 X 0032.43 Y 0074.56 E 0378.61
 G1 X 0032.15 Y 0073.52 E 0379.67
G1 X 0032.43 Y 0074.56 E 0383.69
 G1 X 0008.34 Y 0082.59 E 0384.75
G1 X 0094.55 Y 0078.95 E 0388.06
 G1 X 0086.88 Y 0099.40 E 0389.12
G1 X 0101.25 Y 0092.51 E 0391.25
 G1 X 0086.88 Y 0099.40 E 0392.30
G1 X 0092.18 Y 0075.89 E 0392.02
 G1 X 0094.55 Y 0078.95 E 0393.08
G1 X 0085.06 Y 0072.16 E 0396.40
 G1 X 0101.05 Y 0057.17 E 0397.46
G1 X 0085.06 Y 0072.16 E 0398.01
 G1 X 0092.18 Y 0075.89 E 0399.07
G1 X 0029.92 Y 0069.43 E 0398.94
 G1 X 0032.15 Y 0073.52 E 0400.00
G1 X 0006.71 Y 0070.04 E 0403.58
 G1 X 0029.92 Y 0069.43 E 0404.64
G1 X 0040.33 Y 0038.94 E 0405.59
 G1 X 0049.09 Y 0043.81 E 0406.65
G1 X 0040.33 Y 0038.94 E 0408.94
 G1 X 0039.71 Y 0022.19 E 0410.00
G1 X 0085.70 Y 0100.65 E 0409.28
 G1 X 0086.88 Y 0099.40 E 0410.34
G1 X 0085.70 Y 0100.65 E 0409.31
 G1 X 0085.73 Y 0100.78 E 0410.37
G1 X 0051.68 Y 0134.81 E 0412.39
 G1 X 0048.11 Y 0149.79 E 0413.45
G1 X 0049.48 Y 0133.32 E 0415.32
 G1 X 0040.81 Y 0145.15 E 0416.38
G1 X 0049.48 Y 0133.32 E 0415.85
 G1 X 0051.68 Y 0134.81 E 0416.91
G1 X 0065.91 Y 0115.43 E 0420.78
 G1 X 0085.73 Y 0100.78 E 0421.84
G1 X 0071.19 Y 0123.57 E 0422.72
 G1 X 0065.91 Y 0115.43 E 0423.78
G1 X 0091.81 Y 0111.88 E 0427.47
 G1 X 0071.19 Y 0123.57 E 0428.52
G1 X 0090.97 Y 0108.84 E 0429.39
 G1 X 0085.73 Y 0100.78 E 0430.45
G1 X 0090.97 Y 0108.84 E 0430.02
 G1 X 0091.81 Y 0111.88 E 0431.08
G1 X 0101.25 Y 0102.35 E 0431.99
 G1 X 0101.25 Y 0092.51 E 0433.05
G1 X 0101.25 Y 0102.35 E 0434.42
 G1 X 0090.97 Y 0108.84 E 0435.48
G1 X 0105.65 Y 0101.89 E 0435.30
 G1 X 0101.25 Y 0102.35 E 0436.36
G1 X 0109.80 Y 0106.31 E 0436.52
 G1 X 0105.65 Y 0101.89 E 0437.58
G1 X 0096.73 Y 0117.28 E 0437.98
 G1 X 0091.81 Y 0111.88 E 0439.04
G1 X 0011.35 Y 0100.82 E 0442.37
 G1 X 0032.69 Y 0095.62 E 0443.43
G1 X 0073.14 Y 0084.81 E 0447.14
 G1 X 0053.47 Y 0098.27 E 0448.20
G1 X 0073.15 Y 0068.32 E 0452.63
 G1 X 0092.55 Y 0048.91 E 0453.69
G1 X 0073.82 Y 0069.68 E 0454.93
 G1 X 0085.06 Y 0072.16 E 0455.99
G1 X 0073.82 Y 0069.68 E 0455.23
 G1 X 0073.15 Y 0068.32 E 0456.29
G1 X 0072.39 Y 0075.37 E 0457.13
 G1 X 0073.14 Y 0084.81 E 0458.19
G1 X 0072.39 Y 0075.37 E 0458.30
 G1 X 0073.82 Y 0069.68 E 0459.36
G1 X 0045.44 Y 0090.24 E 0460.57
 G1 X 0053.47 Y 0098.27 E 0461.63
G1 X 0045.44 Y 0090.24 E 0466.73
 G1 X 0072.39 Y 0075.37 E 0467.79
G1 X 0037.23 Y 0087.03 E 0468.67
 G1 X 0032.69 Y 0095.62 E 0469.73
G1 X 0037.23 Y 0087.03 E 0470.44
 G1 X 0045.44 Y 0090.24 E 0471.50
G1 X 0101.82 Y 0092.00 E 0470.59
 G1 X 0101.25 Y 0092.51 E 0471.65
G1 X 0121.06 Y 0095.34 E 0470.88
 G1 X 0122.45 Y 0095.70 E 0471.93
G1 X 0106.81 Y 0096.69 E 0471.94
 G1 X 0105.65 Y 0101.89 E 0473.00
G1 X 0106.81 Y 0096.69 E 0473.31
 G1 X 0101.82 Y 0092.00 E 0474.37
G1 X 0106.81 Y 0096.69 E 0476.17
 G1 X 0121.06 Y 0095.34 E 0477.23
G1 X 0105.53 Y 0085.72 E 0479.83
 G1 X 0121.06 Y 0095.34 E 0480.88
G1 X 0103.14 Y 0085.72 E 0481.11
 G1 X 0101.82 Y 0092.00 E 0482.17
G1 X 0103.14 Y 0085.72 E 0481.59
 G1 X 0105.53 Y 0085.72 E 0482.65
G1 X 0099.78 Y 0081.73 E 0482.77
 G1 X 0094.55 Y 0078.95 E 0483.83
G1 X 0099.78 Y 0081.73 E 0483.82
 G1 X 0103.14 Y 0085.72 E 0484.87
G1 X 0106.64 Y 0065.20 E 0487.41
 G1 X 0092.18 Y 0075.89 E 0488.47
G1 X 0111.23 Y 0071.80 E 0490.44
 G1 X 0099.78 Y 0081.73 E 0491.50
G1 X 0115.96 Y 0078.59 E 0492.97
 G1 X 0105.53 Y 0085.72 E 0494.03
G1 X 0007.58 Y 0049.47 E 0496.61
 G1 X 0025.55 Y 0052.34 E 0497.67
G1 X 0029.72 Y 0067.55 E 0496.99
 G1 X 0029.92 Y 0069.43 E 0498.05
G1 X 0027.34 Y 0059.67 E 0501.08
 G1 X 0006.91 Y 0058.78 E 0502.14
G1 X 0027.34 Y 0059.67 E 0502.72
 G1 X 0029.72 Y 0067.55 E 0503.78
G1 X 0027.34 Y 0057.16 E 0503.75
 G1 X 0025.55 Y 0052.34 E 0504.81
G1 X 0027.34 Y 0057.16 E 0504.25
 G1 X 0027.34 Y 0059.67 E 0505.31
G1 X 0049.64 Y 0044.55 E 0504.44
 G1 X 0049.09 Y 0043.81 E 0505.50
G1 X 0049.64 Y 0044.55 E 0509.56
 G1 X 0027.34 Y 0057.16 E 0510.62
G1 X 0054.72 Y 0047.91 E 0509.58
 G1 X 0054.82 Y 0047.95 E 0510.64
G1 X 0054.72 Y 0047.91 E 0515.94
 G1 X 0029.72 Y 0067.55 E 0517.00
G1 X 0054.72 Y 0047.91 E 0517.16
 G1 X 0049.64 Y 0044.55 E 0518.22
G1 X 0031.40 Y 0035.98 E 0519.55
 G1 X 0030.41 Y 0024.09 E 0520.60
G1 X 0040.29 Y 0038.95 E 0519.55
 G1 X 0040.33 Y 0038.94 E 0520.61
G1 X 0040.29 Y 0038.95 E 0521.43
 G1 X 0031.40 Y 0035.98 E 0522.49
G1 X 0025.58 Y 0051.55 E 0521.59
 G1 X 0025.55 Y 0052.34 E 0522.64
G1 X 0025.58 Y 0051.55 E 0525.46
 G1 X 0040.29 Y 0038.95 E 0526.52
G1 X 0024.24 Y 0046.41 E 0528.36
 G1 X 0011.55 Y 0039.44 E 0529.41
G1 X 0024.24 Y 0046.41 E 0529.42
 G1 X 0025.58 Y 0051.55 E 0530.48
G1 X 0026.01 Y 0038.68 E 0531.81
 G1 X 0017.77 Y 0030.02 E 0532.87
G1 X 0026.01 Y 0038.68 E 0533.01
 G1 X 0031.40 Y 0035.98 E 0534.07
G1 X 0026.01 Y 0038.68 E 0534.60
 G1 X 0024.24 Y 0046.41 E 0535.66
G1 X 0075.07 Y 0089.68 E 0535.65
 G1 X 0073.14 Y 0084.81 E 0536.71
G1 X 0079.61 Y 0095.65 E 0537.22
 G1 X 0085.70 Y 0100.65 E 0538.28
G1 X 0079.61 Y 0095.65 E 0538.72
 G1 X 0075.07 Y 0089.68 E 0539.78
G1 X 0052.46 Y 0135.02 E 0538.88
 G1 X 0051.68 Y 0134.81 E 0539.94
G1 X 0071.28 Y 0124.56 E 0539.08
 G1 X 0071.19 Y 0123.57 E 0540.14
G1 X 0071.28 Y 0124.56 E 0543.39
 G1 X 0052.46 Y 0135.02 E 0544.45
G1 X 0063.20 Y 0145.42 E 0546.38
 G1 X 0052.46 Y 0135.02 E 0547.44
G1 X 0076.75 Y 0134.05 E 0548.57
 G1 X 0071.28 Y 0124.56 E 0549.63
G1 X 0055.37 Y 0102.51 E 0549.50
 G1 X 0053.47 Y 0098.27 E 0550.56
G1 X 0059.03 Y 0105.72 E 0554.04
 G1 X 0075.07 Y 0089.68 E 0555.10
G1 X 0059.03 Y 0105.72 E 0555.01
 G1 X 0055.37 Y 0102.51 E 0556.07
G1 X 0061.34 Y 0109.35 E 0559.58
 G1 X 0079.61 Y 0095.65 E 0560.64
G1 X 0061.34 Y 0109.35 E 0560.44
 G1 X 0059.03 Y 0105.72 E 0561.50
G1 X 0037.88 Y 0115.23 E 0564.76
 G1 X 0055.37 Y 0102.51 E 0565.82
G1 X 0040.78 Y 0120.76 E 0566.01
 G1 X 0037.88 Y 0115.23 E 0567.07
G1 X 0062.15 Y 0111.60 E 0566.49
 G1 X 0061.34 Y 0109.35 E 0567.55
G1 X 0062.15 Y 0111.60 E 0571.14
 G1 X 0040.78 Y 0120.76 E 0572.20
G1 X 0064.43 Y 0114.45 E 0571.50
 G1 X 0065.91 Y 0115.43 E 0572.55
G1 X 0064.43 Y 0114.45 E 0572.23
 G1 X 0062.15 Y 0111.60 E 0573.28
G1 X 0047.22 Y 0130.58 E 0572.94
 G1 X 0049.48 Y 0133.32 E 0573.99
G1 X 0047.22 Y 0130.58 E 0577.65
 G1 X 0064.43 Y 0114.45 E 0578.71
G1 X 0041.73 Y 0127.17 E 0580.53
 G1 X 0029.75 Y 0135.15 E 0581.59
G1 X 0041.73 Y 0127.17 E 0581.83
 G1 X 0040.78 Y 0120.76 E 0582.89
G1 X 0041.73 Y 0127.17 E 0583.12
