;FLAVOR:UltiGCode
; TIME:400
;MATERIAL:160
; MATERIAL2: 0
;NOZZLE_DIAMETER:0.400000
;NOZZLE_DIAMETER2:  0.400000
;Layer count: 98
;LAYER: 0
M107
INSOLE EDGES
G0  F600  Z0.3
G0 X 0000.04 Y 0000.07 G1 X 0000.04 Y 0000.07 E 0000.00
G0 X 0136.85 Y 0149.08 G1 X 0136.88 Y 0149.10 E 0000.01
G0 X 0160.01 Y 0135.63 G1 X 0136.85 Y 0149.08 E 0003.22
G0 X 0000.04 Y 0000.07 G1 X 0000.04 Y 0000.07 E 0003.22
G0 X 0162.71 Y 0151.75 G1 X 0136.88 Y 0149.10 E 0006.33
G0 X 0000.04 Y 0000.07 G1 X 0000.04 Y 0000.07 E 0006.33
G0 X 0000.04 Y 0000.07 G1 X 0000.04 Y 0000.07 E 0006.33
G0 X 0137.98 Y 0150.49 G1 X 0136.88 Y 0149.10 E 0006.55
G0 X 0137.98 Y 0150.49 G1 X 0148.75 Y 0172.79 E 0009.52
G0 X 0000.04 Y 0000.07 G1 X 0000.04 Y 0000.07 E 0009.52
G0 X 0000.04 Y 0000.07 G1 X 0000.04 Y 0000.07 E 0009.52
G0 X 0157.76 Y 0164.33 G1 X 0137.98 Y 0150.49 E 0012.42
G0 X 0135.21 Y 0148.62 G1 X 0136.85 Y 0149.08 E 0012.62
G0 X 0134.97 Y 0149.45 G1 X 0135.81 Y 0175.32 E 0015.72
G0 X 0134.97 Y 0149.45 G1 X 0135.21 Y 0148.62 E 0015.83
G0 X 0000.04 Y 0000.07 G1 X 0000.04 Y 0000.07 E 0015.83
G0 X 0122.54 Y 0170.39 G1 X 0134.97 Y 0149.45 E 0018.75
G0 X 0000.04 Y 0000.07 G1 X 0000.04 Y 0000.07 E 0018.75
G0 X 0000.04 Y 0000.07 G1 X 0000.04 Y 0000.07 E 0018.75
G0 X 0132.69 Y 0145.92 G1 X 0135.21 Y 0148.62 E 0019.19
G0 X 0151.83 Y 0125.77 G1 X 0132.69 Y 0145.92 E 0022.53
G0 X 0000.04 Y 0000.07 G1 X 0000.04 Y 0000.07 E 0022.53
G0 X 0000.04 Y 0000.07 G1 X 0000.04 Y 0000.07 E 0022.53
G0 X 0000.04 Y 0000.07 G1 X 0000.04 Y 0000.07 E 0022.53
G0 X 0000.04 Y 0000.07 G1 X 0000.04 Y 0000.07 E 0022.53
G0 X 0040.01 Y 0042.54 G1 X 0061.60 Y 0020.95 E 0026.19
G0 X 0000.04 Y 0000.07 G1 X 0000.04 Y 0000.07 E 0026.19
G0 X 0000.04 Y 0000.07 G1 X 0000.04 Y 0000.07 E 0026.19
G0 X 0000.04 Y 0000.07 G1 X 0000.04 Y 0000.07 E 0026.19
G0 X 0000.04 Y 0000.07 G1 X 0000.04 Y 0000.07 E 0026.19
G0 X 0035.15 Y 0035.78 G1 X 0040.01 Y 0042.54 E 0027.19
G0 X 0035.15 Y 0035.78 G1 X 0049.20 Y 0011.59 E 0030.55
G0 X 0034.77 Y 0035.50 G1 X 0004.37 Y 0039.46 E 0034.23
G0 X 0034.77 Y 0035.50 G1 X 0035.15 Y 0035.78 E 0034.29
G0 X 0030.08 Y 0027.49 G1 X 0005.11 Y 0019.37 E 0037.44
G0 X 0030.08 Y 0027.49 G1 X 0034.77 Y 0035.50 E 0038.55
G0 X 0029.96 Y 0025.67 G1 X 0021.55 Y 0004.37 E 0041.30
G0 X 0029.96 Y 0025.67 G1 X 0038.70 Y 0006.61 E 0043.81
G0 X 0029.96 Y 0025.67 G1 X 0030.08 Y 0027.49 E 0044.03
G0 X 0000.04 Y 0000.07 G1 X 0000.04 Y 0000.07 E 0044.03
G0 X 0080.29 Y 0042.42 G1 X 0050.71 Y 0061.25 E 0048.24
G0 X 0000.04 Y 0000.07 G1 X 0000.04 Y 0000.07 E 0048.24
G0 X 0000.04 Y 0000.07 G1 X 0000.04 Y 0000.07 E 0048.24
G0 X 0041.74 Y 0047.88 G1 X 0040.01 Y 0042.54 E 0048.91
G0 X 0041.74 Y 0047.88 G1 X 0008.13 Y 0055.89 E 0053.06
G0 X 0047.20 Y 0055.69 G1 X 0071.28 Y 0030.65 E 0057.23
G0 X 0047.20 Y 0055.69 G1 X 0041.74 Y 0047.88 E 0058.37
G0 X 0048.22 Y 0058.21 G1 X 0050.71 Y 0061.25 E 0058.84
G0 X 0048.22 Y 0058.21 G1 X 0015.53 Y 0072.02 E 0063.10
G0 X 0048.22 Y 0058.21 G1 X 0047.20 Y 0055.69 E 0063.43
G0 X 0000.04 Y 0000.07 G1 X 0000.04 Y 0000.07 E 0063.43
G0 X 0000.04 Y 0000.07 G1 X 0000.04 Y 0000.07 E 0063.43
G0 X 0069.74 Y 0086.44 G1 X 0075.22 Y 0092.30 E 0064.39
G0 X 0069.59 Y 0086.14 G1 X 0095.77 Y 0066.51 E 0068.32
G0 X 0069.59 Y 0086.14 G1 X 0069.74 Y 0086.44 E 0068.36
G0 X 0000.04 Y 0000.07 G1 X 0000.04 Y 0000.07 E 0068.36
G0 X 0053.66 Y 0067.41 G1 X 0050.71 Y 0061.25 E 0069.18
G0 X 0053.66 Y 0067.41 G1 X 0026.31 Y 0086.85 E 0073.20
G0 X 0059.47 Y 0073.86 G1 X 0088.45 Y 0054.79 E 0077.37
G0 X 0059.47 Y 0073.86 G1 X 0053.66 Y 0067.41 E 0078.41
G0 X 0059.96 Y 0074.86 G1 X 0069.59 Y 0086.14 E 0080.19
G0 X 0059.96 Y 0074.86 G1 X 0059.47 Y 0073.86 E 0080.32
G0 X 0048.19 Y 0108.74 G1 X 0069.74 Y 0086.44 E 0084.04
G0 X 0037.43 Y 0098.99 G1 X 0059.96 Y 0074.86 E 0088.01
G0 X 0000.04 Y 0000.07 G1 X 0000.04 Y 0000.07 E 0088.01
G0 X 0000.04 Y 0000.07 G1 X 0000.04 Y 0000.07 E 0088.01
G0 X 0131.55 Y 0145.14 G1 X 0132.69 Y 0145.92 E 0088.17
G0 X 0110.08 Y 0161.76 G1 X 0131.55 Y 0145.14 E 0091.43
G0 X 0000.04 Y 0000.07 G1 X 0000.04 Y 0000.07 E 0091.43
G0 X 0000.04 Y 0000.07 G1 X 0000.04 Y 0000.07 E 0091.43
G0 X 0125.57 Y 0137.39 G1 X 0131.55 Y 0145.14 E 0092.61
G0 X 0125.57 Y 0137.39 G1 X 0142.63 Y 0116.06 E 0095.88
G0 X 0115.47 Y 0131.35 G1 X 0103.03 Y 0155.34 E 0099.13
G0 X 0115.47 Y 0131.35 G1 X 0125.57 Y 0137.39 E 0100.54
G0 X 0112.98 Y 0128.86 G1 X 0115.47 Y 0131.35 E 0100.96
G0 X 0112.07 Y 0127.35 G1 X 0101.05 Y 0118.42 E 0102.66
G0 X 0112.07 Y 0127.35 G1 X 0131.11 Y 0106.34 E 0106.06
G0 X 0112.07 Y 0127.35 G1 X 0112.98 Y 0128.86 E 0106.28
G0 X 0084.14 Y 0138.07 G1 X 0101.05 Y 0118.42 E 0109.39
G0 X 0093.93 Y 0147.04 G1 X 0112.98 Y 0128.86 E 0112.55
G0 X 0000.04 Y 0000.07 G1 X 0000.04 Y 0000.07 E 0112.55
G0 X 0100.39 Y 0117.24 G1 X 0101.05 Y 0118.42 E 0112.71
G0 X 0089.66 Y 0107.78 G1 X 0075.07 Y 0129.67 E 0115.87
G0 X 0089.66 Y 0107.78 G1 X 0100.39 Y 0117.24 E 0117.58
G0 X 0089.40 Y 0107.45 G1 X 0089.66 Y 0107.78 E 0117.63
G0 X 0103.34 Y 0078.24 G1 X 0075.22 Y 0092.30 E 0121.41
G0 X 0109.75 Y 0087.10 G1 X 0089.40 Y 0107.45 E 0124.86
G0 X 0000.04 Y 0000.07 G1 X 0000.04 Y 0000.07 E 0124.86
G0 X 0119.82 Y 0096.46 G1 X 0100.39 Y 0117.24 E 0128.28
G0 X 0000.04 Y 0000.07 G1 X 0000.04 Y 0000.07 E 0128.28
G0 X 0076.57 Y 0094.84 G1 X 0075.22 Y 0092.30 E 0128.62
G0 X 0083.07 Y 0102.80 G1 X 0089.40 Y 0107.45 E 0129.56
G0 X 0083.07 Y 0102.80 G1 X 0076.57 Y 0094.84 E 0130.80
G0 X 0000.04 Y 0000.07 G1 X 0000.04 Y 0000.07 E 0130.80
G0 X 0066.55 Y 0123.25 G1 X 0083.07 Y 0102.80 E 0133.95
G0 X 0000.04 Y 0000.07 G1 X 0000.04 Y 0000.07 E 0133.95
G0 X 0000.04 Y 0000.07 G1 X 0000.04 Y 0000.07 E 0133.95
G0 X 0000.04 Y 0000.07 G1 X 0000.04 Y 0000.07 E 0133.95
G0 X 0000.04 Y 0000.07 G1 X 0000.04 Y 0000.07 E 0133.95
G0 X 0000.04 Y 0000.07 G1 X 0000.04 Y 0000.07 E 0133.95
G0 X 0057.75 Y 0116.81 G1 X 0076.57 Y 0094.84 E 0137.42
G0 X 0000.04 Y 0000.07 G1 X 0000.04 Y 0000.07 E 0137.42
;CONTOUR EDGES
G0 X 0108.66 Y 0086.08 G1 X 0123.82 Y 0100.19 E 0139.91
G0 X 0123.82 Y 0100.19 G1 X 0146.40 Y 0119.24 E 0143.45
G0 X 0146.40 Y 0119.24 G1 X 0161.92 Y 0137.94 E 0146.37
G0 X 0161.92 Y 0137.94 G1 X 0162.98 Y 0156.63 E 0148.62
G0 X 0162.98 Y 0156.63 G1 X 0156.28 Y 0166.51 E 0150.05
G0 X 0156.28 Y 0166.51 G1 X 0147.81 Y 0173.57 E 0151.37
G0 X 0147.81 Y 0173.57 G1 X 0133.35 Y 0175.68 E 0153.12
G0 X 0133.35 Y 0175.68 G1 X 0116.06 Y 0167.22 E 0155.43
G0 X 0116.06 Y 0167.22 G1 X 0088.19 Y 0141.82 E 0159.96
G0 X 0088.19 Y 0141.82 G1 X 0074.08 Y 0128.76 E 0162.27
G0 X 0074.08 Y 0128.76 G1 X 0054.33 Y 0114.30 E 0165.20
G0 X 0054.33 Y 0114.30 G1 X 0035.63 Y 0097.37 E 0168.23
G0 X 0035.63 Y 0097.37 G1 X 0021.87 Y 0081.84 E 0170.72
G0 X 0021.87 Y 0081.84 G1 X 0010.94 Y 0064.91 E 0173.14
G0 X 0010.94 Y 0064.91 G1 X 0004.59 Y 0044.45 E 0175.71
G0 X 0004.59 Y 0044.45 G1 X 0003.88 Y 0028.22 E 0177.66
G0 X 0003.88 Y 0028.22 G1 X 0005.64 Y 0015.52 E 0179.20
G0 X 0005.64 Y 0015.52 G1 X 0010.58 Y 0009.17 E 0180.16
G0 X 0010.58 Y 0009.17 G1 X 0018.70 Y 0004.94 E 0181.26
G0 X 0018.70 Y 0004.94 G1 X 0025.75 Y 0003.53 E 0182.13
G0 X 0025.75 Y 0003.53 G1 X 0035.28 Y 0005.29 E 0183.29
G0 X 0035.28 Y 0005.29 G1 X 0044.45 Y 0008.82 E 0184.47
G0 X 0044.45 Y 0008.82 G1 X 0052.92 Y 0013.76 E 0185.64
G0 X 0052.92 Y 0013.76 G1 X 0063.15 Y 0022.22 E 0187.24
G0 X 0063.15 Y 0022.22 G1 X 0072.67 Y 0032.10 E 0188.88
G0 X 0072.67 Y 0032.10 G1 X 0083.61 Y 0046.92 E 0191.09
G0 X 0083.61 Y 0046.92 G1 X 0092.07 Y 0060.68 E 0193.03
G0 X 0092.07 Y 0060.68 G1 X 0101.25 Y 0075.14 E 0195.09
G0 X 0101.25 Y 0075.14 G1 X 0108.66 Y 0086.08 E 0196.67
M107
G10
G0 F9000 X110.000 Y126.900 Z15.000
M25 ;Stop reading from this point on.
;CURA_PROFILE_STRING:eNrtWt1v2zYQfxWC/RF8bLHGk2S7aWvoYe2SvqRDgXhYmxeBlmiLi0QKJBXHCfy/746iFNlRunQN1o/JDw70093xePe7j6LO6YapOGN8lZnIHwXemuZ5bDKeXAimNUATTzGjaGK4FDETdJGzaK4q5mmZ8zTOrYGuwnNvycFGyoTmZhOFvlcqLkysS8bSaNo8GlaUTFFTKRaFQQ8aRj3guA+c9IHTFlywdOe0I9/TVVlKZaK5rJKMixVZVDxPy5wa5uH3UqoipmnGNNw6+l0K1qjEaUXzmF0ZVdl3r6XJvDUvWWzkmqnohOaadYD4UuZVwaJg6kl5zWKdcZanTgwCRQsGLqYc/hpQD0cvpndhDMUdcNwHTvrAaRdc5nIdBb4/8j0hr69zcIlfs/1E18maoFQHpYWshIkmo2kXtRFxr4Lnu+8KLmJ4uGR5FOy+SWSxgMhHv+b5ngIvdiIMPoRdiUyWiHkLaYwsdqg39iwd/XjNU5PFS9CQCi/rycVfLAEOcnEBwZCXTOW0tJ4j66de7aO7djDt2K8JXr8ALnNh2V0/o5gtA6oY7WBcaGb8feCqAyRS5jY4rn44UAQST5sSS12NXXCgXM4Fg3jZ+DpoRctojKfbpyZoORMrkzn/0diyAl9ddU8d5u7od57igl5ZpHVrCSiUC/DWgRmjUOx8aRx16+o3kIvucx2zW3bnsQs18h8KkFs+QkVCgbG4jmVjwNWX2ZQsOoUb6xaiYgVN53lbtrG1XLs3bcGrDRBeGyoSZPNRi193YZQvuaI5ct4dzIsSqqCQqWtsC3CzG3PIuqJLiDJVKy5sHO2zFdElTZDG4wZdUM32SHmLo4rlJlSDk4cOxRQwdVcpPNp/e6tqSxVfUq6ABzF0bMupDoYWwhrQldNHouloD+07s9XYOXHJr6D0lOLAzrgSth3gqIB0xbQO3KdEFi0pujIQElkyES+40X0C0AVwjFxCnA03tlU7sTKvIBmQIeDQKmrqO2EYr/gqOgz2oA1APwENlBmtEkz17CznCUsJNa/ITUo3W/w2DP5gMW4PZq+p5gmBujVwqn5FTjGApC4mUMk7k3NL/oSLgszN7vjckhNgKsDdiQim3+NcIngOvHOTqz70xLVpAqFJa8W6bdf9dVt0oHV99qqjlUhtulr4DFbfBS99cnbTOw63ZPaHgGZs9Y0kNE3JRlaKyLUgIEs6sgQpgeb8l625h5q6Y+ZtGBD3mUFbUBDsS5pXTB+8BW+bN3QBnaUyjJQSggeUgmQcvHsRtgKQIGKHRQrZwUMbBSzoA3D1qJXE7JM1NxkxGSPQ/YhcLsGPF+SDTz766Ae0K/Lhl49oCNogYSLV0OO0FTr3nbModH5XJCDnATQHcnLTnSZbp4BHNqsFSTEiwbQo4K4hOW6ve/uZXTMlrZK7XErq7o7nnIS+T47HexpOkIyLAi5GsIUTcC25+PxDCF1RLuxRu5cB7laG2Mzj2lQAyemKESnI6ZvfiE4UYwKCHhyR905mNBp5EKOm6o5FSt6+camZkLMerzp3wXqDolQ2Ue+CiX+vgpVLLWFvVcgTvkQGkgyuQLh5CpEIyAM+M8UgVdB3dmgH4Tg+hJCMff8flO2yUrOsKU1KoMmRevIRHKQYP5Sot7BnyCc4lcGYIFoWDFNoOaMgxlA0ll8/+6Mp+DAlHw5DoCx+9bPtnFSlO5JCxBuPWm/YJRNQIWj2lv6fvNR9pfEMvLWO4oZAuCYSCOJ8X9MN1OrkfqPasBK6gq4L8eX9PvT3gRn0IAl3wvEAdFttPVvj4dDiH6HFT768xdeTYh70WQr/lSn/686db32azO/pbrOzNa5PeApqhtASmg77JRMo8PsnUOA/6giyZx3e9P+Tc3sw9x906SVX2nxP136kyRveM3rn/mdOX9QJhok9TOzHn9jjYWIPE/v/ObHDBw2vsfqhJvawpgxryt6aMv6aawrqhMNqM6w2j7/aTIbV5ptabcLHW22GLek/25LGD5qdE3D6B1oYhtVwWA2H1VCkk+9tNUSd8bBODuvk466T7gct3V8xtODtf7HWv9fZEbJIR0IxmLEJGyX6MvIgCXWbOXa8bBfWuvksmFlDZdpLJ5VSNsQNhTEBNtGAtOgzss5Aoa10u0wUVW54mbftQunRwWyeQVDxNAwurDeW5ZZFaHT+RDz1ICbmW/KPLrEAG/f+BnWV/Wo=
