;FLAVOR:UltiGCode
; TIME:400
;MATERIAL:160
; MATERIAL2: 0
;NOZZLE_DIAMETER:0.400000
;NOZZLE_DIAMETER2:  0.400000
;Layer count: 98
;LAYER: 0
M107
;INSOLE EDGES
G0  F600  Z0.3
G0 X 0000.04 Y 0000.07 G1 X 0000.04 Y 0000.07 E 0000.00
G0 X 0136.96 Y 0148.10 G1 X 0143.66 Y 0174.16 E 0003.23
G0 X 0000.04 Y 0000.07 G1 X 0000.04 Y 0000.07 E 0003.23
G0 X 0000.04 Y 0000.07 G1 X 0000.04 Y 0000.07 E 0003.23
G0 X 0158.28 Y 0163.03 G1 X 0136.96 Y 0148.10 E 0006.35
G0 X 0000.04 Y 0000.07 G1 X 0000.04 Y 0000.07 E 0006.35
G0 X 0000.04 Y 0000.07 G1 X 0000.04 Y 0000.07 E 0006.35
G0 X 0000.04 Y 0000.07 G1 X 0000.04 Y 0000.07 E 0006.35
G0 X 0039.33 Y 0042.17 G1 X 0057.14 Y 0017.39 E 0010.01
G0 X 0000.04 Y 0000.07 G1 X 0000.04 Y 0000.07 E 0010.01
G0 X 0075.27 Y 0093.16 G1 X 0082.68 Y 0098.28 E 0011.09
G0 X 0075.27 Y 0093.16 G1 X 0072.03 Y 0086.90 E 0011.94
G0 X 0025.64 Y 0024.77 G1 X 0023.94 Y 0003.86 E 0014.46
G0 X 0000.04 Y 0000.07 G1 X 0000.04 Y 0000.07 E 0014.46
G0 X 0005.56 Y 0018.08 G1 X 0025.64 Y 0024.77 E 0017.00
G0 X 0044.15 Y 0050.04 G1 X 0039.33 Y 0042.17 E 0018.10
G0 X 0044.15 Y 0050.04 G1 X 0011.05 Y 0062.91 E 0022.36
G0 X 0044.70 Y 0050.54 G1 X 0069.40 Y 0028.83 E 0026.31
G0 X 0044.70 Y 0050.54 G1 X 0044.15 Y 0050.04 E 0026.40
G0 X 0050.29 Y 0060.48 G1 X 0044.70 Y 0050.54 E 0027.77
G0 X 0000.04 Y 0000.07 G1 X 0000.04 Y 0000.07 E 0027.77
G0 X 0018.52 Y 0076.77 G1 X 0050.29 Y 0060.48 E 0032.05
G0 X 0050.99 Y 0061.14 G1 X 0050.29 Y 0060.48 E 0032.17
G0 X 0097.25 Y 0068.98 G1 X 0072.03 Y 0086.90 E 0035.88
G0 X 0000.04 Y 0000.07 G1 X 0000.04 Y 0000.07 E 0035.88
G0 X 0000.04 Y 0000.07 G1 X 0000.04 Y 0000.07 E 0035.88
G0 X 0080.25 Y 0042.38 G1 X 0050.99 Y 0061.14 E 0040.05
G0 X 0000.04 Y 0000.07 G1 X 0000.04 Y 0000.07 E 0040.05
G0 X 0000.04 Y 0000.07 G1 X 0000.04 Y 0000.07 E 0040.05
G0 X 0000.04 Y 0000.07 G1 X 0000.04 Y 0000.07 E 0040.05
G0 X 0000.04 Y 0000.07 G1 X 0000.04 Y 0000.07 E 0040.05
G0 X 0000.04 Y 0000.07 G1 X 0000.04 Y 0000.07 E 0040.05
G0 X 0136.91 Y 0148.03 G1 X 0136.96 Y 0148.10 E 0040.06
G0 X 0136.91 Y 0148.03 G1 X 0161.04 Y 0139.41 E 0043.14
G0 X 0055.50 Y 0069.49 G1 X 0050.99 Y 0061.14 E 0044.28
G0 X 0060.25 Y 0073.49 G1 X 0089.01 Y 0056.09 E 0048.31
G0 X 0060.25 Y 0073.49 G1 X 0055.50 Y 0069.49 E 0049.05
G0 X 0064.33 Y 0080.18 G1 X 0072.03 Y 0086.90 E 0050.28
G0 X 0064.33 Y 0080.18 G1 X 0060.25 Y 0073.49 E 0051.22
G0 X 0043.83 Y 0103.84 G1 X 0064.33 Y 0080.18 E 0054.98
G0 X 0000.04 Y 0000.07 G1 X 0000.04 Y 0000.07 E 0054.98
G0 X 0000.04 Y 0000.07 G1 X 0000.04 Y 0000.07 E 0054.98
G0 X 0030.95 Y 0092.15 G1 X 0055.50 Y 0069.49 E 0058.99
G0 X 0000.04 Y 0000.07 G1 X 0000.04 Y 0000.07 E 0058.99
G0 X 0089.44 Y 0109.55 G1 X 0082.68 Y 0098.28 E 0060.56
G0 X 0000.04 Y 0000.07 G1 X 0000.04 Y 0000.07 E 0060.56
G0 X 0057.41 Y 0114.89 G1 X 0075.27 Y 0093.16 E 0063.94
G0 X 0072.54 Y 0127.75 G1 X 0089.44 Y 0109.55 E 0066.92
G0 X 0000.04 Y 0000.07 G1 X 0000.04 Y 0000.07 E 0066.92
G0 X 0115.62 Y 0129.15 G1 X 0116.28 Y 0130.54 E 0067.11
G0 X 0103.57 Y 0122.39 G1 X 0086.38 Y 0140.09 E 0070.07
G0 X 0103.57 Y 0122.39 G1 X 0115.62 Y 0129.15 E 0071.72
G0 X 0097.98 Y 0113.96 G1 X 0089.44 Y 0109.55 E 0072.88
G0 X 0097.98 Y 0113.96 G1 X 0103.57 Y 0122.39 E 0074.09
G0 X 0106.85 Y 0083.17 G1 X 0082.68 Y 0098.28 E 0077.51
G0 X 0116.51 Y 0094.40 G1 X 0097.98 Y 0113.96 E 0080.74
G0 X 0000.04 Y 0000.07 G1 X 0000.04 Y 0000.07 E 0080.74
G0 X 0131.80 Y 0107.44 G1 X 0115.62 Y 0129.15 E 0083.99
G0 X 0000.04 Y 0000.07 G1 X 0000.04 Y 0000.07 E 0083.99
G0 X 0036.68 Y 0039.94 G1 X 0039.33 Y 0042.17 E 0084.41
G0 X 0000.04 Y 0000.07 G1 X 0000.04 Y 0000.07 E 0084.41
G0 X 0006.99 Y 0051.20 G1 X 0036.68 Y 0039.94 E 0088.22
G0 X 0000.04 Y 0000.07 G1 X 0000.04 Y 0000.07 E 0088.22
G0 X 0000.04 Y 0000.07 G1 X 0000.04 Y 0000.07 E 0088.22
G0 X 0031.89 Y 0033.12 G1 X 0025.64 Y 0024.77 E 0089.47
G0 X 0031.89 Y 0033.12 G1 X 0004.00 Y 0035.84 E 0092.83
G0 X 0031.97 Y 0033.16 G1 X 0042.66 Y 0008.81 E 0096.02
G0 X 0031.97 Y 0033.16 G1 X 0036.68 Y 0039.94 E 0097.02
G0 X 0031.97 Y 0033.16 G1 X 0031.89 Y 0033.12 E 0097.03
G0 X 0000.04 Y 0000.07 G1 X 0000.04 Y 0000.07 E 0097.03
G0 X 0098.48 Y 0150.98 G1 X 0116.28 Y 0130.54 E 0100.28
G0 X 0000.04 Y 0000.07 G1 X 0000.04 Y 0000.07 E 0100.28
G0 X 0127.60 Y 0141.57 G1 X 0116.28 Y 0130.54 E 0102.17
G0 X 0127.60 Y 0141.57 G1 X 0108.84 Y 0160.32 E 0105.36
G0 X 0129.58 Y 0142.43 G1 X 0147.50 Y 0120.81 E 0108.73
G0 X 0129.58 Y 0142.43 G1 X 0127.60 Y 0141.57 E 0108.99
G0 X 0133.77 Y 0146.84 G1 X 0136.91 Y 0148.03 E 0109.39
G0 X 0133.77 Y 0146.84 G1 X 0129.58 Y 0142.43 E 0110.12
G0 X 0000.04 Y 0000.07 G1 X 0000.04 Y 0000.07 E 0110.12
G0 X 0000.04 Y 0000.07 G1 X 0000.04 Y 0000.07 E 0110.12
G0 X 0123.40 Y 0172.78 G1 X 0133.77 Y 0146.84 E 0113.47
;CONTOUR EDGES
G0 X 0026.46 Y 0003.53 G1 X 0036.34 Y 0006.00 E 0114.69
G0 X 0036.34 Y 0006.00 G1 X 0049.04 Y 0011.64 E 0116.36
G0 X 0049.04 Y 0011.64 G1 X 0059.97 Y 0019.40 E 0117.97
G0 X 0059.97 Y 0019.40 G1 X 0075.49 Y 0034.92 E 0120.60
G0 X 0075.49 Y 0034.92 G1 X 0102.31 Y 0076.91 E 0126.58
G0 X 0102.31 Y 0076.91 G1 X 0112.54 Y 0091.02 E 0128.67
G0 X 0112.54 Y 0091.02 G1 X 0153.11 Y 0125.59 E 0135.07
G0 X 0153.11 Y 0125.59 G1 X 0164.04 Y 0144.64 E 0137.71
G0 X 0164.04 Y 0144.64 G1 X 0162.63 Y 0154.87 E 0138.94
G0 X 0162.63 Y 0154.87 G1 X 0156.99 Y 0165.45 E 0140.38
G0 X 0156.99 Y 0165.45 G1 X 0149.93 Y 0172.51 E 0141.58
G0 X 0149.93 Y 0172.51 G1 X 0136.52 Y 0176.04 E 0143.24
G0 X 0136.52 Y 0176.04 G1 X 0125.24 Y 0174.27 E 0144.62
G0 X 0125.24 Y 0174.27 G1 X 0115.71 Y 0166.51 E 0146.09
G0 X 0115.71 Y 0166.51 G1 X 0080.08 Y 0134.41 E 0151.85
G0 X 0080.08 Y 0134.41 G1 X 0064.91 Y 0121.00 E 0154.27
G0 X 0064.91 Y 0121.00 G1 X 0034.57 Y 0096.31 E 0158.97
G0 X 0034.57 Y 0096.31 G1 X 0020.46 Y 0080.08 E 0161.55
G0 X 0020.46 Y 0080.08 G1 X 0011.99 Y 0065.62 E 0163.56
G0 X 0011.99 Y 0065.62 G1 X 0006.00 Y 0048.33 E 0165.76
G0 X 0006.00 Y 0048.33 G1 X 0003.17 Y 0030.69 E 0167.90
G0 X 0003.17 Y 0030.69 G1 X 0005.64 Y 0017.64 E 0169.49
G0 X 0005.64 Y 0017.64 G1 X 0009.88 Y 0009.88 E 0170.55
G0 X 0009.88 Y 0009.88 G1 X 0017.29 Y 0005.64 E 0171.58
G0 X 0017.29 Y 0005.64 G1 X 0021.17 Y 0004.23 E 0172.07
G0 X 0021.17 Y 0004.23 G1 X 0026.46 Y 0003.53 E 0172.71
M107
G10
G0 F9000 X110.000 Y126.900 Z15.000
M25 ;Stop reading from this point on.
;CURA_PROFILE_STRING:eNrtWt1v2zYQfxWC/RF8bLHGk2S7aWvoYe2SvqRDgXhYmxeBlmiLi0QKJBXHCfy/746iFNlRunQN1o/JDw70093xePe7j6LO6YapOGN8lZnIHwXemuZ5bDKeXAimNUATTzGjaGK4FDETdJGzaK4q5mmZ8zTOrYGuwnNvycFGyoTmZhOFvlcqLkysS8bSaNo8GlaUTFFTKRaFQQ8aRj3guA+c9IHTFlywdOe0I9/TVVlKZaK5rJKMixVZVDxPy5wa5uH3UqoipmnGNNw6+l0K1qjEaUXzmF0ZVdl3r6XJvDUvWWzkmqnohOaadYD4UuZVwaJg6kl5zWKdcZanTgwCRQsGLqYc/hpQD0cvpndhDMUdcNwHTvrAaRdc5nIdBb4/8j0hr69zcIlfs/1E18maoFQHpYWshIkmo2kXtRFxr4Lnu+8KLmJ4uGR5FOy+SWSxgMhHv+b5ngIvdiIMPoRdiUyWiHkLaYwsdqg39iwd/XjNU5PFS9CQCi/rycVfLAEOcnEBwZCXTOW0tJ4j66de7aO7djDt2K8JXr8ALnNh2V0/o5gtA6oY7WBcaGb8feCqAyRS5jY4rn44UAQST5sSS12NXXCgXM4Fg3jZ+DpoRctojKfbpyZoORMrkzn/0diyAl9ddU8d5u7od57igl5ZpHVrCSiUC/DWgRmjUOx8aRx16+o3kIvucx2zW3bnsQs18h8KkFs+QkVCgbG4jmVjwNWX2ZQsOoUb6xaiYgVN53lbtrG1XLs3bcGrDRBeGyoSZPNRi193YZQvuaI5ct4dzIsSqqCQqWtsC3CzG3PIuqJLiDJVKy5sHO2zFdElTZDG4wZdUM32SHmLo4rlJlSDk4cOxRQwdVcpPNp/e6tqSxVfUq6ABzF0bMupDoYWwhrQldNHouloD+07s9XYOXHJr6D0lOLAzrgSth3gqIB0xbQO3KdEFi0pujIQElkyES+40X0C0AVwjFxCnA03tlU7sTKvIBmQIeDQKmrqO2EYr/gqOgz2oA1APwENlBmtEkz17CznCUsJNa/ITUo3W/w2DP5gMW4PZq+p5gmBujVwqn5FTjGApC4mUMk7k3NL/oSLgszN7vjckhNgKsDdiQim3+NcIngOvHOTqz70xLVpAqFJa8W6bdf9dVt0oHV99qqjlUhtulr4DFbfBS99cnbTOw63ZPaHgGZs9Y0kNE3JRlaKyLUgIEs6sgQpgeb8l625h5q6Y+ZtGBD3mUFbUBDsS5pXTB+8BW+bN3QBnaUyjJQSggeUgmQcvHsRtgKQIGKHRQrZwUMbBSzoA3D1qJXE7JM1NxkxGSPQ/YhcLsGPF+SDTz766Ae0K/Lhl49oCNogYSLV0OO0FTr3nbModH5XJCDnATQHcnLTnSZbp4BHNqsFSTEiwbQo4K4hOW6ve/uZXTMlrZK7XErq7o7nnIS+T47HexpOkIyLAi5GsIUTcC25+PxDCF1RLuxRu5cB7laG2Mzj2lQAyemKESnI6ZvfiE4UYwKCHhyR905mNBp5EKOm6o5FSt6+camZkLMerzp3wXqDolQ2Ue+CiX+vgpVLLWFvVcgTvkQGkgyuQLh5CpEIyAM+M8UgVdB3dmgH4Tg+hJCMff8flO2yUrOsKU1KoMmRevIRHKQYP5Sot7BnyCc4lcGYIFoWDFNoOaMgxlA0ll8/+6Mp+DAlHw5DoCx+9bPtnFSlO5JCxBuPWm/YJRNQIWj2lv6fvNR9pfEMvLWO4oZAuCYSCOJ8X9MN1OrkfqPasBK6gq4L8eX9PvT3gRn0IAl3wvEAdFttPVvj4dDiH6HFT768xdeTYh70WQr/lSn/686db32azO/pbrOzNa5PeApqhtASmg77JRMo8PsnUOA/6giyZx3e9P+Tc3sw9x906SVX2nxP136kyRveM3rn/mdOX9QJhok9TOzHn9jjYWIPE/v/ObHDBw2vsfqhJvawpgxryt6aMv6aawrqhMNqM6w2j7/aTIbV5ptabcLHW22GLek/25LGD5qdE3D6B1oYhtVwWA2H1VCkk+9tNUSd8bBODuvk466T7gct3V8xtODtf7HWv9fZEbJIR0IxmLEJGyX6MvIgCXWbOXa8bBfWuvksmFlDZdpLJ5VSNsQNhTEBNtGAtOgzss5Aoa10u0wUVW54mbftQunRwWyeQVDxNAwurDeW5ZZFaHT+RDz1ICbmW/KPLrEAG/f+BnWV/Wo=
