;FLAVOR:UltiGCode
; TIME:400
;MATERIAL:160
; MATERIAL2: 0
;NOZZLE_DIAMETER:0.400000
;NOZZLE_DIAMETER2:  0.400000
;Layer count: 98
;LAYER: 0
M107
G0  F600 Z0.3
;INSOLE EDGES
G1 X 0038.58 Y 0054.79 E 0001.01
 G1 X 0028.67 Y 0057.82 E 0002.07
G1 X 0158.50 Y 0128.79 E 0005.95
 G1 X 0137.74 Y 0142.17 E 0007.01
G1 X 0146.20 Y 0185.53 E 0006.23
 G1 X 0145.87 Y 0186.87 E 0007.29
G1 X 0146.20 Y 0185.53 E 0015.07
 G1 X 0137.74 Y 0142.17 E 0016.12
G1 X 0146.20 Y 0185.53 E 0024.86
 G1 X 0179.44 Y 0149.57 E 0025.92
G1 X 0050.21 Y 0024.41 E 0031.36
 G1 X 0038.58 Y 0054.79 E 0032.42
G1 X 0071.77 Y 0047.61 E 0034.39
 G1 X 0073.97 Y 0032.64 E 0035.45
G1 X 0076.97 Y 0051.08 E 0036.89
 G1 X 0084.90 Y 0041.39 E 0037.95
G1 X 0076.97 Y 0051.08 E 0038.14
 G1 X 0071.77 Y 0047.61 E 0039.20
G1 X 0092.40 Y 0048.58 E 0038.33
 G1 X 0092.98 Y 0047.86 E 0039.39
G1 X 0078.12 Y 0057.46 E 0039.72
 G1 X 0074.71 Y 0063.52 E 0040.78
G1 X 0077.12 Y 0051.28 E 0039.77
 G1 X 0076.97 Y 0051.08 E 0040.83
G1 X 0077.12 Y 0051.28 E 0041.02
 G1 X 0078.12 Y 0057.46 E 0042.08
G1 X 0090.87 Y 0049.97 E 0041.44
 G1 X 0092.40 Y 0048.58 E 0042.49
G1 X 0090.87 Y 0049.97 E 0044.20
 G1 X 0077.12 Y 0051.28 E 0045.26
G1 X 0087.47 Y 0059.40 E 0046.11
 G1 X 0078.12 Y 0057.46 E 0047.16
G1 X 0087.47 Y 0059.40 E 0048.11
 G1 X 0090.87 Y 0049.97 E 0049.17
G1 X 0045.63 Y 0057.00 E 0049.59
 G1 X 0038.58 Y 0054.79 E 0050.65
G1 X 0060.84 Y 0051.71 E 0055.36
 G1 X 0052.35 Y 0024.14 E 0056.42
G1 X 0060.84 Y 0051.71 E 0058.58
 G1 X 0045.63 Y 0057.00 E 0059.64
G1 X 0061.25 Y 0051.87 E 0060.85
 G1 X 0071.77 Y 0047.61 E 0061.91
G1 X 0061.25 Y 0051.87 E 0060.94
 G1 X 0060.84 Y 0051.71 E 0062.00
G1 X 0065.72 Y 0063.06 E 0062.74
 G1 X 0074.71 Y 0063.52 E 0063.80
G1 X 0065.72 Y 0063.06 E 0065.15
 G1 X 0061.25 Y 0051.87 E 0066.21
G1 X 0079.01 Y 0070.48 E 0066.78
 G1 X 0074.71 Y 0063.52 E 0067.84
G1 X 0077.34 Y 0072.88 E 0067.37
 G1 X 0079.01 Y 0070.48 E 0068.43
G1 X 0075.52 Y 0086.99 E 0070.21
 G1 X 0077.34 Y 0072.88 E 0071.27
G1 X 0064.20 Y 0102.68 E 0075.95
 G1 X 0092.85 Y 0103.34 E 0077.00
G1 X 0064.20 Y 0102.68 E 0079.82
 G1 X 0075.52 Y 0086.99 E 0080.87
G1 X 0056.13 Y 0105.49 E 0081.53
 G1 X 0064.20 Y 0102.68 E 0082.58
G1 X 0056.75 Y 0076.59 E 0086.03
 G1 X 0045.63 Y 0057.00 E 0087.09
G1 X 0056.75 Y 0076.59 E 0090.45
 G1 X 0050.94 Y 0097.92 E 0091.51
G1 X 0058.58 Y 0074.85 E 0093.21
 G1 X 0065.72 Y 0063.06 E 0094.27
G1 X 0058.58 Y 0074.85 E 0096.98
 G1 X 0077.34 Y 0072.88 E 0098.04
G1 X 0058.58 Y 0074.85 E 0097.49
 G1 X 0056.75 Y 0076.59 E 0098.55
G1 X 0133.70 Y 0141.66 E 0098.30
 G1 X 0137.74 Y 0142.17 E 0099.36
G1 X 0100.30 Y 0145.91 E 0099.31
 G1 X 0096.61 Y 0149.36 E 0100.37
G1 X 0100.30 Y 0145.91 E 0106.04
 G1 X 0133.70 Y 0141.66 E 0107.10
G1 X 0104.39 Y 0116.06 E 0109.48
 G1 X 0092.85 Y 0103.34 E 0110.54
G1 X 0104.39 Y 0116.06 E 0115.51
 G1 X 0100.30 Y 0145.91 E 0116.56
G1 X 0121.83 Y 0107.23 E 0122.79
 G1 X 0133.70 Y 0141.66 E 0123.85
G1 X 0121.83 Y 0107.23 E 0126.70
 G1 X 0104.39 Y 0116.06 E 0127.76
G1 X 0101.75 Y 0083.31 E 0131.09
 G1 X 0092.85 Y 0103.34 E 0132.14
G1 X 0091.99 Y 0079.67 E 0134.69
 G1 X 0075.52 Y 0086.99 E 0135.75
G1 X 0091.99 Y 0079.67 E 0136.77
 G1 X 0101.75 Y 0083.31 E 0137.83
G1 X 0084.98 Y 0070.61 E 0137.97
 G1 X 0079.01 Y 0070.48 E 0139.03
G1 X 0084.98 Y 0070.61 E 0140.26
 G1 X 0091.99 Y 0079.67 E 0141.32
G1 X 0089.61 Y 0063.68 E 0141.21
 G1 X 0087.47 Y 0059.40 E 0142.27
G1 X 0089.61 Y 0063.68 E 0142.88
 G1 X 0084.98 Y 0070.61 E 0143.94
G1 X 0129.20 Y 0099.50 E 0145.02
 G1 X 0121.83 Y 0107.23 E 0146.08
G1 X 0104.94 Y 0081.53 E 0145.75
 G1 X 0101.75 Y 0083.31 E 0146.81
G1 X 0104.94 Y 0081.53 E 0147.70
 G1 X 0114.29 Y 0078.73 E 0148.76
G1 X 0093.39 Y 0063.68 E 0148.46
 G1 X 0089.61 Y 0063.68 E 0149.52
G1 X 0093.39 Y 0063.68 E 0152.71
 G1 X 0104.94 Y 0081.53 E 0153.77
G1 X 0095.76 Y 0062.00 E 0155.48
 G1 X 0092.40 Y 0048.58 E 0156.53
G1 X 0095.76 Y 0062.00 E 0156.61
 G1 X 0101.10 Y 0060.15 E 0157.67
G1 X 0095.76 Y 0062.00 E 0157.19
 G1 X 0093.39 Y 0063.68 E 0158.25
;CONTOUR EDGES
G1 X 0031.40 Y 0037.39 E 0159.80
 G1 X 0039.51 Y 0027.16 E 0160.86
G1 X 0039.51 Y 0027.16 E 0162.35
 G1 X 0051.86 Y 0023.99 E 0163.41
G1 X 0051.86 Y 0023.99 E 0166.19
 G1 X 0070.20 Y 0029.63 E 0167.25
G1 X 0070.20 Y 0029.63 E 0172.06
 G1 X 0093.13 Y 0047.98 E 0173.12
G1 X 0093.13 Y 0047.98 E 0176.70
 G1 X 0105.83 Y 0067.38 E 0177.76
G1 X 0105.83 Y 0067.38 E 0181.54
 G1 X 0120.30 Y 0086.78 E 0182.60
G1 X 0120.30 Y 0086.78 E 0186.71
 G1 X 0135.11 Y 0107.95 E 0187.76
G1 X 0135.11 Y 0107.95 E 0191.11
 G1 X 0151.69 Y 0122.41 E 0192.16
G1 X 0151.69 Y 0122.41 E 0195.75
 G1 X 0168.63 Y 0138.29 E 0196.81
G1 X 0168.63 Y 0138.29 E 0200.44
 G1 X 0184.86 Y 0155.22 E 0201.50
G1 X 0184.86 Y 0155.22 E 0204.00
 G1 X 0187.32 Y 0172.86 E 0205.06
G1 X 0187.32 Y 0172.86 E 0208.54
 G1 X 0174.98 Y 0191.91 E 0209.60
G1 X 0174.98 Y 0191.91 E 0211.90
 G1 X 0158.75 Y 0196.14 E 0212.95
G1 X 0158.75 Y 0196.14 E 0222.76
 G1 X 0114.65 Y 0164.39 E 0223.82
G1 X 0114.65 Y 0164.39 E 0233.78
 G1 X 0072.32 Y 0129.12 E 0234.84
G1 X 0072.32 Y 0129.12 E 0249.01
 G1 X 0029.28 Y 0066.32 E 0250.07
G1 X 0029.28 Y 0066.32 E 0251.98
 G1 X 0028.22 Y 0051.51 E 0253.04
G1 X 0028.22 Y 0051.51 E 0253.18
 G1 X 0028.22 Y 0045.51 E 0254.24
G1 X 0028.22 Y 0045.51 E 0254.92
 G1 X 0031.40 Y 0037.39 E 0255.98
G0  F600 Z0.6
;INSOLE EDGES
G1 X 0038.58 Y 0054.79 E 0256.99
 G1 X 0028.67 Y 0057.82 E 0258.05
G1 X 0158.50 Y 0128.79 E 0261.93
 G1 X 0137.74 Y 0142.17 E 0262.99
G1 X 0146.20 Y 0185.53 E 0262.21
 G1 X 0145.87 Y 0186.87 E 0263.27
G1 X 0146.20 Y 0185.53 E 0271.05
 G1 X 0137.74 Y 0142.17 E 0272.10
G1 X 0146.20 Y 0185.53 E 0280.84
 G1 X 0179.44 Y 0149.57 E 0281.90
G1 X 0050.21 Y 0024.41 E 0287.35
 G1 X 0038.58 Y 0054.79 E 0288.40
G1 X 0071.77 Y 0047.61 E 0290.37
 G1 X 0073.97 Y 0032.64 E 0291.43
G1 X 0076.97 Y 0051.08 E 0292.88
 G1 X 0084.90 Y 0041.39 E 0293.93
G1 X 0076.97 Y 0051.08 E 0294.12
 G1 X 0071.77 Y 0047.61 E 0295.18
G1 X 0092.40 Y 0048.58 E 0294.31
 G1 X 0092.98 Y 0047.86 E 0295.37
G1 X 0078.12 Y 0057.46 E 0295.70
 G1 X 0074.71 Y 0063.52 E 0296.76
G1 X 0077.12 Y 0051.28 E 0295.75
 G1 X 0076.97 Y 0051.08 E 0296.81
G1 X 0077.12 Y 0051.28 E 0297.00
 G1 X 0078.12 Y 0057.46 E 0298.06
G1 X 0090.87 Y 0049.97 E 0297.42
 G1 X 0092.40 Y 0048.58 E 0298.48
G1 X 0090.87 Y 0049.97 E 0300.18
 G1 X 0077.12 Y 0051.28 E 0301.24
G1 X 0087.47 Y 0059.40 E 0302.09
 G1 X 0078.12 Y 0057.46 E 0303.15
G1 X 0087.47 Y 0059.40 E 0304.09
 G1 X 0090.87 Y 0049.97 E 0305.15
G1 X 0045.63 Y 0057.00 E 0305.57
 G1 X 0038.58 Y 0054.79 E 0306.63
G1 X 0060.84 Y 0051.71 E 0311.34
 G1 X 0052.35 Y 0024.14 E 0312.40
G1 X 0060.84 Y 0051.71 E 0314.56
 G1 X 0045.63 Y 0057.00 E 0315.62
G1 X 0061.25 Y 0051.87 E 0316.83
 G1 X 0071.77 Y 0047.61 E 0317.89
G1 X 0061.25 Y 0051.87 E 0316.92
 G1 X 0060.84 Y 0051.71 E 0317.98
G1 X 0065.72 Y 0063.06 E 0318.72
 G1 X 0074.71 Y 0063.52 E 0319.78
G1 X 0065.72 Y 0063.06 E 0321.13
 G1 X 0061.25 Y 0051.87 E 0322.19
G1 X 0079.01 Y 0070.48 E 0322.77
 G1 X 0074.71 Y 0063.52 E 0323.82
G1 X 0077.34 Y 0072.88 E 0323.35
 G1 X 0079.01 Y 0070.48 E 0324.41
G1 X 0075.52 Y 0086.99 E 0326.20
 G1 X 0077.34 Y 0072.88 E 0327.25
G1 X 0064.20 Y 0102.68 E 0331.93
 G1 X 0092.85 Y 0103.34 E 0332.98
G1 X 0064.20 Y 0102.68 E 0335.80
 G1 X 0075.52 Y 0086.99 E 0336.85
G1 X 0056.13 Y 0105.49 E 0337.51
 G1 X 0064.20 Y 0102.68 E 0338.56
G1 X 0056.75 Y 0076.59 E 0342.01
 G1 X 0045.63 Y 0057.00 E 0343.07
G1 X 0056.75 Y 0076.59 E 0346.43
 G1 X 0050.94 Y 0097.92 E 0347.49
G1 X 0058.58 Y 0074.85 E 0349.19
 G1 X 0065.72 Y 0063.06 E 0350.25
G1 X 0058.58 Y 0074.85 E 0352.96
 G1 X 0077.34 Y 0072.88 E 0354.02
G1 X 0058.58 Y 0074.85 E 0353.47
 G1 X 0056.75 Y 0076.59 E 0354.53
G1 X 0133.70 Y 0141.66 E 0354.28
 G1 X 0137.74 Y 0142.17 E 0355.34
G1 X 0100.30 Y 0145.91 E 0355.29
 G1 X 0096.61 Y 0149.36 E 0356.35
G1 X 0100.30 Y 0145.91 E 0362.03
 G1 X 0133.70 Y 0141.66 E 0363.08
G1 X 0104.39 Y 0116.06 E 0365.46
 G1 X 0092.85 Y 0103.34 E 0366.52
G1 X 0104.39 Y 0116.06 E 0371.49
 G1 X 0100.30 Y 0145.91 E 0372.55
G1 X 0121.83 Y 0107.23 E 0378.77
 G1 X 0133.70 Y 0141.66 E 0379.83
G1 X 0121.83 Y 0107.23 E 0382.68
 G1 X 0104.39 Y 0116.06 E 0383.74
G1 X 0101.75 Y 0083.31 E 0387.07
 G1 X 0092.85 Y 0103.34 E 0388.13
G1 X 0091.99 Y 0079.67 E 0390.67
 G1 X 0075.52 Y 0086.99 E 0391.73
G1 X 0091.99 Y 0079.67 E 0392.76
 G1 X 0101.75 Y 0083.31 E 0393.81
G1 X 0084.98 Y 0070.61 E 0393.95
 G1 X 0079.01 Y 0070.48 E 0395.01
G1 X 0084.98 Y 0070.61 E 0396.24
 G1 X 0091.99 Y 0079.67 E 0397.30
G1 X 0089.61 Y 0063.68 E 0397.20
 G1 X 0087.47 Y 0059.40 E 0398.25
G1 X 0089.61 Y 0063.68 E 0398.86
 G1 X 0084.98 Y 0070.61 E 0399.92
G1 X 0129.20 Y 0099.50 E 0401.00
 G1 X 0121.83 Y 0107.23 E 0402.06
G1 X 0104.94 Y 0081.53 E 0401.73
 G1 X 0101.75 Y 0083.31 E 0402.79
G1 X 0104.94 Y 0081.53 E 0403.68
 G1 X 0114.29 Y 0078.73 E 0404.74
G1 X 0093.39 Y 0063.68 E 0404.44
 G1 X 0089.61 Y 0063.68 E 0405.50
G1 X 0093.39 Y 0063.68 E 0408.69
 G1 X 0104.94 Y 0081.53 E 0409.75
G1 X 0095.76 Y 0062.00 E 0411.46
 G1 X 0092.40 Y 0048.58 E 0412.52
G1 X 0095.76 Y 0062.00 E 0412.59
 G1 X 0101.10 Y 0060.15 E 0413.65
G1 X 0095.76 Y 0062.00 E 0413.17
 G1 X 0093.39 Y 0063.68 E 0414.23
;CONTOUR EDGES
G1 X 0031.40 Y 0037.39 E 0415.78
 G1 X 0039.51 Y 0027.16 E 0416.84
G1 X 0039.51 Y 0027.16 E 0418.33
 G1 X 0051.86 Y 0023.99 E 0419.39
G1 X 0051.86 Y 0023.99 E 0422.17
 G1 X 0070.20 Y 0029.63 E 0423.23
G1 X 0070.20 Y 0029.63 E 0428.04
 G1 X 0093.13 Y 0047.98 E 0429.10
G1 X 0093.13 Y 0047.98 E 0432.68
 G1 X 0105.83 Y 0067.38 E 0433.74
G1 X 0105.83 Y 0067.38 E 0437.52
 G1 X 0120.30 Y 0086.78 E 0438.58
G1 X 0120.30 Y 0086.78 E 0442.69
 G1 X 0135.11 Y 0107.95 E 0443.74
G1 X 0135.11 Y 0107.95 E 0447.09
 G1 X 0151.69 Y 0122.41 E 0448.15
G1 X 0151.69 Y 0122.41 E 0451.73
 G1 X 0168.63 Y 0138.29 E 0452.79
G1 X 0168.63 Y 0138.29 E 0456.42
 G1 X 0184.86 Y 0155.22 E 0457.48
G1 X 0184.86 Y 0155.22 E 0459.98
 G1 X 0187.32 Y 0172.86 E 0461.04
G1 X 0187.32 Y 0172.86 E 0464.52
 G1 X 0174.98 Y 0191.91 E 0465.58
G1 X 0174.98 Y 0191.91 E 0467.88
 G1 X 0158.75 Y 0196.14 E 0468.93
G1 X 0158.75 Y 0196.14 E 0478.74
 G1 X 0114.65 Y 0164.39 E 0479.80
G1 X 0114.65 Y 0164.39 E 0489.77
 G1 X 0072.32 Y 0129.12 E 0490.82
G1 X 0072.32 Y 0129.12 E 0504.99
 G1 X 0029.28 Y 0066.32 E 0506.05
G1 X 0029.28 Y 0066.32 E 0507.96
 G1 X 0028.22 Y 0051.51 E 0509.02
G1 X 0028.22 Y 0051.51 E 0509.16
 G1 X 0028.22 Y 0045.51 E 0510.22
G1 X 0028.22 Y 0045.51 E 0510.90
 G1 X 0031.40 Y 0037.39 E 0511.96
G0  F600 Z0.90000004
;INSOLE EDGES
G1 X 0038.58 Y 0054.79 E 0512.98
 G1 X 0028.67 Y 0057.82 E 0514.03
G1 X 0158.50 Y 0128.79 E 0517.91
 G1 X 0137.74 Y 0142.17 E 0518.97
G1 X 0146.20 Y 0185.53 E 0518.19
 G1 X 0145.87 Y 0186.87 E 0519.25
G1 X 0146.20 Y 0185.53 E 0527.03
 G1 X 0137.74 Y 0142.17 E 0528.09
G1 X 0146.20 Y 0185.53 E 0536.82
 G1 X 0179.44 Y 0149.57 E 0537.88
G1 X 0050.21 Y 0024.41 E 0543.33
 G1 X 0038.58 Y 0054.79 E 0544.39
G1 X 0071.77 Y 0047.61 E 0546.35
 G1 X 0073.97 Y 0032.64 E 0547.41
G1 X 0076.97 Y 0051.08 E 0548.86
 G1 X 0084.90 Y 0041.39 E 0549.92
G1 X 0076.97 Y 0051.08 E 0550.10
 G1 X 0071.77 Y 0047.61 E 0551.16
G1 X 0092.40 Y 0048.58 E 0550.29
 G1 X 0092.98 Y 0047.86 E 0551.35
G1 X 0078.12 Y 0057.46 E 0551.68
 G1 X 0074.71 Y 0063.52 E 0552.74
G1 X 0077.12 Y 0051.28 E 0551.73
 G1 X 0076.97 Y 0051.08 E 0552.79
G1 X 0077.12 Y 0051.28 E 0552.98
 G1 X 0078.12 Y 0057.46 E 0554.04
G1 X 0090.87 Y 0049.97 E 0553.40
 G1 X 0092.40 Y 0048.58 E 0554.46
G1 X 0090.87 Y 0049.97 E 0556.16
 G1 X 0077.12 Y 0051.28 E 0557.22
G1 X 0087.47 Y 0059.40 E 0558.07
 G1 X 0078.12 Y 0057.46 E 0559.13
G1 X 0087.47 Y 0059.40 E 0560.07
 G1 X 0090.87 Y 0049.97 E 0561.13
G1 X 0045.63 Y 0057.00 E 0561.55
 G1 X 0038.58 Y 0054.79 E 0562.61
G1 X 0060.84 Y 0051.71 E 0567.32
 G1 X 0052.35 Y 0024.14 E 0568.38
G1 X 0060.84 Y 0051.71 E 0570.54
 G1 X 0045.63 Y 0057.00 E 0571.60
G1 X 0061.25 Y 0051.87 E 0572.81
 G1 X 0071.77 Y 0047.61 E 0573.87
G1 X 0061.25 Y 0051.87 E 0572.90
 G1 X 0060.84 Y 0051.71 E 0573.96
G1 X 0065.72 Y 0063.06 E 0574.70
 G1 X 0074.71 Y 0063.52 E 0575.76
G1 X 0065.72 Y 0063.06 E 0577.11
 G1 X 0061.25 Y 0051.87 E 0578.17
G1 X 0079.01 Y 0070.48 E 0578.75
 G1 X 0074.71 Y 0063.52 E 0579.80
G1 X 0077.34 Y 0072.88 E 0579.33
 G1 X 0079.01 Y 0070.48 E 0580.39
G1 X 0075.52 Y 0086.99 E 0582.18
 G1 X 0077.34 Y 0072.88 E 0583.23
G1 X 0064.20 Y 0102.68 E 0587.91
 G1 X 0092.85 Y 0103.34 E 0588.97
G1 X 0064.20 Y 0102.68 E 0591.78
 G1 X 0075.52 Y 0086.99 E 0592.84
G1 X 0056.13 Y 0105.49 E 0593.49
 G1 X 0064.20 Y 0102.68 E 0594.55
G1 X 0056.75 Y 0076.59 E 0597.99
 G1 X 0045.63 Y 0057.00 E 0599.05
G1 X 0056.75 Y 0076.59 E 0602.41
 G1 X 0050.94 Y 0097.92 E 0603.47
G1 X 0058.58 Y 0074.85 E 0605.17
 G1 X 0065.72 Y 0063.06 E 0606.23
G1 X 0058.58 Y 0074.85 E 0608.94
 G1 X 0077.34 Y 0072.88 E 0610.00
G1 X 0058.58 Y 0074.85 E 0609.45
 G1 X 0056.75 Y 0076.59 E 0610.51
G1 X 0133.70 Y 0141.66 E 0610.26
 G1 X 0137.74 Y 0142.17 E 0611.32
G1 X 0100.30 Y 0145.91 E 0611.27
 G1 X 0096.61 Y 0149.36 E 0612.33
G1 X 0100.30 Y 0145.91 E 0618.01
 G1 X 0133.70 Y 0141.66 E 0619.06
G1 X 0104.39 Y 0116.06 E 0621.44
 G1 X 0092.85 Y 0103.34 E 0622.50
G1 X 0104.39 Y 0116.06 E 0627.47
 G1 X 0100.30 Y 0145.91 E 0628.53
G1 X 0121.83 Y 0107.23 E 0634.75
 G1 X 0133.70 Y 0141.66 E 0635.81
G1 X 0121.83 Y 0107.23 E 0638.66
 G1 X 0104.39 Y 0116.06 E 0639.72
G1 X 0101.75 Y 0083.31 E 0643.05
 G1 X 0092.85 Y 0103.34 E 0644.11
G1 X 0091.99 Y 0079.67 E 0646.65
 G1 X 0075.52 Y 0086.99 E 0647.71
G1 X 0091.99 Y 0079.67 E 0648.74
 G1 X 0101.75 Y 0083.31 E 0649.80
G1 X 0084.98 Y 0070.61 E 0649.93
 G1 X 0079.01 Y 0070.48 E 0650.99
G1 X 0084.98 Y 0070.61 E 0652.22
 G1 X 0091.99 Y 0079.67 E 0653.28
G1 X 0089.61 Y 0063.68 E 0653.18
 G1 X 0087.47 Y 0059.40 E 0654.24
G1 X 0089.61 Y 0063.68 E 0654.84
 G1 X 0084.98 Y 0070.61 E 0655.90
G1 X 0129.20 Y 0099.50 E 0656.98
 G1 X 0121.83 Y 0107.23 E 0658.04
G1 X 0104.94 Y 0081.53 E 0657.71
 G1 X 0101.75 Y 0083.31 E 0658.77
G1 X 0104.94 Y 0081.53 E 0659.66
 G1 X 0114.29 Y 0078.73 E 0660.72
G1 X 0093.39 Y 0063.68 E 0660.42
 G1 X 0089.61 Y 0063.68 E 0661.48
G1 X 0093.39 Y 0063.68 E 0664.67
 G1 X 0104.94 Y 0081.53 E 0665.73
G1 X 0095.76 Y 0062.00 E 0667.44
 G1 X 0092.40 Y 0048.58 E 0668.50
G1 X 0095.76 Y 0062.00 E 0668.57
 G1 X 0101.10 Y 0060.15 E 0669.63
G1 X 0095.76 Y 0062.00 E 0669.15
 G1 X 0093.39 Y 0063.68 E 0670.21
;CONTOUR EDGES
G1 X 0031.40 Y 0037.39 E 0671.76
 G1 X 0039.51 Y 0027.16 E 0672.82
G1 X 0039.51 Y 0027.16 E 0674.31
 G1 X 0051.86 Y 0023.99 E 0675.37
G1 X 0051.86 Y 0023.99 E 0678.15
 G1 X 0070.20 Y 0029.63 E 0679.21
G1 X 0070.20 Y 0029.63 E 0684.02
 G1 X 0093.13 Y 0047.98 E 0685.08
G1 X 0093.13 Y 0047.98 E 0688.66
 G1 X 0105.83 Y 0067.38 E 0689.72
G1 X 0105.83 Y 0067.38 E 0693.50
 G1 X 0120.30 Y 0086.78 E 0694.56
G1 X 0120.30 Y 0086.78 E 0698.67
 G1 X 0135.11 Y 0107.95 E 0699.73
G1 X 0135.11 Y 0107.95 E 0703.07
 G1 X 0151.69 Y 0122.41 E 0704.13
G1 X 0151.69 Y 0122.41 E 0707.71
 G1 X 0168.63 Y 0138.29 E 0708.77
G1 X 0168.63 Y 0138.29 E 0712.40
 G1 X 0184.86 Y 0155.22 E 0713.46
G1 X 0184.86 Y 0155.22 E 0715.96
 G1 X 0187.32 Y 0172.86 E 0717.02
G1 X 0187.32 Y 0172.86 E 0720.50
 G1 X 0174.98 Y 0191.91 E 0721.56
G1 X 0174.98 Y 0191.91 E 0723.86
 G1 X 0158.75 Y 0196.14 E 0724.92
G1 X 0158.75 Y 0196.14 E 0734.73
 G1 X 0114.65 Y 0164.39 E 0735.78
G1 X 0114.65 Y 0164.39 E 0745.75
 G1 X 0072.32 Y 0129.12 E 0746.80
G1 X 0072.32 Y 0129.12 E 0760.97
 G1 X 0029.28 Y 0066.32 E 0762.03
G1 X 0029.28 Y 0066.32 E 0763.94
 G1 X 0028.22 Y 0051.51 E 0765.00
G1 X 0028.22 Y 0051.51 E 0765.14
 G1 X 0028.22 Y 0045.51 E 0766.20
G1 X 0028.22 Y 0045.51 E 0766.88
 G1 X 0031.40 Y 0037.39 E 0767.94
G0  F600 Z1.2
;INSOLE EDGES
G1 X 0038.58 Y 0054.79 E 0768.96
 G1 X 0028.67 Y 0057.82 E 0770.02
G1 X 0158.50 Y 0128.79 E 0773.90
 G1 X 0137.74 Y 0142.17 E 0774.95
G1 X 0146.20 Y 0185.53 E 0774.17
 G1 X 0145.87 Y 0186.87 E 0775.23
G1 X 0146.20 Y 0185.53 E 0783.01
 G1 X 0137.74 Y 0142.17 E 0784.07
G1 X 0146.20 Y 0185.53 E 0792.80
 G1 X 0179.44 Y 0149.57 E 0793.86
G1 X 0050.21 Y 0024.41 E 0799.31
 G1 X 0038.58 Y 0054.79 E 0800.37
