;FLAVOR:UltiGCode
; TIME:400
;MATERIAL:160
; MATERIAL2: 0
;NOZZLE_DIAMETER:0.400000
;NOZZLE_DIAMETER2:  0.400000
;Layer count: 98
;LAYER: 0
M107
G0  F600 Z0.3
;INSOLE EDGES
G1 X 0030.97 Y 0070.85 E 0958.24
 G1 X 0074.82 Y 0070.27 E 0959.30
G1 X 0057.41 Y 0035.45 E 0966.03
 G1 X 0074.82 Y 0070.27 E 0967.08
G1 X 0102.08 Y 0058.56 E 0969.60
 G1 X 0107.21 Y 0041.45 E 0970.66
G1 X 0152.91 Y 0091.65 E 0981.73
 G1 X 0102.08 Y 0058.56 E 0982.79
G1 X 0126.40 Y 0123.46 E 0989.89
 G1 X 0120.63 Y 0163.84 E 0990.95
G1 X 0150.74 Y 0115.16 E 0992.11
 G1 X 0158.23 Y 0106.98 E 0993.17
G1 X 0150.74 Y 0115.16 E 1003.53
 G1 X 0146.52 Y 0172.10 E 1004.59
G1 X 0150.74 Y 0115.16 E 1008.67
 G1 X 0126.40 Y 0123.46 E 1009.73
G1 X 0083.16 Y 0075.35 E 1010.62
 G1 X 0074.82 Y 0070.27 E 1011.68
G1 X 0085.51 Y 0075.28 E 1015.33
 G1 X 0102.08 Y 0058.56 E 1016.39
G1 X 0085.51 Y 0075.28 E 1015.80
 G1 X 0083.16 Y 0075.35 E 1016.86
G1 X 0094.55 Y 0089.97 E 1028.02
 G1 X 0155.10 Y 0097.97 E 1029.07
G1 X 0094.55 Y 0089.97 E 1031.47
 G1 X 0085.51 Y 0075.28 E 1032.53
G1 X 0098.60 Y 0125.65 E 1037.04
 G1 X 0126.40 Y 0123.46 E 1038.10
G1 X 0098.60 Y 0125.65 E 1044.22
 G1 X 0094.55 Y 0089.97 E 1045.28
G1 X 0050.16 Y 0113.67 E 1054.34
 G1 X 0083.16 Y 0075.35 E 1055.40
G1 X 0080.76 Y 0142.10 E 1059.19
 G1 X 0098.60 Y 0125.65 E 1060.25
;CONTOUR EDGES
G1 X 0185.08 Y 0184.41 E 1059.19
 G1 X 0185.08 Y 0184.41 E 1060.25
G1 X 0185.08 Y 0184.41 E 1074.07
 G1 X 0114.22 Y 0161.79 E 1075.13
G1 X 0114.22 Y 0161.79 E 1077.36
 G1 X 0099.72 Y 0153.99 E 1078.42
G1 X 0099.72 Y 0153.99 E 1081.28
 G1 X 0082.92 Y 0143.88 E 1082.34
G1 X 0082.92 Y 0143.88 E 1085.98
 G1 X 0064.80 Y 0128.97 E 1087.04
G1 X 0064.80 Y 0128.97 E 1090.06
 G1 X 0050.61 Y 0114.30 E 1091.12
G1 X 0050.61 Y 0114.30 E 1093.69
 G1 X 0040.03 Y 0099.56 E 1094.75
G1 X 0040.03 Y 0099.56 E 1098.17
 G1 X 0030.68 Y 0079.22 E 1099.22
G1 X 0030.68 Y 0079.22 E 1102.81
 G1 X 0031.49 Y 0056.03 E 1103.86
G1 X 0031.49 Y 0056.03 E 1105.96
 G1 X 0040.69 Y 0043.23 E 1107.02
G1 X 0040.69 Y 0043.23 E 1109.95
 G1 X 0058.80 Y 0034.80 E 1111.01
G1 X 0058.80 Y 0034.80 E 1115.74
 G1 X 0087.75 Y 0035.54 E 1116.80
G1 X 0087.75 Y 0035.54 E 1120.69
 G1 X 0111.39 Y 0042.71 E 1121.74
G1 X 0111.39 Y 0042.71 E 1121.36
 G1 X 0114.51 Y 0044.04 E 1122.42
G1 X 0114.51 Y 0044.04 E 1124.67
 G1 X 0129.31 Y 0051.43 E 1125.73
G1 X 0129.31 Y 0051.43 E 1127.82
 G1 X 0142.13 Y 0060.55 E 1128.88
G1 X 0142.13 Y 0060.55 E 1127.82
 G1 X 0142.13 Y 0060.55 E 1128.88
G0  F600 Z0.6
;INSOLE EDGES
G1 X 0030.97 Y 0070.85 E 1136.59
 G1 X 0074.82 Y 0070.27 E 1137.65
G1 X 0057.41 Y 0035.45 E 1144.38
 G1 X 0074.82 Y 0070.27 E 1145.44
G1 X 0102.08 Y 0058.56 E 1147.95
 G1 X 0107.21 Y 0041.45 E 1149.01
G1 X 0152.91 Y 0091.65 E 1160.08
 G1 X 0102.08 Y 0058.56 E 1161.14
G1 X 0126.40 Y 0123.46 E 1168.24
 G1 X 0120.63 Y 0163.84 E 1169.30
G1 X 0150.74 Y 0115.16 E 1170.46
 G1 X 0158.23 Y 0106.98 E 1171.52
G1 X 0150.74 Y 0115.16 E 1181.88
 G1 X 0146.52 Y 0172.10 E 1182.94
G1 X 0150.74 Y 0115.16 E 1187.02
 G1 X 0126.40 Y 0123.46 E 1188.08
G1 X 0083.16 Y 0075.35 E 1188.97
 G1 X 0074.82 Y 0070.27 E 1190.03
G1 X 0085.51 Y 0075.28 E 1193.68
 G1 X 0102.08 Y 0058.56 E 1194.74
G1 X 0085.51 Y 0075.28 E 1194.15
 G1 X 0083.16 Y 0075.35 E 1195.21
G1 X 0094.55 Y 0089.97 E 1206.37
 G1 X 0155.10 Y 0097.97 E 1207.43
G1 X 0094.55 Y 0089.97 E 1209.82
 G1 X 0085.51 Y 0075.28 E 1210.88
G1 X 0098.60 Y 0125.65 E 1215.39
 G1 X 0126.40 Y 0123.46 E 1216.45
G1 X 0098.60 Y 0125.65 E 1222.57
 G1 X 0094.55 Y 0089.97 E 1223.63
G1 X 0050.16 Y 0113.67 E 1232.69
 G1 X 0083.16 Y 0075.35 E 1233.75
G1 X 0080.76 Y 0142.10 E 1237.54
 G1 X 0098.60 Y 0125.65 E 1238.60
;CONTOUR EDGES
G1 X 0185.08 Y 0184.41 E 1237.54
 G1 X 0185.08 Y 0184.41 E 1238.60
G1 X 0185.08 Y 0184.41 E 1252.42
 G1 X 0114.22 Y 0161.79 E 1253.48
G1 X 0114.22 Y 0161.79 E 1255.71
 G1 X 0099.72 Y 0153.99 E 1256.77
G1 X 0099.72 Y 0153.99 E 1259.64
 G1 X 0082.92 Y 0143.88 E 1260.69
G1 X 0082.92 Y 0143.88 E 1264.33
 G1 X 0064.80 Y 0128.97 E 1265.39
G1 X 0064.80 Y 0128.97 E 1268.41
 G1 X 0050.61 Y 0114.30 E 1269.47
G1 X 0050.61 Y 0114.30 E 1272.04
 G1 X 0040.03 Y 0099.56 E 1273.10
G1 X 0040.03 Y 0099.56 E 1276.52
 G1 X 0030.68 Y 0079.22 E 1277.57
G1 X 0030.68 Y 0079.22 E 1281.16
 G1 X 0031.49 Y 0056.03 E 1282.22
G1 X 0031.49 Y 0056.03 E 1284.31
 G1 X 0040.69 Y 0043.23 E 1285.37
G1 X 0040.69 Y 0043.23 E 1288.30
 G1 X 0058.80 Y 0034.80 E 1289.36
G1 X 0058.80 Y 0034.80 E 1294.10
 G1 X 0087.75 Y 0035.54 E 1295.15
G1 X 0087.75 Y 0035.54 E 1299.04
 G1 X 0111.39 Y 0042.71 E 1300.09
G1 X 0111.39 Y 0042.71 E 1299.72
 G1 X 0114.51 Y 0044.04 E 1300.77
G1 X 0114.51 Y 0044.04 E 1303.02
 G1 X 0129.31 Y 0051.43 E 1304.08
G1 X 0129.31 Y 0051.43 E 1306.17
 G1 X 0142.13 Y 0060.55 E 1307.23
G1 X 0142.13 Y 0060.55 E 1306.17
 G1 X 0142.13 Y 0060.55 E 1307.23
G0  F600 Z0.90000004
;INSOLE EDGES
G1 X 0030.97 Y 0070.85 E 1314.94
 G1 X 0074.82 Y 0070.27 E 1316.00
G1 X 0057.41 Y 0035.45 E 1322.73
 G1 X 0074.82 Y 0070.27 E 1323.79
G1 X 0102.08 Y 0058.56 E 1326.30
 G1 X 0107.21 Y 0041.45 E 1327.36
G1 X 0152.91 Y 0091.65 E 1338.43
 G1 X 0102.08 Y 0058.56 E 1339.49
G1 X 0126.40 Y 0123.46 E 1346.59
 G1 X 0120.63 Y 0163.84 E 1347.65
G1 X 0150.74 Y 0115.16 E 1348.81
 G1 X 0158.23 Y 0106.98 E 1349.87
G1 X 0150.74 Y 0115.16 E 1360.23
 G1 X 0146.52 Y 0172.10 E 1361.29
G1 X 0150.74 Y 0115.16 E 1365.37
 G1 X 0126.40 Y 0123.46 E 1366.43
G1 X 0083.16 Y 0075.35 E 1367.32
 G1 X 0074.82 Y 0070.27 E 1368.38
G1 X 0085.51 Y 0075.28 E 1372.03
 G1 X 0102.08 Y 0058.56 E 1373.09
G1 X 0085.51 Y 0075.28 E 1372.50
 G1 X 0083.16 Y 0075.35 E 1373.56
G1 X 0094.55 Y 0089.97 E 1384.72
 G1 X 0155.10 Y 0097.97 E 1385.78
G1 X 0094.55 Y 0089.97 E 1388.17
 G1 X 0085.51 Y 0075.28 E 1389.23
G1 X 0098.60 Y 0125.65 E 1393.74
 G1 X 0126.40 Y 0123.46 E 1394.80
G1 X 0098.60 Y 0125.65 E 1400.93
 G1 X 0094.55 Y 0089.97 E 1401.98
G1 X 0050.16 Y 0113.67 E 1411.04
 G1 X 0083.16 Y 0075.35 E 1412.10
G1 X 0080.76 Y 0142.10 E 1415.89
 G1 X 0098.60 Y 0125.65 E 1416.95
;CONTOUR EDGES
G1 X 0185.08 Y 0184.41 E 1415.89
 G1 X 0185.08 Y 0184.41 E 1416.95
G1 X 0185.08 Y 0184.41 E 1430.77
 G1 X 0114.22 Y 0161.79 E 1431.83
G1 X 0114.22 Y 0161.79 E 1434.06
 G1 X 0099.72 Y 0153.99 E 1435.12
G1 X 0099.72 Y 0153.99 E 1437.99
 G1 X 0082.92 Y 0143.88 E 1439.04
G1 X 0082.92 Y 0143.88 E 1442.68
 G1 X 0064.80 Y 0128.97 E 1443.74
G1 X 0064.80 Y 0128.97 E 1446.76
 G1 X 0050.61 Y 0114.30 E 1447.82
G1 X 0050.61 Y 0114.30 E 1450.39
 G1 X 0040.03 Y 0099.56 E 1451.45
G1 X 0040.03 Y 0099.56 E 1454.87
 G1 X 0030.68 Y 0079.22 E 1455.93
G1 X 0030.68 Y 0079.22 E 1459.51
 G1 X 0031.49 Y 0056.03 E 1460.57
G1 X 0031.49 Y 0056.03 E 1462.66
 G1 X 0040.69 Y 0043.23 E 1463.72
G1 X 0040.69 Y 0043.23 E 1466.65
 G1 X 0058.80 Y 0034.80 E 1467.71
G1 X 0058.80 Y 0034.80 E 1472.45
 G1 X 0087.75 Y 0035.54 E 1473.50
G1 X 0087.75 Y 0035.54 E 1477.39
 G1 X 0111.39 Y 0042.71 E 1478.44
G1 X 0111.39 Y 0042.71 E 1478.07
 G1 X 0114.51 Y 0044.04 E 1479.12
G1 X 0114.51 Y 0044.04 E 1481.37
 G1 X 0129.31 Y 0051.43 E 1482.43
G1 X 0129.31 Y 0051.43 E 1484.52
 G1 X 0142.13 Y 0060.55 E 1485.58
G1 X 0142.13 Y 0060.55 E 1484.52
 G1 X 0142.13 Y 0060.55 E 1485.58
G0  F600 Z1.2
;INSOLE EDGES
G1 X 0030.97 Y 0070.85 E 1493.29
 G1 X 0074.82 Y 0070.27 E 1494.35
G1 X 0057.41 Y 0035.45 E 1501.08
 G1 X 0074.82 Y 0070.27 E 1502.14
G1 X 0102.08 Y 0058.56 E 1504.65
 G1 X 0107.21 Y 0041.45 E 1505.71
G1 X 0152.91 Y 0091.65 E 1516.78
 G1 X 0102.08 Y 0058.56 E 1517.84
G1 X 0126.40 Y 0123.46 E 1524.94
 G1 X 0120.63 Y 0163.84 E 1526.00
G1 X 0150.74 Y 0115.16 E 1527.16
 G1 X 0158.23 Y 0106.98 E 1528.22
G1 X 0150.74 Y 0115.16 E 1538.58
 G1 X 0146.52 Y 0172.10 E 1539.64
G1 X 0150.74 Y 0115.16 E 1543.72
 G1 X 0126.40 Y 0123.46 E 1544.78
G1 X 0083.16 Y 0075.35 E 1545.68
 G1 X 0074.82 Y 0070.27 E 1546.73
G1 X 0085.51 Y 0075.28 E 1550.38
 G1 X 0102.08 Y 0058.56 E 1551.44
G1 X 0085.51 Y 0075.28 E 1550.85
 G1 X 0083.16 Y 0075.35 E 1551.91
G1 X 0094.55 Y 0089.97 E 1563.07
 G1 X 0155.10 Y 0097.97 E 1564.13
G1 X 0094.55 Y 0089.97 E 1566.52
 G1 X 0085.51 Y 0075.28 E 1567.58
G1 X 0098.60 Y 0125.65 E 1572.10
 G1 X 0126.40 Y 0123.46 E 1573.15
G1 X 0098.60 Y 0125.65 E 1579.28
 G1 X 0094.55 Y 0089.97 E 1580.33
G1 X 0050.16 Y 0113.67 E 1589.39
 G1 X 0083.16 Y 0075.35 E 1590.45
G1 X 0080.76 Y 0142.10 E 1594.24
 G1 X 0098.60 Y 0125.65 E 1595.30
;CONTOUR EDGES
G1 X 0185.08 Y 0184.41 E 1594.24
 G1 X 0185.08 Y 0184.41 E 1595.30
G1 X 0185.08 Y 0184.41 E 1609.12
 G1 X 0114.22 Y 0161.79 E 1610.18
G1 X 0114.22 Y 0161.79 E 1612.42
 G1 X 0099.72 Y 0153.99 E 1613.47
G1 X 0099.72 Y 0153.99 E 1616.34
 G1 X 0082.92 Y 0143.88 E 1617.40
G1 X 0082.92 Y 0143.88 E 1621.03
 G1 X 0064.80 Y 0128.97 E 1622.09
G1 X 0064.80 Y 0128.97 E 1625.11
 G1 X 0050.61 Y 0114.30 E 1626.17
G1 X 0050.61 Y 0114.30 E 1628.74
 G1 X 0040.03 Y 0099.56 E 1629.80
G1 X 0040.03 Y 0099.56 E 1633.22
 G1 X 0030.68 Y 0079.22 E 1634.28
G1 X 0030.68 Y 0079.22 E 1637.86
 G1 X 0031.49 Y 0056.03 E 1638.92
G1 X 0031.49 Y 0056.03 E 1641.01
 G1 X 0040.69 Y 0043.23 E 1642.07
G1 X 0040.69 Y 0043.23 E 1645.01
 G1 X 0058.80 Y 0034.80 E 1646.06
G1 X 0058.80 Y 0034.80 E 1650.80
 G1 X 0087.75 Y 0035.54 E 1651.86
G1 X 0087.75 Y 0035.54 E 1655.74
 G1 X 0111.39 Y 0042.71 E 1656.80
G1 X 0111.39 Y 0042.71 E 1656.42
 G1 X 0114.51 Y 0044.04 E 1657.48
G1 X 0114.51 Y 0044.04 E 1659.72
 G1 X 0129.31 Y 0051.43 E 1660.78
G1 X 0129.31 Y 0051.43 E 1662.87
 G1 X 0142.13 Y 0060.55 E 1663.93
G1 X 0142.13 Y 0060.55 E 1662.87
 G1 X 0142.13 Y 0060.55 E 1663.93
G0  F600 Z1.5
;INSOLE EDGES
G1 X 0030.97 Y 0070.85 E 1671.64
 G1 X 0074.82 Y 0070.27 E 1672.70
G1 X 0057.41 Y 0035.45 E 1679.43
 G1 X 0074.82 Y 0070.27 E 1680.49
G1 X 0102.08 Y 0058.56 E 1683.00
 G1 X 0107.21 Y 0041.45 E 1684.06
G1 X 0152.91 Y 0091.65 E 1695.13
 G1 X 0102.08 Y 0058.56 E 1696.19
G1 X 0126.40 Y 0123.46 E 1703.29
 G1 X 0120.63 Y 0163.84 E 1704.35
G1 X 0150.74 Y 0115.16 E 1705.51
 G1 X 0158.23 Y 0106.98 E 1706.57
G1 X 0150.74 Y 0115.16 E 1716.93
 G1 X 0146.52 Y 0172.10 E 1717.99
G1 X 0150.74 Y 0115.16 E 1722.08
 G1 X 0126.40 Y 0123.46 E 1723.13
G1 X 0083.16 Y 0075.35 E 1724.03
 G1 X 0074.82 Y 0070.27 E 1725.08
G1 X 0085.51 Y 0075.28 E 1728.73
 G1 X 0102.08 Y 0058.56 E 1729.79
G1 X 0085.51 Y 0075.28 E 1729.20
 G1 X 0083.16 Y 0075.35 E 1730.26
G1 X 0094.55 Y 0089.97 E 1741.42
 G1 X 0155.10 Y 0097.97 E 1742.48
G1 X 0094.55 Y 0089.97 E 1744.87
 G1 X 0085.51 Y 0075.28 E 1745.93
G1 X 0098.60 Y 0125.65 E 1750.45
 G1 X 0126.40 Y 0123.46 E 1751.51
G1 X 0098.60 Y 0125.65 E 1757.63
 G1 X 0094.55 Y 0089.97 E 1758.69
G1 X 0050.16 Y 0113.67 E 1767.74
 G1 X 0083.16 Y 0075.35 E 1768.80
G1 X 0080.76 Y 0142.10 E 1772.60
 G1 X 0098.60 Y 0125.65 E 1773.65
;CONTOUR EDGES
G1 X 0185.08 Y 0184.41 E 1772.60
 G1 X 0185.08 Y 0184.41 E 1773.65
G1 X 0185.08 Y 0184.41 E 1787.47
 G1 X 0114.22 Y 0161.79 E 1788.53
G1 X 0114.22 Y 0161.79 E 1790.77
 G1 X 0099.72 Y 0153.99 E 1791.82
G1 X 0099.72 Y 0153.99 E 1794.69
 G1 X 0082.92 Y 0143.88 E 1795.75
G1 X 0082.92 Y 0143.88 E 1799.38
 G1 X 0064.80 Y 0128.97 E 1800.44
G1 X 0064.80 Y 0128.97 E 1803.46
 G1 X 0050.61 Y 0114.30 E 1804.52
G1 X 0050.61 Y 0114.30 E 1807.09
 G1 X 0040.03 Y 0099.56 E 1808.15
G1 X 0040.03 Y 0099.56 E 1811.57
 G1 X 0030.68 Y 0079.22 E 1812.63
G1 X 0030.68 Y 0079.22 E 1816.21
 G1 X 0031.49 Y 0056.03 E 1817.27
G1 X 0031.49 Y 0056.03 E 1819.36
 G1 X 0040.69 Y 0043.23 E 1820.42
G1 X 0040.69 Y 0043.23 E 1823.36
 G1 X 0058.80 Y 0034.80 E 1824.42
G1 X 0058.80 Y 0034.80 E 1829.15
 G1 X 0087.75 Y 0035.54 E 1830.21
G1 X 0087.75 Y 0035.54 E 1834.09
 G1 X 0111.39 Y 0042.71 E 1835.15
G1 X 0111.39 Y 0042.71 E 1834.77
 G1 X 0114.51 Y 0044.04 E 1835.83
G1 X 0114.51 Y 0044.04 E 1838.08
 G1 X 0129.31 Y 0051.43 E 1839.13
G1 X 0129.31 Y 0051.43 E 1841.22
 G1 X 0142.13 Y 0060.55 E 1842.28
G1 X 0142.13 Y 0060.55 E 1841.22
 G1 X 0142.13 Y 0060.55 E 1842.28
G0  F600 Z1.8
M107
G10
G0 F9000 X110.000 Y126.900 Z15.000
M25 ;Stop reading from this point on.
;CURA_PROFILE_STRING:eNrtWt1v2zYQfxWC/RF8bLHGk2S7aWvoYe2SvqRDgXhYmxeBlmiLi0QKJBXHCfy/746iFNlRunQN1o/JDw70093xePe7j6LO6YapOGN8lZnIHwXemuZ5bDKeXAimNUATTzGjaGK4FDETdJGzaK4q5mmZ8zTOrYGuwnNvycFGyoTmZhOFvlcqLkysS8bSaNo8GlaUTFFTKRaFQQ8aRj3guA+c9IHTFlywdOe0I9/TVVlKZaK5rJKMixVZVDxPy5wa5uH3UqoipmnGNNw6+l0K1qjEaUXzmF0ZVdl3r6XJvDUvWWzkmqnohOaadYD4UuZVwaJg6kl5zWKdcZanTgwCRQsGLqYc/hpQD0cvpndhDMUdcNwHTvrAaRdc5nIdBb4/8j0hr69zcIlfs/1E18maoFQHpYWshIkmo2kXtRFxr4Lnu+8KLmJ4uGR5FOy+SWSxgMhHv+b5ngIvdiIMPoRdiUyWiHkLaYwsdqg39iwd/XjNU5PFS9CQCi/rycVfLAEOcnEBwZCXTOW0tJ4j66de7aO7djDt2K8JXr8ALnNh2V0/o5gtA6oY7WBcaGb8feCqAyRS5jY4rn44UAQST5sSS12NXXCgXM4Fg3jZ+DpoRctojKfbpyZoORMrkzn/0diyAl9ddU8d5u7od57igl5ZpHVrCSiUC/DWgRmjUOx8aRx16+o3kIvucx2zW3bnsQs18h8KkFs+QkVCgbG4jmVjwNWX2ZQsOoUb6xaiYgVN53lbtrG1XLs3bcGrDRBeGyoSZPNRi193YZQvuaI5ct4dzIsSqqCQqWtsC3CzG3PIuqJLiDJVKy5sHO2zFdElTZDG4wZdUM32SHmLo4rlJlSDk4cOxRQwdVcpPNp/e6tqSxVfUq6ABzF0bMupDoYWwhrQldNHouloD+07s9XYOXHJr6D0lOLAzrgSth3gqIB0xbQO3KdEFi0pujIQElkyES+40X0C0AVwjFxCnA03tlU7sTKvIBmQIeDQKmrqO2EYr/gqOgz2oA1APwENlBmtEkz17CznCUsJNa/ITUo3W/w2DP5gMW4PZq+p5gmBujVwqn5FTjGApC4mUMk7k3NL/oSLgszN7vjckhNgKsDdiQim3+NcIngOvHOTqz70xLVpAqFJa8W6bdf9dVt0oHV99qqjlUhtulr4DFbfBS99cnbTOw63ZPaHgGZs9Y0kNE3JRlaKyLUgIEs6sgQpgeb8l625h5q6Y+ZtGBD3mUFbUBDsS5pXTB+8BW+bN3QBnaUyjJQSggeUgmQcvHsRtgKQIGKHRQrZwUMbBSzoA3D1qJXE7JM1NxkxGSPQ/YhcLsGPF+SDTz766Ae0K/Lhl49oCNogYSLV0OO0FTr3nbModH5XJCDnATQHcnLTnSZbp4BHNqsFSTEiwbQo4K4hOW6ve/uZXTMlrZK7XErq7o7nnIS+T47HexpOkIyLAi5GsIUTcC25+PxDCF1RLuxRu5cB7laG2Mzj2lQAyemKESnI6ZvfiE4UYwKCHhyR905mNBp5EKOm6o5FSt6+camZkLMerzp3wXqDolQ2Ue+CiX+vgpVLLWFvVcgTvkQGkgyuQLh5CpEIyAM+M8UgVdB3dmgH4Tg+hJCMff8flO2yUrOsKU1KoMmRevIRHKQYP5Sot7BnyCc4lcGYIFoWDFNoOaMgxlA0ll8/+6Mp+DAlHw5DoCx+9bPtnFSlO5JCxBuPWm/YJRNQIWj2lv6fvNR9pfEMvLWO4oZAuCYSCOJ8X9MN1OrkfqPasBK6gq4L8eX9PvT3gRn0IAl3wvEAdFttPVvj4dDiH6HFT768xdeTYh70WQr/lSn/686db32azO/pbrOzNa5PeApqhtASmg77JRMo8PsnUOA/6giyZx3e9P+Tc3sw9x906SVX2nxP136kyRveM3rn/mdOX9QJhok9TOzHn9jjYWIPE/v/ObHDBw2vsfqhJvawpgxryt6aMv6aawrqhMNqM6w2j7/aTIbV5ptabcLHW22GLek/25LGD5qdE3D6B1oYhtVwWA2H1VCkk+9tNUSd8bBODuvk466T7gct3V8xtODtf7HWv9fZEbJIR0IxmLEJGyX6MvIgCXWbOXa8bBfWuvksmFlDZdpLJ5VSNsQNhTEBNtGAtOgzss5Aoa10u0wUVW54mbftQunRwWyeQVDxNAwurDeW5ZZFaHT+RDz1ICbmW/KPLrEAG/f+BnWV/Wo=
