;FLAVOR:UltiGCode
; TIME:400
;MATERIAL:160
; MATERIAL2: 0
;NOZZLE_DIAMETER:0.400000
;NOZZLE_DIAMETER2:  0.400000
;Layer count: 98
;LAYER: 0
M107
G0  F600 Z0.3
;INSOLE EDGES
G1 X 0136.27 Y 0157.31 E 0008.75
 G1 X 0184.60 Y 0165.78 E 0009.81
G1 X 0131.89 Y 0164.28 E 0010.40
 G1 X 0136.27 Y 0157.31 E 0011.46
G1 X 0153.21 Y 0204.91 E 0019.58
 G1 X 0131.89 Y 0164.28 E 0020.64
G1 X 0122.56 Y 0168.05 E 0021.59
 G1 X 0131.89 Y 0164.28 E 0022.65
G1 X 0106.19 Y 0200.44 E 0028.85
 G1 X 0122.56 Y 0168.05 E 0029.91
G1 X 0068.08 Y 0171.71 E 0035.01
 G1 X 0088.42 Y 0194.85 E 0036.07
G1 X 0053.06 Y 0176.53 E 0038.16
 G1 X 0068.08 Y 0171.71 E 0039.22
G1 X 0046.92 Y 0126.00 E 0040.33
 G1 X 0037.15 Y 0130.66 E 0041.39
G1 X 0057.01 Y 0125.34 E 0042.35
 G1 X 0046.92 Y 0126.00 E 0043.41
G1 X 0137.39 Y 0123.39 E 0049.14
 G1 X 0136.27 Y 0157.31 E 0050.20
G1 X 0046.92 Y 0097.95 E 0054.75
 G1 X 0046.92 Y 0126.00 E 0055.81
G1 X 0040.79 Y 0097.26 E 0057.63
 G1 X 0027.44 Y 0102.66 E 0058.69
G1 X 0040.79 Y 0097.26 E 0058.86
 G1 X 0046.92 Y 0097.95 E 0059.92
G1 X 0070.35 Y 0100.89 E 0064.43
 G1 X 0057.01 Y 0125.34 E 0065.49
G1 X 0056.31 Y 0091.22 E 0066.74
 G1 X 0046.92 Y 0097.95 E 0067.80
G1 X 0065.36 Y 0130.54 E 0068.71
 G1 X 0057.01 Y 0125.34 E 0069.77
G1 X 0093.04 Y 0125.93 E 0072.27
 G1 X 0104.57 Y 0112.37 E 0073.33
G1 X 0093.04 Y 0125.93 E 0077.88
 G1 X 0065.36 Y 0130.54 E 0078.94
G1 X 0089.43 Y 0160.29 E 0084.69
 G1 X 0122.56 Y 0168.05 E 0085.75
G1 X 0089.43 Y 0160.29 E 0091.60
 G1 X 0093.04 Y 0125.93 E 0092.66
G1 X 0072.25 Y 0167.50 E 0092.78
 G1 X 0068.08 Y 0171.71 E 0093.84
G1 X 0072.25 Y 0167.50 E 0100.30
 G1 X 0065.36 Y 0130.54 E 0101.36
G1 X 0072.25 Y 0167.50 E 0104.03
 G1 X 0089.43 Y 0160.29 E 0105.09
G1 X 0036.84 Y 0089.00 E 0105.86
 G1 X 0040.79 Y 0097.26 E 0106.92
G1 X 0036.84 Y 0089.00 E 0107.74
 G1 X 0040.49 Y 0080.32 E 0108.80
G1 X 0027.07 Y 0086.94 E 0108.73
 G1 X 0022.90 Y 0089.56 E 0109.79
G1 X 0027.07 Y 0086.94 E 0110.73
 G1 X 0036.84 Y 0089.00 E 0111.78
G1 X 0031.71 Y 0079.39 E 0112.43
 G1 X 0028.01 Y 0071.72 E 0113.49
G1 X 0031.71 Y 0079.39 E 0114.17
 G1 X 0040.40 Y 0080.26 E 0115.23
G1 X 0031.71 Y 0079.39 E 0115.95
 G1 X 0027.07 Y 0086.94 E 0117.00
;CONTOUR EDGES
G1 X 0012.84 Y 0060.55 E 0115.95
 G1 X 0012.84 Y 0060.55 E 0117.00
G1 X 0012.84 Y 0060.55 E 0118.95
 G1 X 0024.88 Y 0069.56 E 0120.01
G1 X 0024.88 Y 0069.56 E 0130.36
 G1 X 0071.83 Y 0101.91 E 0131.42
G1 X 0071.83 Y 0101.91 E 0141.50
 G1 X 0124.92 Y 0118.87 E 0142.56
G1 X 0124.92 Y 0118.87 E 0150.17
 G1 X 0165.68 Y 0133.63 E 0151.23
G1 X 0165.68 Y 0133.63 E 0157.61
 G1 X 0184.63 Y 0165.64 E 0158.67
G1 X 0184.63 Y 0165.64 E 0161.37
 G1 X 0180.63 Y 0183.97 E 0162.43
G1 X 0180.63 Y 0183.97 E 0166.29
 G1 X 0165.85 Y 0203.64 E 0167.35
G1 X 0165.85 Y 0203.64 E 0173.83
 G1 X 0128.31 Y 0207.40 E 0174.89
G1 X 0128.31 Y 0207.40 E 0182.50
 G1 X 0086.98 Y 0194.40 E 0183.56
G1 X 0086.98 Y 0194.40 E 0189.05
 G1 X 0055.79 Y 0184.41 E 0190.11
G1 X 0055.79 Y 0184.41 E 0189.05
 G1 X 0055.79 Y 0184.41 E 0190.11
G0  F600 Z0.6
;INSOLE EDGES
G1 X 0136.27 Y 0157.31 E 0198.86
 G1 X 0184.60 Y 0165.78 E 0199.92
G1 X 0131.89 Y 0164.28 E 0200.51
 G1 X 0136.27 Y 0157.31 E 0201.56
G1 X 0153.21 Y 0204.91 E 0209.68
 G1 X 0131.89 Y 0164.28 E 0210.74
G1 X 0122.56 Y 0168.05 E 0211.69
 G1 X 0131.89 Y 0164.28 E 0212.75
G1 X 0106.19 Y 0200.44 E 0218.95
 G1 X 0122.56 Y 0168.05 E 0220.01
G1 X 0068.08 Y 0171.71 E 0225.12
 G1 X 0088.42 Y 0194.85 E 0226.17
G1 X 0053.06 Y 0176.53 E 0228.27
 G1 X 0068.08 Y 0171.71 E 0229.33
G1 X 0046.92 Y 0126.00 E 0230.43
 G1 X 0037.15 Y 0130.66 E 0231.49
G1 X 0057.01 Y 0125.34 E 0232.46
 G1 X 0046.92 Y 0126.00 E 0233.52
G1 X 0137.39 Y 0123.39 E 0239.24
 G1 X 0136.27 Y 0157.31 E 0240.30
G1 X 0046.92 Y 0097.95 E 0244.85
 G1 X 0046.92 Y 0126.00 E 0245.91
G1 X 0040.79 Y 0097.26 E 0247.74
 G1 X 0027.44 Y 0102.66 E 0248.79
G1 X 0040.79 Y 0097.26 E 0248.97
 G1 X 0046.92 Y 0097.95 E 0250.03
G1 X 0070.35 Y 0100.89 E 0254.54
 G1 X 0057.01 Y 0125.34 E 0255.60
G1 X 0056.31 Y 0091.22 E 0256.85
 G1 X 0046.92 Y 0097.95 E 0257.91
G1 X 0065.36 Y 0130.54 E 0258.81
 G1 X 0057.01 Y 0125.34 E 0259.87
G1 X 0093.04 Y 0125.93 E 0262.37
 G1 X 0104.57 Y 0112.37 E 0263.43
G1 X 0093.04 Y 0125.93 E 0267.99
 G1 X 0065.36 Y 0130.54 E 0269.05
G1 X 0089.43 Y 0160.29 E 0274.79
 G1 X 0122.56 Y 0168.05 E 0275.85
G1 X 0089.43 Y 0160.29 E 0281.70
 G1 X 0093.04 Y 0125.93 E 0282.76
G1 X 0072.25 Y 0167.50 E 0282.89
 G1 X 0068.08 Y 0171.71 E 0283.95
G1 X 0072.25 Y 0167.50 E 0290.41
 G1 X 0065.36 Y 0130.54 E 0291.47
G1 X 0072.25 Y 0167.50 E 0294.14
 G1 X 0089.43 Y 0160.29 E 0295.19
G1 X 0036.84 Y 0089.00 E 0295.97
 G1 X 0040.79 Y 0097.26 E 0297.02
G1 X 0036.84 Y 0089.00 E 0297.85
 G1 X 0040.49 Y 0080.32 E 0298.91
G1 X 0027.07 Y 0086.94 E 0298.83
 G1 X 0022.90 Y 0089.56 E 0299.89
G1 X 0027.07 Y 0086.94 E 0300.83
 G1 X 0036.84 Y 0089.00 E 0301.89
G1 X 0031.71 Y 0079.39 E 0302.53
 G1 X 0028.01 Y 0071.72 E 0303.59
G1 X 0031.71 Y 0079.39 E 0304.28
 G1 X 0040.40 Y 0080.26 E 0305.34
G1 X 0031.71 Y 0079.39 E 0306.05
 G1 X 0027.07 Y 0086.94 E 0307.11
;CONTOUR EDGES
G1 X 0012.84 Y 0060.55 E 0306.05
 G1 X 0012.84 Y 0060.55 E 0307.11
G1 X 0012.84 Y 0060.55 E 0309.06
 G1 X 0024.88 Y 0069.56 E 0310.12
G1 X 0024.88 Y 0069.56 E 0320.46
 G1 X 0071.83 Y 0101.91 E 0321.52
G1 X 0071.83 Y 0101.91 E 0331.61
 G1 X 0124.92 Y 0118.87 E 0332.67
G1 X 0124.92 Y 0118.87 E 0340.28
 G1 X 0165.68 Y 0133.63 E 0341.34
G1 X 0165.68 Y 0133.63 E 0347.72
 G1 X 0184.63 Y 0165.64 E 0348.78
G1 X 0184.63 Y 0165.64 E 0351.47
 G1 X 0180.63 Y 0183.97 E 0352.53
G1 X 0180.63 Y 0183.97 E 0356.39
 G1 X 0165.85 Y 0203.64 E 0357.45
G1 X 0165.85 Y 0203.64 E 0363.94
 G1 X 0128.31 Y 0207.40 E 0365.00
G1 X 0128.31 Y 0207.40 E 0372.60
 G1 X 0086.98 Y 0194.40 E 0373.66
G1 X 0086.98 Y 0194.40 E 0379.15
 G1 X 0055.79 Y 0184.41 E 0380.21
G1 X 0055.79 Y 0184.41 E 0379.15
 G1 X 0055.79 Y 0184.41 E 0380.21
G0  F600 Z0.90000004
;INSOLE EDGES
G1 X 0136.27 Y 0157.31 E 0388.97
 G1 X 0184.60 Y 0165.78 E 0390.02
G1 X 0131.89 Y 0164.28 E 0390.61
 G1 X 0136.27 Y 0157.31 E 0391.67
G1 X 0153.21 Y 0204.91 E 0399.79
 G1 X 0131.89 Y 0164.28 E 0400.85
G1 X 0122.56 Y 0168.05 E 0401.80
 G1 X 0131.89 Y 0164.28 E 0402.86
G1 X 0106.19 Y 0200.44 E 0409.06
 G1 X 0122.56 Y 0168.05 E 0410.12
G1 X 0068.08 Y 0171.71 E 0415.22
 G1 X 0088.42 Y 0194.85 E 0416.28
G1 X 0053.06 Y 0176.53 E 0418.37
 G1 X 0068.08 Y 0171.71 E 0419.43
G1 X 0046.92 Y 0126.00 E 0420.54
 G1 X 0037.15 Y 0130.66 E 0421.60
G1 X 0057.01 Y 0125.34 E 0422.56
 G1 X 0046.92 Y 0126.00 E 0423.62
G1 X 0137.39 Y 0123.39 E 0429.35
 G1 X 0136.27 Y 0157.31 E 0430.41
G1 X 0046.92 Y 0097.95 E 0434.96
 G1 X 0046.92 Y 0126.00 E 0436.02
G1 X 0040.79 Y 0097.26 E 0437.84
 G1 X 0027.44 Y 0102.66 E 0438.90
G1 X 0040.79 Y 0097.26 E 0439.07
 G1 X 0046.92 Y 0097.95 E 0440.13
G1 X 0070.35 Y 0100.89 E 0444.64
 G1 X 0057.01 Y 0125.34 E 0445.70
G1 X 0056.31 Y 0091.22 E 0446.95
 G1 X 0046.92 Y 0097.95 E 0448.01
G1 X 0065.36 Y 0130.54 E 0448.92
 G1 X 0057.01 Y 0125.34 E 0449.98
G1 X 0093.04 Y 0125.93 E 0452.48
 G1 X 0104.57 Y 0112.37 E 0453.54
G1 X 0093.04 Y 0125.93 E 0458.09
 G1 X 0065.36 Y 0130.54 E 0459.15
G1 X 0089.43 Y 0160.29 E 0464.90
 G1 X 0122.56 Y 0168.05 E 0465.96
G1 X 0089.43 Y 0160.29 E 0471.81
 G1 X 0093.04 Y 0125.93 E 0472.87
G1 X 0072.25 Y 0167.50 E 0472.99
 G1 X 0068.08 Y 0171.71 E 0474.05
G1 X 0072.25 Y 0167.50 E 0480.51
 G1 X 0065.36 Y 0130.54 E 0481.57
G1 X 0072.25 Y 0167.50 E 0484.24
 G1 X 0089.43 Y 0160.29 E 0485.30
G1 X 0036.84 Y 0089.00 E 0486.07
 G1 X 0040.79 Y 0097.26 E 0487.13
G1 X 0036.84 Y 0089.00 E 0487.95
 G1 X 0040.49 Y 0080.32 E 0489.01
G1 X 0027.07 Y 0086.94 E 0488.94
 G1 X 0022.90 Y 0089.56 E 0490.00
G1 X 0027.07 Y 0086.94 E 0490.94
 G1 X 0036.84 Y 0089.00 E 0491.99
G1 X 0031.71 Y 0079.39 E 0492.64
 G1 X 0028.01 Y 0071.72 E 0493.70
G1 X 0031.71 Y 0079.39 E 0494.38
 G1 X 0040.40 Y 0080.26 E 0495.44
G1 X 0031.71 Y 0079.39 E 0496.16
 G1 X 0027.07 Y 0086.94 E 0497.22
;CONTOUR EDGES
G1 X 0012.84 Y 0060.55 E 0496.16
 G1 X 0012.84 Y 0060.55 E 0497.22
G1 X 0012.84 Y 0060.55 E 0499.16
 G1 X 0024.88 Y 0069.56 E 0500.22
G1 X 0024.88 Y 0069.56 E 0510.57
 G1 X 0071.83 Y 0101.91 E 0511.63
G1 X 0071.83 Y 0101.91 E 0521.72
 G1 X 0124.92 Y 0118.87 E 0522.77
G1 X 0124.92 Y 0118.87 E 0530.39
 G1 X 0165.68 Y 0133.63 E 0531.44
G1 X 0165.68 Y 0133.63 E 0537.82
 G1 X 0184.63 Y 0165.64 E 0538.88
G1 X 0184.63 Y 0165.64 E 0541.58
 G1 X 0180.63 Y 0183.97 E 0542.64
G1 X 0180.63 Y 0183.97 E 0546.50
 G1 X 0165.85 Y 0203.64 E 0547.56
G1 X 0165.85 Y 0203.64 E 0554.04
 G1 X 0128.31 Y 0207.40 E 0555.10
G1 X 0128.31 Y 0207.40 E 0562.71
 G1 X 0086.98 Y 0194.40 E 0563.77
G1 X 0086.98 Y 0194.40 E 0569.26
 G1 X 0055.79 Y 0184.41 E 0570.32
G1 X 0055.79 Y 0184.41 E 0569.26
 G1 X 0055.79 Y 0184.41 E 0570.32
G0  F600 Z1.2
;INSOLE EDGES
G1 X 0136.27 Y 0157.31 E 0579.07
 G1 X 0184.60 Y 0165.78 E 0580.13
G1 X 0131.89 Y 0164.28 E 0580.72
 G1 X 0136.27 Y 0157.31 E 0581.78
G1 X 0153.21 Y 0204.91 E 0589.89
 G1 X 0131.89 Y 0164.28 E 0590.95
G1 X 0122.56 Y 0168.05 E 0591.90
 G1 X 0131.89 Y 0164.28 E 0592.96
G1 X 0106.19 Y 0200.44 E 0599.16
 G1 X 0122.56 Y 0168.05 E 0600.22
G1 X 0068.08 Y 0171.71 E 0605.33
 G1 X 0088.42 Y 0194.85 E 0606.38
G1 X 0053.06 Y 0176.53 E 0608.48
 G1 X 0068.08 Y 0171.71 E 0609.54
G1 X 0046.92 Y 0126.00 E 0610.64
 G1 X 0037.15 Y 0130.66 E 0611.70
G1 X 0057.01 Y 0125.34 E 0612.67
 G1 X 0046.92 Y 0126.00 E 0613.73
G1 X 0137.39 Y 0123.39 E 0619.46
 G1 X 0136.27 Y 0157.31 E 0620.51
G1 X 0046.92 Y 0097.95 E 0625.07
 G1 X 0046.92 Y 0126.00 E 0626.12
G1 X 0040.79 Y 0097.26 E 0627.95
 G1 X 0027.44 Y 0102.66 E 0629.00
G1 X 0040.79 Y 0097.26 E 0629.18
 G1 X 0046.92 Y 0097.95 E 0630.24
G1 X 0070.35 Y 0100.89 E 0634.75
 G1 X 0057.01 Y 0125.34 E 0635.81
G1 X 0056.31 Y 0091.22 E 0637.06
 G1 X 0046.92 Y 0097.95 E 0638.12
G1 X 0065.36 Y 0130.54 E 0639.03
 G1 X 0057.01 Y 0125.34 E 0640.08
G1 X 0093.04 Y 0125.93 E 0642.58
 G1 X 0104.57 Y 0112.37 E 0643.64
G1 X 0093.04 Y 0125.93 E 0648.20
 G1 X 0065.36 Y 0130.54 E 0649.26
G1 X 0089.43 Y 0160.29 E 0655.00
 G1 X 0122.56 Y 0168.05 E 0656.06
G1 X 0089.43 Y 0160.29 E 0661.91
 G1 X 0093.04 Y 0125.93 E 0662.97
G1 X 0072.25 Y 0167.50 E 0663.10
 G1 X 0068.08 Y 0171.71 E 0664.16
G1 X 0072.25 Y 0167.50 E 0670.62
 G1 X 0065.36 Y 0130.54 E 0671.68
G1 X 0072.25 Y 0167.50 E 0674.35
 G1 X 0089.43 Y 0160.29 E 0675.40
G1 X 0036.84 Y 0089.00 E 0676.18
 G1 X 0040.79 Y 0097.26 E 0677.23
G1 X 0036.84 Y 0089.00 E 0678.06
 G1 X 0040.49 Y 0080.32 E 0679.12
G1 X 0027.07 Y 0086.94 E 0679.04
 G1 X 0022.90 Y 0089.56 E 0680.10
G1 X 0027.07 Y 0086.94 E 0681.04
 G1 X 0036.84 Y 0089.00 E 0682.10
G1 X 0031.71 Y 0079.39 E 0682.74
 G1 X 0028.01 Y 0071.72 E 0683.80
G1 X 0031.71 Y 0079.39 E 0684.49
 G1 X 0040.40 Y 0080.26 E 0685.55
G1 X 0031.71 Y 0079.39 E 0686.26
 G1 X 0027.07 Y 0086.94 E 0687.32
;CONTOUR EDGES
G1 X 0012.84 Y 0060.55 E 0686.26
 G1 X 0012.84 Y 0060.55 E 0687.32
G1 X 0012.84 Y 0060.55 E 0689.27
 G1 X 0024.88 Y 0069.56 E 0690.33
G1 X 0024.88 Y 0069.56 E 0700.67
 G1 X 0071.83 Y 0101.91 E 0701.73
G1 X 0071.83 Y 0101.91 E 0711.82
 G1 X 0124.92 Y 0118.87 E 0712.88
G1 X 0124.92 Y 0118.87 E 0720.49
 G1 X 0165.68 Y 0133.63 E 0721.55
G1 X 0165.68 Y 0133.63 E 0727.93
 G1 X 0184.63 Y 0165.64 E 0728.99
G1 X 0184.63 Y 0165.64 E 0731.68
 G1 X 0180.63 Y 0183.97 E 0732.74
G1 X 0180.63 Y 0183.97 E 0736.60
 G1 X 0165.85 Y 0203.64 E 0737.66
G1 X 0165.85 Y 0203.64 E 0744.15
 G1 X 0128.31 Y 0207.40 E 0745.21
G1 X 0128.31 Y 0207.40 E 0752.81
 G1 X 0086.98 Y 0194.40 E 0753.87
G1 X 0086.98 Y 0194.40 E 0759.36
 G1 X 0055.79 Y 0184.41 E 0760.42
G1 X 0055.79 Y 0184.41 E 0759.36
 G1 X 0055.79 Y 0184.41 E 0760.42
G0  F600 Z1.5
;INSOLE EDGES
G1 X 0136.27 Y 0157.31 E 0769.18
 G1 X 0184.60 Y 0165.78 E 0770.23
G1 X 0131.89 Y 0164.28 E 0770.82
 G1 X 0136.27 Y 0157.31 E 0771.88
G1 X 0153.21 Y 0204.91 E 0780.00
 G1 X 0131.89 Y 0164.28 E 0781.06
G1 X 0122.56 Y 0168.05 E 0782.01
 G1 X 0131.89 Y 0164.28 E 0783.07
G1 X 0106.19 Y 0200.44 E 0789.27
 G1 X 0122.56 Y 0168.05 E 0790.33
G1 X 0068.08 Y 0171.71 E 0795.43
 G1 X 0088.42 Y 0194.85 E 0796.49
G1 X 0053.06 Y 0176.53 E 0798.59
 G1 X 0068.08 Y 0171.71 E 0799.64
G1 X 0046.92 Y 0126.00 E 0800.75
 G1 X 0037.15 Y 0130.66 E 0801.81
G1 X 0057.01 Y 0125.34 E 0802.77
 G1 X 0046.92 Y 0126.00 E 0803.83
G1 X 0137.39 Y 0123.39 E 0809.56
 G1 X 0136.27 Y 0157.31 E 0810.62
G1 X 0046.92 Y 0097.95 E 0815.17
 G1 X 0046.92 Y 0126.00 E 0816.23
G1 X 0040.79 Y 0097.26 E 0818.05
 G1 X 0027.44 Y 0102.66 E 0819.11
G1 X 0040.79 Y 0097.26 E 0819.28
 G1 X 0046.92 Y 0097.95 E 0820.34
G1 X 0070.35 Y 0100.89 E 0824.85
 G1 X 0057.01 Y 0125.34 E 0825.91
G1 X 0056.31 Y 0091.22 E 0827.16
 G1 X 0046.92 Y 0097.95 E 0828.22
G1 X 0065.36 Y 0130.54 E 0829.13
 G1 X 0057.01 Y 0125.34 E 0830.19
G1 X 0093.04 Y 0125.93 E 0832.69
 G1 X 0104.57 Y 0112.37 E 0833.75
G1 X 0093.04 Y 0125.93 E 0838.30
 G1 X 0065.36 Y 0130.54 E 0839.36
G1 X 0089.43 Y 0160.29 E 0845.11
 G1 X 0122.56 Y 0168.05 E 0846.17
G1 X 0089.43 Y 0160.29 E 0852.02
 G1 X 0093.04 Y 0125.93 E 0853.08
G1 X 0072.25 Y 0167.50 E 0853.20
 G1 X 0068.08 Y 0171.71 E 0854.26
G1 X 0072.25 Y 0167.50 E 0860.72
 G1 X 0065.36 Y 0130.54 E 0861.78
G1 X 0072.25 Y 0167.50 E 0864.45
 G1 X 0089.43 Y 0160.29 E 0865.51
G1 X 0036.84 Y 0089.00 E 0866.28
 G1 X 0040.79 Y 0097.26 E 0867.34
G1 X 0036.84 Y 0089.00 E 0868.16
 G1 X 0040.49 Y 0080.32 E 0869.22
G1 X 0027.07 Y 0086.94 E 0869.15
 G1 X 0022.90 Y 0089.56 E 0870.21
G1 X 0027.07 Y 0086.94 E 0871.15
 G1 X 0036.84 Y 0089.00 E 0872.21
G1 X 0031.71 Y 0079.39 E 0872.85
 G1 X 0028.01 Y 0071.72 E 0873.91
G1 X 0031.71 Y 0079.39 E 0874.59
 G1 X 0040.40 Y 0080.26 E 0875.65
G1 X 0031.71 Y 0079.39 E 0876.37
 G1 X 0027.07 Y 0086.94 E 0877.43
;CONTOUR EDGES
G1 X 0012.84 Y 0060.55 E 0876.37
 G1 X 0012.84 Y 0060.55 E 0877.43
G1 X 0012.84 Y 0060.55 E 0879.37
 G1 X 0024.88 Y 0069.56 E 0880.43
G1 X 0024.88 Y 0069.56 E 0890.78
 G1 X 0071.83 Y 0101.91 E 0891.84
G1 X 0071.83 Y 0101.91 E 0901.93
 G1 X 0124.92 Y 0118.87 E 0902.98
G1 X 0124.92 Y 0118.87 E 0910.60
 G1 X 0165.68 Y 0133.63 E 0911.65
G1 X 0165.68 Y 0133.63 E 0918.04
 G1 X 0184.63 Y 0165.64 E 0919.09
G1 X 0184.63 Y 0165.64 E 0921.79
 G1 X 0180.63 Y 0183.97 E 0922.85
G1 X 0180.63 Y 0183.97 E 0926.71
 G1 X 0165.85 Y 0203.64 E 0927.77
G1 X 0165.85 Y 0203.64 E 0934.25
 G1 X 0128.31 Y 0207.40 E 0935.31
G1 X 0128.31 Y 0207.40 E 0942.92
 G1 X 0086.98 Y 0194.40 E 0943.98
G1 X 0086.98 Y 0194.40 E 0949.47
 G1 X 0055.79 Y 0184.41 E 0950.53
G1 X 0055.79 Y 0184.41 E 0949.47
 G1 X 0055.79 Y 0184.41 E 0950.53
G0  F600 Z1.8
M107
G10
G0 F9000 X110.000 Y126.900 Z15.000
M25 ;Stop reading from this point on.
