;FLAVOR:UltiGCode
; TIME:400
;MATERIAL:160
; MATERIAL2: 0
;NOZZLE_DIAMETER:0.400000
;NOZZLE_DIAMETER2:  0.400000
;Layer count: 98
;LAYER: 0
M107
G0  F600 Z0.3
;INSOLE EDGES
G1 X 0086.10 Y 0056.54 E 1062.91
 G1 X 0102.04 Y 0039.76 E 1063.96
G1 X 0046.02 Y 0037.28 E 1063.96
 G1 X 0043.08 Y 0032.91 E 1065.02
G1 X 0046.02 Y 0037.28 E 1072.85
 G1 X 0086.10 Y 0056.54 E 1073.91
G1 X 0046.52 Y 0066.30 E 1076.77
 G1 X 0027.31 Y 0070.03 E 1077.83
G1 X 0047.03 Y 0065.04 E 1082.32
 G1 X 0046.02 Y 0037.28 E 1083.38
G1 X 0047.03 Y 0065.04 E 1082.60
 G1 X 0046.52 Y 0066.30 E 1083.65
G1 X 0084.32 Y 0071.61 E 1085.63
 G1 X 0086.10 Y 0056.54 E 1086.69
G1 X 0084.32 Y 0071.61 E 1093.20
 G1 X 0047.03 Y 0065.04 E 1094.26
G1 X 0048.33 Y 0091.31 E 1098.22
 G1 X 0046.52 Y 0066.30 E 1099.28
G1 X 0086.32 Y 0087.27 E 1101.37
 G1 X 0084.32 Y 0071.61 E 1102.43
G1 X 0086.32 Y 0087.27 E 1109.01
 G1 X 0048.33 Y 0091.31 E 1110.07
G1 X 0086.47 Y 0087.45 E 1109.06
 G1 X 0086.32 Y 0087.27 E 1110.12
G1 X 0084.81 Y 0092.21 E 1110.07
 G1 X 0086.47 Y 0087.45 E 1111.13
G1 X 0042.49 Y 0096.50 E 1111.63
 G1 X 0048.33 Y 0091.31 E 1112.69
G1 X 0099.83 Y 0091.68 E 1114.44
 G1 X 0086.47 Y 0087.45 E 1115.49
G1 X 0099.83 Y 0091.68 E 1117.63
 G1 X 0108.25 Y 0105.28 E 1118.69
G1 X 0129.32 Y 0075.37 E 1124.37
 G1 X 0099.83 Y 0091.68 E 1125.43
G1 X 0132.95 Y 0114.95 E 1129.68
 G1 X 0108.25 Y 0105.28 E 1130.74
G1 X 0132.95 Y 0114.95 E 1131.59
 G1 X 0141.82 Y 0111.39 E 1132.65
G1 X 0064.45 Y 0117.48 E 1138.08
 G1 X 0084.81 Y 0092.21 E 1139.14
G1 X 0118.81 Y 0136.17 E 1139.72
 G1 X 0117.34 Y 0144.22 E 1140.78
G1 X 0126.97 Y 0129.91 E 1142.94
 G1 X 0132.95 Y 0114.95 E 1144.00
G1 X 0126.97 Y 0129.91 E 1145.00
 G1 X 0118.81 Y 0136.17 E 1146.05
G1 X 0105.83 Y 0127.72 E 1148.09
 G1 X 0118.81 Y 0136.17 E 1149.15
G1 X 0104.16 Y 0129.33 E 1150.14
 G1 X 0100.04 Y 0138.70 E 1151.20
G1 X 0104.16 Y 0129.33 E 1150.61
 G1 X 0105.83 Y 0127.72 E 1151.66
G1 X 0087.88 Y 0132.76 E 1153.93
 G1 X 0104.16 Y 0129.33 E 1154.99
G1 X 0084.16 Y 0124.42 E 1160.38
 G1 X 0084.81 Y 0092.21 E 1161.43
G1 X 0084.16 Y 0124.42 E 1161.45
 G1 X 0081.55 Y 0129.13 E 1162.51
G1 X 0104.17 Y 0120.42 E 1164.59
 G1 X 0108.25 Y 0105.28 E 1165.65
G1 X 0104.17 Y 0120.42 E 1166.09
 G1 X 0105.83 Y 0127.72 E 1167.15
G1 X 0104.17 Y 0120.42 E 1170.17
 G1 X 0084.16 Y 0124.42 E 1171.23
G1 X 0136.28 Y 0138.89 E 1172.75
 G1 X 0126.97 Y 0129.91 E 1173.81
G1 X 0136.28 Y 0138.89 E 1174.93
 G1 X 0133.83 Y 0149.49 E 1175.99
G1 X 0148.42 Y 0139.25 E 1175.52
 G1 X 0150.95 Y 0137.74 E 1176.58
G1 X 0148.42 Y 0139.25 E 1178.38
 G1 X 0142.58 Y 0152.28 E 1179.43
G1 X 0148.42 Y 0139.25 E 1180.80
 G1 X 0136.28 Y 0138.89 E 1181.86
;CONTOUR EDGES
G1 X 0157.67 Y 0157.09 E 1180.80
 G1 X 0157.67 Y 0157.09 E 1181.86
G1 X 0157.67 Y 0157.09 E 1193.48
 G1 X 0097.30 Y 0137.83 E 1194.54
G1 X 0097.30 Y 0137.83 E 1196.28
 G1 X 0084.95 Y 0131.18 E 1197.34
G1 X 0084.95 Y 0131.18 E 1199.62
 G1 X 0070.64 Y 0122.56 E 1200.68
G1 X 0070.64 Y 0122.56 E 1203.62
 G1 X 0055.20 Y 0109.87 E 1204.68
G1 X 0055.20 Y 0109.87 E 1207.10
 G1 X 0043.11 Y 0097.36 E 1208.16
G1 X 0043.11 Y 0097.36 E 1210.19
 G1 X 0034.10 Y 0084.81 E 1211.25
G1 X 0034.10 Y 0084.81 E 1214.00
 G1 X 0026.14 Y 0067.48 E 1215.06
G1 X 0026.14 Y 0067.48 E 1217.96
 G1 X 0026.83 Y 0047.73 E 1219.02
G1 X 0026.83 Y 0047.73 E 1220.64
 G1 X 0034.66 Y 0036.83 E 1221.70
G1 X 0034.66 Y 0036.83 E 1224.05
 G1 X 0050.09 Y 0029.65 E 1225.10
G1 X 0050.09 Y 0029.65 E 1228.98
 G1 X 0074.75 Y 0030.28 E 1230.04
G1 X 0074.75 Y 0030.28 E 1233.19
 G1 X 0094.88 Y 0036.39 E 1234.25
G1 X 0094.88 Y 0036.39 E 1233.77
 G1 X 0097.55 Y 0037.52 E 1234.83
G1 X 0097.55 Y 0037.52 E 1236.58
 G1 X 0110.15 Y 0043.81 E 1237.64
G1 X 0110.15 Y 0043.81 E 1239.27
 G1 X 0121.07 Y 0051.58 E 1240.32
G1 X 0121.07 Y 0051.58 E 1239.27
 G1 X 0121.07 Y 0051.58 E 1240.32
G1 X 0121.07 Y 0051.58 E 1261.60
 G1 X 0157.67 Y 0157.09 E 1262.66
G0  F600 Z0.6
;INSOLE EDGES
G1 X 0086.10 Y 0056.54 E 1266.23
 G1 X 0102.04 Y 0039.76 E 1267.29
G1 X 0046.02 Y 0037.28 E 1267.28
 G1 X 0043.08 Y 0032.91 E 1268.34
G1 X 0046.02 Y 0037.28 E 1276.18
 G1 X 0086.10 Y 0056.54 E 1277.24
G1 X 0046.52 Y 0066.30 E 1280.09
 G1 X 0027.31 Y 0070.03 E 1281.15
G1 X 0047.03 Y 0065.04 E 1285.65
 G1 X 0046.02 Y 0037.28 E 1286.70
G1 X 0047.03 Y 0065.04 E 1285.92
 G1 X 0046.52 Y 0066.30 E 1286.98
G1 X 0084.32 Y 0071.61 E 1288.95
 G1 X 0086.10 Y 0056.54 E 1290.01
G1 X 0084.32 Y 0071.61 E 1296.53
 G1 X 0047.03 Y 0065.04 E 1297.58
G1 X 0048.33 Y 0091.31 E 1301.54
 G1 X 0046.52 Y 0066.30 E 1302.60
G1 X 0086.32 Y 0087.27 E 1304.70
 G1 X 0084.32 Y 0071.61 E 1305.76
G1 X 0086.32 Y 0087.27 E 1312.34
 G1 X 0048.33 Y 0091.31 E 1313.40
G1 X 0086.47 Y 0087.45 E 1312.38
 G1 X 0086.32 Y 0087.27 E 1313.44
G1 X 0084.81 Y 0092.21 E 1313.39
 G1 X 0086.47 Y 0087.45 E 1314.45
G1 X 0042.49 Y 0096.50 E 1314.96
 G1 X 0048.33 Y 0091.31 E 1316.01
G1 X 0099.83 Y 0091.68 E 1317.76
 G1 X 0086.47 Y 0087.45 E 1318.82
G1 X 0099.83 Y 0091.68 E 1320.96
 G1 X 0108.25 Y 0105.28 E 1322.02
G1 X 0129.32 Y 0075.37 E 1327.70
 G1 X 0099.83 Y 0091.68 E 1328.76
G1 X 0132.95 Y 0114.95 E 1333.00
 G1 X 0108.25 Y 0105.28 E 1334.06
G1 X 0132.95 Y 0114.95 E 1334.91
 G1 X 0141.82 Y 0111.39 E 1335.97
G1 X 0064.45 Y 0117.48 E 1341.40
 G1 X 0084.81 Y 0092.21 E 1342.46
G1 X 0118.81 Y 0136.17 E 1343.04
 G1 X 0117.34 Y 0144.22 E 1344.10
G1 X 0126.97 Y 0129.91 E 1346.26
 G1 X 0132.95 Y 0114.95 E 1347.32
G1 X 0126.97 Y 0129.91 E 1348.32
 G1 X 0118.81 Y 0136.17 E 1349.38
G1 X 0105.83 Y 0127.72 E 1351.42
 G1 X 0118.81 Y 0136.17 E 1352.48
G1 X 0104.16 Y 0129.33 E 1353.46
 G1 X 0100.04 Y 0138.70 E 1354.52
G1 X 0104.16 Y 0129.33 E 1353.93
 G1 X 0105.83 Y 0127.72 E 1354.99
G1 X 0087.88 Y 0132.76 E 1357.26
 G1 X 0104.16 Y 0129.33 E 1358.31
G1 X 0084.16 Y 0124.42 E 1363.70
 G1 X 0084.81 Y 0092.21 E 1364.76
G1 X 0084.16 Y 0124.42 E 1364.78
 G1 X 0081.55 Y 0129.13 E 1365.84
G1 X 0104.17 Y 0120.42 E 1367.91
 G1 X 0108.25 Y 0105.28 E 1368.97
G1 X 0104.17 Y 0120.42 E 1369.41
 G1 X 0105.83 Y 0127.72 E 1370.47
G1 X 0104.17 Y 0120.42 E 1373.49
 G1 X 0084.16 Y 0124.42 E 1374.55
G1 X 0136.28 Y 0138.89 E 1376.08
 G1 X 0126.97 Y 0129.91 E 1377.14
G1 X 0136.28 Y 0138.89 E 1378.25
 G1 X 0133.83 Y 0149.49 E 1379.31
G1 X 0148.42 Y 0139.25 E 1378.84
 G1 X 0150.95 Y 0137.74 E 1379.90
G1 X 0148.42 Y 0139.25 E 1381.70
 G1 X 0142.58 Y 0152.28 E 1382.76
G1 X 0148.42 Y 0139.25 E 1384.13
 G1 X 0136.28 Y 0138.89 E 1385.19
;CONTOUR EDGES
G1 X 0157.67 Y 0157.09 E 1384.13
 G1 X 0157.67 Y 0157.09 E 1385.19
G1 X 0157.67 Y 0157.09 E 1396.80
 G1 X 0097.30 Y 0137.83 E 1397.86
G1 X 0097.30 Y 0137.83 E 1399.61
 G1 X 0084.95 Y 0131.18 E 1400.67
G1 X 0084.95 Y 0131.18 E 1402.95
 G1 X 0070.64 Y 0122.56 E 1404.01
G1 X 0070.64 Y 0122.56 E 1406.94
 G1 X 0055.20 Y 0109.87 E 1408.00
G1 X 0055.20 Y 0109.87 E 1410.42
 G1 X 0043.11 Y 0097.36 E 1411.48
G1 X 0043.11 Y 0097.36 E 1413.51
 G1 X 0034.10 Y 0084.81 E 1414.57
G1 X 0034.10 Y 0084.81 E 1417.33
 G1 X 0026.14 Y 0067.48 E 1418.39
G1 X 0026.14 Y 0067.48 E 1421.28
 G1 X 0026.83 Y 0047.73 E 1422.34
G1 X 0026.83 Y 0047.73 E 1423.97
 G1 X 0034.66 Y 0036.83 E 1425.02
G1 X 0034.66 Y 0036.83 E 1427.37
 G1 X 0050.09 Y 0029.65 E 1428.43
G1 X 0050.09 Y 0029.65 E 1432.30
 G1 X 0074.75 Y 0030.28 E 1433.36
G1 X 0074.75 Y 0030.28 E 1436.51
 G1 X 0094.88 Y 0036.39 E 1437.57
G1 X 0094.88 Y 0036.39 E 1437.09
 G1 X 0097.55 Y 0037.52 E 1438.15
G1 X 0097.55 Y 0037.52 E 1439.91
 G1 X 0110.15 Y 0043.81 E 1440.97
G1 X 0110.15 Y 0043.81 E 1442.59
 G1 X 0121.07 Y 0051.58 E 1443.65
G1 X 0121.07 Y 0051.58 E 1442.59
 G1 X 0121.07 Y 0051.58 E 1443.65
G1 X 0121.07 Y 0051.58 E 1464.92
 G1 X 0157.67 Y 0157.09 E 1465.98
G0  F600 Z0.90000004
;INSOLE EDGES
G1 X 0086.10 Y 0056.54 E 1469.55
 G1 X 0102.04 Y 0039.76 E 1470.61
G1 X 0046.02 Y 0037.28 E 1470.61
 G1 X 0043.08 Y 0032.91 E 1471.66
G1 X 0046.02 Y 0037.28 E 1479.50
 G1 X 0086.10 Y 0056.54 E 1480.56
G1 X 0046.52 Y 0066.30 E 1483.41
 G1 X 0027.31 Y 0070.03 E 1484.47
G1 X 0047.03 Y 0065.04 E 1488.97
 G1 X 0046.02 Y 0037.28 E 1490.03
G1 X 0047.03 Y 0065.04 E 1489.24
 G1 X 0046.52 Y 0066.30 E 1490.30
G1 X 0084.32 Y 0071.61 E 1492.28
 G1 X 0086.10 Y 0056.54 E 1493.34
G1 X 0084.32 Y 0071.61 E 1499.85
 G1 X 0047.03 Y 0065.04 E 1500.91
G1 X 0048.33 Y 0091.31 E 1504.86
 G1 X 0046.52 Y 0066.30 E 1505.92
G1 X 0086.32 Y 0087.27 E 1508.02
 G1 X 0084.32 Y 0071.61 E 1509.08
G1 X 0086.32 Y 0087.27 E 1515.66
 G1 X 0048.33 Y 0091.31 E 1516.72
G1 X 0086.47 Y 0087.45 E 1515.71
 G1 X 0086.32 Y 0087.27 E 1516.77
G1 X 0084.81 Y 0092.21 E 1516.72
 G1 X 0086.47 Y 0087.45 E 1517.77
G1 X 0042.49 Y 0096.50 E 1518.28
 G1 X 0048.33 Y 0091.31 E 1519.34
G1 X 0099.83 Y 0091.68 E 1521.08
 G1 X 0086.47 Y 0087.45 E 1522.14
G1 X 0099.83 Y 0091.68 E 1524.28
 G1 X 0108.25 Y 0105.28 E 1525.34
G1 X 0129.32 Y 0075.37 E 1531.02
 G1 X 0099.83 Y 0091.68 E 1532.08
G1 X 0132.95 Y 0114.95 E 1536.33
 G1 X 0108.25 Y 0105.28 E 1537.38
G1 X 0132.95 Y 0114.95 E 1538.24
 G1 X 0141.82 Y 0111.39 E 1539.30
G1 X 0064.45 Y 0117.48 E 1544.73
 G1 X 0084.81 Y 0092.21 E 1545.79
G1 X 0118.81 Y 0136.17 E 1546.36
 G1 X 0117.34 Y 0144.22 E 1547.42
G1 X 0126.97 Y 0129.91 E 1549.59
 G1 X 0132.95 Y 0114.95 E 1550.64
G1 X 0126.97 Y 0129.91 E 1551.64
 G1 X 0118.81 Y 0136.17 E 1552.70
G1 X 0105.83 Y 0127.72 E 1554.74
 G1 X 0118.81 Y 0136.17 E 1555.80
G1 X 0104.16 Y 0129.33 E 1556.79
 G1 X 0100.04 Y 0138.70 E 1557.85
G1 X 0104.16 Y 0129.33 E 1557.25
 G1 X 0105.83 Y 0127.72 E 1558.31
G1 X 0087.88 Y 0132.76 E 1560.58
 G1 X 0104.16 Y 0129.33 E 1561.64
G1 X 0084.16 Y 0124.42 E 1567.02
 G1 X 0084.81 Y 0092.21 E 1568.08
G1 X 0084.16 Y 0124.42 E 1568.10
 G1 X 0081.55 Y 0129.13 E 1569.16
G1 X 0104.17 Y 0120.42 E 1571.24
 G1 X 0108.25 Y 0105.28 E 1572.29
G1 X 0104.17 Y 0120.42 E 1572.73
 G1 X 0105.83 Y 0127.72 E 1573.79
G1 X 0104.17 Y 0120.42 E 1576.81
 G1 X 0084.16 Y 0124.42 E 1577.87
G1 X 0136.28 Y 0138.89 E 1579.40
 G1 X 0126.97 Y 0129.91 E 1580.46
G1 X 0136.28 Y 0138.89 E 1581.58
 G1 X 0133.83 Y 0149.49 E 1582.63
G1 X 0148.42 Y 0139.25 E 1582.17
 G1 X 0150.95 Y 0137.74 E 1583.22
G1 X 0148.42 Y 0139.25 E 1585.02
 G1 X 0142.58 Y 0152.28 E 1586.08
G1 X 0148.42 Y 0139.25 E 1587.45
 G1 X 0136.28 Y 0138.89 E 1588.51
;CONTOUR EDGES
G1 X 0157.67 Y 0157.09 E 1587.45
 G1 X 0157.67 Y 0157.09 E 1588.51
G1 X 0157.67 Y 0157.09 E 1600.12
 G1 X 0097.30 Y 0137.83 E 1601.18
G1 X 0097.30 Y 0137.83 E 1602.93
 G1 X 0084.95 Y 0131.18 E 1603.99
G1 X 0084.95 Y 0131.18 E 1606.27
 G1 X 0070.64 Y 0122.56 E 1607.33
G1 X 0070.64 Y 0122.56 E 1610.27
 G1 X 0055.20 Y 0109.87 E 1611.33
G1 X 0055.20 Y 0109.87 E 1613.75
 G1 X 0043.11 Y 0097.36 E 1614.80
G1 X 0043.11 Y 0097.36 E 1616.84
 G1 X 0034.10 Y 0084.81 E 1617.90
G1 X 0034.10 Y 0084.81 E 1620.65
 G1 X 0026.14 Y 0067.48 E 1621.71
G1 X 0026.14 Y 0067.48 E 1624.60
 G1 X 0026.83 Y 0047.73 E 1625.66
G1 X 0026.83 Y 0047.73 E 1627.29
 G1 X 0034.66 Y 0036.83 E 1628.35
G1 X 0034.66 Y 0036.83 E 1630.69
 G1 X 0050.09 Y 0029.65 E 1631.75
G1 X 0050.09 Y 0029.65 E 1635.63
 G1 X 0074.75 Y 0030.28 E 1636.68
G1 X 0074.75 Y 0030.28 E 1639.83
 G1 X 0094.88 Y 0036.39 E 1640.89
G1 X 0094.88 Y 0036.39 E 1640.41
 G1 X 0097.55 Y 0037.52 E 1641.47
G1 X 0097.55 Y 0037.52 E 1643.23
 G1 X 0110.15 Y 0043.81 E 1644.29
G1 X 0110.15 Y 0043.81 E 1645.91
 G1 X 0121.07 Y 0051.58 E 1646.97
G1 X 0121.07 Y 0051.58 E 1645.91
 G1 X 0121.07 Y 0051.58 E 1646.97
G1 X 0121.07 Y 0051.58 E 1668.25
 G1 X 0157.67 Y 0157.09 E 1669.31
G0  F600 Z1.2
;INSOLE EDGES
G1 X 0086.10 Y 0056.54 E 1672.88
 G1 X 0102.04 Y 0039.76 E 1673.93
G1 X 0046.02 Y 0037.28 E 1673.93
 G1 X 0043.08 Y 0032.91 E 1674.99
G1 X 0046.02 Y 0037.28 E 1682.82
 G1 X 0086.10 Y 0056.54 E 1683.88
G1 X 0046.52 Y 0066.30 E 1686.74
 G1 X 0027.31 Y 0070.03 E 1687.80
G1 X 0047.03 Y 0065.04 E 1692.29
 G1 X 0046.02 Y 0037.28 E 1693.35
G1 X 0047.03 Y 0065.04 E 1692.57
 G1 X 0046.52 Y 0066.30 E 1693.62
G1 X 0084.32 Y 0071.61 E 1695.60
 G1 X 0086.10 Y 0056.54 E 1696.66
G1 X 0084.32 Y 0071.61 E 1703.17
 G1 X 0047.03 Y 0065.04 E 1704.23
G1 X 0048.33 Y 0091.31 E 1708.19
 G1 X 0046.52 Y 0066.30 E 1709.25
G1 X 0086.32 Y 0087.27 E 1711.34
 G1 X 0084.32 Y 0071.61 E 1712.40
G1 X 0086.32 Y 0087.27 E 1718.98
 G1 X 0048.33 Y 0091.31 E 1720.04
G1 X 0086.47 Y 0087.45 E 1719.03
 G1 X 0086.32 Y 0087.27 E 1720.09
G1 X 0084.81 Y 0092.21 E 1720.04
 G1 X 0086.47 Y 0087.45 E 1721.10
G1 X 0042.49 Y 0096.50 E 1721.60
 G1 X 0048.33 Y 0091.31 E 1722.66
G1 X 0099.83 Y 0091.68 E 1724.40
 G1 X 0086.47 Y 0087.45 E 1725.46
G1 X 0099.83 Y 0091.68 E 1727.60
 G1 X 0108.25 Y 0105.28 E 1728.66
G1 X 0129.32 Y 0075.37 E 1734.34
 G1 X 0099.83 Y 0091.68 E 1735.40
G1 X 0132.95 Y 0114.95 E 1739.65
 G1 X 0108.25 Y 0105.28 E 1740.71
G1 X 0132.95 Y 0114.95 E 1741.56
 G1 X 0141.82 Y 0111.39 E 1742.62
G1 X 0064.45 Y 0117.48 E 1748.05
 G1 X 0084.81 Y 0092.21 E 1749.11
G1 X 0118.81 Y 0136.17 E 1749.69
 G1 X 0117.34 Y 0144.22 E 1750.75
G1 X 0126.97 Y 0129.91 E 1752.91
 G1 X 0132.95 Y 0114.95 E 1753.97
G1 X 0126.97 Y 0129.91 E 1754.96
 G1 X 0118.81 Y 0136.17 E 1756.02
G1 X 0105.83 Y 0127.72 E 1758.06
 G1 X 0118.81 Y 0136.17 E 1759.12
G1 X 0104.16 Y 0129.33 E 1760.11
 G1 X 0100.04 Y 0138.70 E 1761.17
G1 X 0104.16 Y 0129.33 E 1760.58
 G1 X 0105.83 Y 0127.72 E 1761.63
G1 X 0087.88 Y 0132.76 E 1763.90
 G1 X 0104.16 Y 0129.33 E 1764.96
G1 X 0084.16 Y 0124.42 E 1770.35
 G1 X 0084.81 Y 0092.21 E 1771.40
G1 X 0084.16 Y 0124.42 E 1771.42
 G1 X 0081.55 Y 0129.13 E 1772.48
G1 X 0104.17 Y 0120.42 E 1774.56
 G1 X 0108.25 Y 0105.28 E 1775.62
G1 X 0104.17 Y 0120.42 E 1776.06
 G1 X 0105.83 Y 0127.72 E 1777.11
G1 X 0104.17 Y 0120.42 E 1780.14
 G1 X 0084.16 Y 0124.42 E 1781.19
G1 X 0136.28 Y 0138.89 E 1782.72
 G1 X 0126.97 Y 0129.91 E 1783.78
G1 X 0136.28 Y 0138.89 E 1784.90
 G1 X 0133.83 Y 0149.49 E 1785.96
G1 X 0148.42 Y 0139.25 E 1785.49
 G1 X 0150.95 Y 0137.74 E 1786.55
G1 X 0148.42 Y 0139.25 E 1788.34
 G1 X 0142.58 Y 0152.28 E 1789.40
G1 X 0148.42 Y 0139.25 E 1790.77
 G1 X 0136.28 Y 0138.89 E 1791.83
;CONTOUR EDGES
G1 X 0157.67 Y 0157.09 E 1790.77
 G1 X 0157.67 Y 0157.09 E 1791.83
G1 X 0157.67 Y 0157.09 E 1803.45
 G1 X 0097.30 Y 0137.83 E 1804.51
G1 X 0097.30 Y 0137.83 E 1806.25
 G1 X 0084.95 Y 0131.18 E 1807.31
G1 X 0084.95 Y 0131.18 E 1809.59
 G1 X 0070.64 Y 0122.56 E 1810.65
G1 X 0070.64 Y 0122.56 E 1813.59
 G1 X 0055.20 Y 0109.87 E 1814.65
G1 X 0055.20 Y 0109.87 E 1817.07
 G1 X 0043.11 Y 0097.36 E 1818.13
G1 X 0043.11 Y 0097.36 E 1820.16
 G1 X 0034.10 Y 0084.81 E 1821.22
G1 X 0034.10 Y 0084.81 E 1823.97
 G1 X 0026.14 Y 0067.48 E 1825.03
G1 X 0026.14 Y 0067.48 E 1827.93
 G1 X 0026.83 Y 0047.73 E 1828.99
G1 X 0026.83 Y 0047.73 E 1830.61
 G1 X 0034.66 Y 0036.83 E 1831.67
G1 X 0034.66 Y 0036.83 E 1834.02
 G1 X 0050.09 Y 0029.65 E 1835.07
G1 X 0050.09 Y 0029.65 E 1838.95
 G1 X 0074.75 Y 0030.28 E 1840.01
G1 X 0074.75 Y 0030.28 E 1843.16
 G1 X 0094.88 Y 0036.39 E 1844.22
G1 X 0094.88 Y 0036.39 E 1843.74
 G1 X 0097.55 Y 0037.52 E 1844.80
G1 X 0097.55 Y 0037.52 E 1846.55
 G1 X 0110.15 Y 0043.81 E 1847.61
G1 X 0110.15 Y 0043.81 E 1849.23
 G1 X 0121.07 Y 0051.58 E 1850.29
G1 X 0121.07 Y 0051.58 E 1849.23
 G1 X 0121.07 Y 0051.58 E 1850.29
G1 X 0121.07 Y 0051.58 E 1871.57
 G1 X 0157.67 Y 0157.09 E 1872.63
G0  F600 Z1.5
;INSOLE EDGES
G1 X 0086.10 Y 0056.54 E 1876.20
 G1 X 0102.04 Y 0039.76 E 1877.26
G1 X 0046.02 Y 0037.28 E 1877.25
 G1 X 0043.08 Y 0032.91 E 1878.31
G1 X 0046.02 Y 0037.28 E 1886.15
 G1 X 0086.10 Y 0056.54 E 1887.21
G1 X 0046.52 Y 0066.30 E 1890.06
 G1 X 0027.31 Y 0070.03 E 1891.12
G1 X 0047.03 Y 0065.04 E 1895.62
 G1 X 0046.02 Y 0037.28 E 1896.67
G1 X 0047.03 Y 0065.04 E 1895.89
 G1 X 0046.52 Y 0066.30 E 1896.95
