;FLAVOR:UltiGCode
; TIME:400
;MATERIAL:160
; MATERIAL2: 0
;NOZZLE_DIAMETER:0.400000
;NOZZLE_DIAMETER2:  0.400000
;Layer count: 98
;LAYER: 0
M107
G0  F600 Z0.3
;INSOLE EDGES
G1 X 0122.46 Y 0146.01 E 0005.27
 G1 X 0146.24 Y 0166.87 E 0006.33
G1 X 0107.04 Y 0161.43 E 0009.63
 G1 X 0122.46 Y 0146.01 E 0010.69
G1 X 0107.04 Y 0161.43 E 0016.76
 G1 X 0091.97 Y 0129.13 E 0017.82
G1 X 0099.30 Y 0173.53 E 0019.63
 G1 X 0107.04 Y 0161.43 E 0020.69
G1 X 0128.09 Y 0132.01 E 0024.87
 G1 X 0154.04 Y 0135.63 E 0025.93
G1 X 0121.53 Y 0140.97 E 0025.90
 G1 X 0122.46 Y 0146.01 E 0026.96
G1 X 0121.53 Y 0140.97 E 0028.12
 G1 X 0128.09 Y 0132.01 E 0029.18
G1 X 0093.31 Y 0128.25 E 0028.44
 G1 X 0091.97 Y 0129.13 E 0029.50
G1 X 0093.31 Y 0128.25 E 0034.63
 G1 X 0121.53 Y 0140.97 E 0035.69
G1 X 0055.59 Y 0152.75 E 0036.15
 G1 X 0049.92 Y 0157.86 E 0037.21
G1 X 0088.70 Y 0130.71 E 0036.88
 G1 X 0091.97 Y 0129.13 E 0037.94
G1 X 0082.98 Y 0152.75 E 0040.75
 G1 X 0090.29 Y 0170.69 E 0041.81
G1 X 0082.98 Y 0152.75 E 0046.23
 G1 X 0055.59 Y 0152.75 E 0047.29
G1 X 0082.98 Y 0152.75 E 0050.79
 G1 X 0088.70 Y 0130.71 E 0051.85
G1 X 0128.83 Y 0125.66 E 0052.07
 G1 X 0128.09 Y 0132.01 E 0053.12
G1 X 0101.02 Y 0106.41 E 0056.70
 G1 X 0093.31 Y 0128.25 E 0057.76
G1 X 0101.02 Y 0106.41 E 0063.46
 G1 X 0128.83 Y 0125.66 E 0064.52
G1 X 0136.78 Y 0112.25 E 0066.58
 G1 X 0128.83 Y 0125.66 E 0067.64
G1 X 0017.62 Y 0068.82 E 0066.71
 G1 X 0017.00 Y 0069.07 E 0067.77
G1 X 0024.51 Y 0061.55 E 0068.72
 G1 X 0017.62 Y 0068.82 E 0069.78
G1 X 0068.61 Y 0125.10 E 0072.89
 G1 X 0088.70 Y 0130.71 E 0073.95
G1 X 0060.83 Y 0133.01 E 0076.98
 G1 X 0055.59 Y 0152.75 E 0078.03
G1 X 0060.83 Y 0133.01 E 0081.75
 G1 X 0037.47 Y 0128.09 E 0082.81
G1 X 0060.83 Y 0133.01 E 0083.97
 G1 X 0068.61 Y 0125.10 E 0085.03
G1 X 0028.94 Y 0073.35 E 0086.41
 G1 X 0017.62 Y 0068.82 E 0087.46
G1 X 0064.02 Y 0115.21 E 0088.59
 G1 X 0068.61 Y 0125.10 E 0089.64
G1 X 0101.58 Y 0099.72 E 0089.93
 G1 X 0101.02 Y 0106.41 E 0090.99
G1 X 0080.25 Y 0092.90 E 0095.44
 G1 X 0064.02 Y 0115.21 E 0096.50
G1 X 0023.43 Y 0081.45 E 0097.40
 G1 X 0028.94 Y 0073.35 E 0098.46
G1 X 0040.51 Y 0082.76 E 0100.83
 G1 X 0023.43 Y 0081.45 E 0101.89
G1 X 0025.90 Y 0094.72 E 0104.61
 G1 X 0040.51 Y 0082.76 E 0105.66
G1 X 0021.76 Y 0082.78 E 0105.03
 G1 X 0023.43 Y 0081.45 E 0106.09
G1 X 0049.18 Y 0078.55 E 0106.96
 G1 X 0040.51 Y 0082.76 E 0108.02
G1 X 0035.76 Y 0069.29 E 0108.55
 G1 X 0028.94 Y 0073.35 E 0109.61
G1 X 0053.54 Y 0109.52 E 0110.93
 G1 X 0064.02 Y 0115.21 E 0111.99
G1 X 0053.54 Y 0109.52 E 0115.82
 G1 X 0065.31 Y 0088.13 E 0116.87
G1 X 0044.69 Y 0107.55 E 0118.53
 G1 X 0032.18 Y 0112.83 E 0119.59
G1 X 0044.69 Y 0107.55 E 0124.39
 G1 X 0049.33 Y 0078.65 E 0125.45
G1 X 0044.69 Y 0107.55 E 0126.20
 G1 X 0053.54 Y 0109.52 E 0127.26
;CONTOUR EDGES
G1 X 0010.94 Y 0051.58 E 0126.20
 G1 X 0010.94 Y 0051.58 E 0127.26
G1 X 0010.94 Y 0051.58 E 0128.76
 G1 X 0021.19 Y 0059.26 E 0129.82
G1 X 0021.19 Y 0059.26 E 0138.48
 G1 X 0061.19 Y 0086.82 E 0139.54
G1 X 0061.19 Y 0086.82 E 0147.97
 G1 X 0106.41 Y 0101.26 E 0149.03
G1 X 0106.41 Y 0101.26 E 0155.36
 G1 X 0141.14 Y 0113.83 E 0156.42
G1 X 0141.14 Y 0113.83 E 0161.70
 G1 X 0157.28 Y 0141.10 E 0162.76
G1 X 0157.28 Y 0141.10 E 0164.89
 G1 X 0153.87 Y 0156.72 E 0165.95
G1 X 0153.87 Y 0156.72 E 0169.09
 G1 X 0141.28 Y 0173.48 E 0170.14
G1 X 0141.28 Y 0173.48 E 0175.51
 G1 X 0109.30 Y 0176.68 E 0176.57
G1 X 0109.30 Y 0176.68 E 0182.89
 G1 X 0074.10 Y 0165.60 E 0183.95
G1 X 0074.10 Y 0165.60 E 0188.47
 G1 X 0047.53 Y 0157.09 E 0189.53
G1 X 0047.53 Y 0157.09 E 0188.47
 G1 X 0047.53 Y 0157.09 E 0189.53
G1 X 0047.53 Y 0157.09 E 0210.81
 G1 X 0010.94 Y 0051.58 E 0211.87
G0  F600 Z0.6
;INSOLE EDGES
G1 X 0122.46 Y 0146.01 E 0217.14
 G1 X 0146.24 Y 0166.87 E 0218.19
G1 X 0107.04 Y 0161.43 E 0221.50
 G1 X 0122.46 Y 0146.01 E 0222.56
G1 X 0107.04 Y 0161.43 E 0228.63
 G1 X 0091.97 Y 0129.13 E 0229.68
G1 X 0099.30 Y 0173.53 E 0231.50
 G1 X 0107.04 Y 0161.43 E 0232.56
G1 X 0128.09 Y 0132.01 E 0236.74
 G1 X 0154.04 Y 0135.63 E 0237.80
G1 X 0121.53 Y 0140.97 E 0237.76
 G1 X 0122.46 Y 0146.01 E 0238.82
G1 X 0121.53 Y 0140.97 E 0239.98
 G1 X 0128.09 Y 0132.01 E 0241.04
G1 X 0093.31 Y 0128.25 E 0240.31
 G1 X 0091.97 Y 0129.13 E 0241.36
G1 X 0093.31 Y 0128.25 E 0246.50
 G1 X 0121.53 Y 0140.97 E 0247.55
G1 X 0055.59 Y 0152.75 E 0248.02
 G1 X 0049.92 Y 0157.86 E 0249.08
G1 X 0088.70 Y 0130.71 E 0248.75
 G1 X 0091.97 Y 0129.13 E 0249.81
G1 X 0082.98 Y 0152.75 E 0252.62
 G1 X 0090.29 Y 0170.69 E 0253.68
G1 X 0082.98 Y 0152.75 E 0258.10
 G1 X 0055.59 Y 0152.75 E 0259.16
G1 X 0082.98 Y 0152.75 E 0262.65
 G1 X 0088.70 Y 0130.71 E 0263.71
G1 X 0128.83 Y 0125.66 E 0263.93
 G1 X 0128.09 Y 0132.01 E 0264.99
G1 X 0101.02 Y 0106.41 E 0268.57
 G1 X 0093.31 Y 0128.25 E 0269.62
G1 X 0101.02 Y 0106.41 E 0275.33
 G1 X 0128.83 Y 0125.66 E 0276.39
G1 X 0136.78 Y 0112.25 E 0278.45
 G1 X 0128.83 Y 0125.66 E 0279.51
G1 X 0017.62 Y 0068.82 E 0278.58
 G1 X 0017.00 Y 0069.07 E 0279.64
G1 X 0024.51 Y 0061.55 E 0280.59
 G1 X 0017.62 Y 0068.82 E 0281.64
G1 X 0068.61 Y 0125.10 E 0284.76
 G1 X 0088.70 Y 0130.71 E 0285.82
G1 X 0060.83 Y 0133.01 E 0288.84
 G1 X 0055.59 Y 0152.75 E 0289.90
G1 X 0060.83 Y 0133.01 E 0293.62
 G1 X 0037.47 Y 0128.09 E 0294.68
G1 X 0060.83 Y 0133.01 E 0295.84
 G1 X 0068.61 Y 0125.10 E 0296.89
G1 X 0028.94 Y 0073.35 E 0298.27
 G1 X 0017.62 Y 0068.82 E 0299.33
G1 X 0064.02 Y 0115.21 E 0300.45
 G1 X 0068.61 Y 0125.10 E 0301.51
G1 X 0101.58 Y 0099.72 E 0301.80
 G1 X 0101.02 Y 0106.41 E 0302.85
G1 X 0080.25 Y 0092.90 E 0307.31
 G1 X 0064.02 Y 0115.21 E 0308.37
G1 X 0023.43 Y 0081.45 E 0309.27
 G1 X 0028.94 Y 0073.35 E 0310.33
G1 X 0040.51 Y 0082.76 E 0312.70
 G1 X 0023.43 Y 0081.45 E 0313.76
G1 X 0025.90 Y 0094.72 E 0316.47
 G1 X 0040.51 Y 0082.76 E 0317.53
G1 X 0021.76 Y 0082.78 E 0316.90
 G1 X 0023.43 Y 0081.45 E 0317.96
G1 X 0049.18 Y 0078.55 E 0318.83
 G1 X 0040.51 Y 0082.76 E 0319.89
G1 X 0035.76 Y 0069.29 E 0320.42
 G1 X 0028.94 Y 0073.35 E 0321.48
G1 X 0053.54 Y 0109.52 E 0322.80
 G1 X 0064.02 Y 0115.21 E 0323.86
G1 X 0053.54 Y 0109.52 E 0327.68
 G1 X 0065.31 Y 0088.13 E 0328.74
G1 X 0044.69 Y 0107.55 E 0330.40
 G1 X 0032.18 Y 0112.83 E 0331.46
G1 X 0044.69 Y 0107.55 E 0336.25
 G1 X 0049.33 Y 0078.65 E 0337.31
G1 X 0044.69 Y 0107.55 E 0338.07
 G1 X 0053.54 Y 0109.52 E 0339.13
;CONTOUR EDGES
G1 X 0010.94 Y 0051.58 E 0338.07
 G1 X 0010.94 Y 0051.58 E 0339.13
G1 X 0010.94 Y 0051.58 E 0340.63
 G1 X 0021.19 Y 0059.26 E 0341.69
G1 X 0021.19 Y 0059.26 E 0350.34
 G1 X 0061.19 Y 0086.82 E 0351.40
G1 X 0061.19 Y 0086.82 E 0359.84
 G1 X 0106.41 Y 0101.26 E 0360.90
G1 X 0106.41 Y 0101.26 E 0367.23
 G1 X 0141.14 Y 0113.83 E 0368.29
G1 X 0141.14 Y 0113.83 E 0373.56
 G1 X 0157.28 Y 0141.10 E 0374.62
G1 X 0157.28 Y 0141.10 E 0376.76
 G1 X 0153.87 Y 0156.72 E 0377.82
G1 X 0153.87 Y 0156.72 E 0380.95
 G1 X 0141.28 Y 0173.48 E 0382.01
G1 X 0141.28 Y 0173.48 E 0387.38
 G1 X 0109.30 Y 0176.68 E 0388.44
G1 X 0109.30 Y 0176.68 E 0394.76
 G1 X 0074.10 Y 0165.60 E 0395.82
G1 X 0074.10 Y 0165.60 E 0400.34
 G1 X 0047.53 Y 0157.09 E 0401.40
G1 X 0047.53 Y 0157.09 E 0400.34
 G1 X 0047.53 Y 0157.09 E 0401.40
G1 X 0047.53 Y 0157.09 E 0422.68
 G1 X 0010.94 Y 0051.58 E 0423.73
G0  F600 Z0.90000004
;INSOLE EDGES
G1 X 0122.46 Y 0146.01 E 0429.00
 G1 X 0146.24 Y 0166.87 E 0430.06
G1 X 0107.04 Y 0161.43 E 0433.37
 G1 X 0122.46 Y 0146.01 E 0434.42
G1 X 0107.04 Y 0161.43 E 0440.49
 G1 X 0091.97 Y 0129.13 E 0441.55
G1 X 0099.30 Y 0173.53 E 0443.37
 G1 X 0107.04 Y 0161.43 E 0444.42
G1 X 0128.09 Y 0132.01 E 0448.61
 G1 X 0154.04 Y 0135.63 E 0449.66
G1 X 0121.53 Y 0140.97 E 0449.63
 G1 X 0122.46 Y 0146.01 E 0450.69
G1 X 0121.53 Y 0140.97 E 0451.85
 G1 X 0128.09 Y 0132.01 E 0452.91
G1 X 0093.31 Y 0128.25 E 0452.17
 G1 X 0091.97 Y 0129.13 E 0453.23
G1 X 0093.31 Y 0128.25 E 0458.36
 G1 X 0121.53 Y 0140.97 E 0459.42
G1 X 0055.59 Y 0152.75 E 0459.89
 G1 X 0049.92 Y 0157.86 E 0460.95
G1 X 0088.70 Y 0130.71 E 0460.61
 G1 X 0091.97 Y 0129.13 E 0461.67
G1 X 0082.98 Y 0152.75 E 0464.49
 G1 X 0090.29 Y 0170.69 E 0465.55
G1 X 0082.98 Y 0152.75 E 0469.97
 G1 X 0055.59 Y 0152.75 E 0471.03
G1 X 0082.98 Y 0152.75 E 0474.52
 G1 X 0088.70 Y 0130.71 E 0475.58
G1 X 0128.83 Y 0125.66 E 0475.80
 G1 X 0128.09 Y 0132.01 E 0476.86
G1 X 0101.02 Y 0106.41 E 0480.43
 G1 X 0093.31 Y 0128.25 E 0481.49
G1 X 0101.02 Y 0106.41 E 0487.20
 G1 X 0128.83 Y 0125.66 E 0488.26
G1 X 0136.78 Y 0112.25 E 0490.31
 G1 X 0128.83 Y 0125.66 E 0491.37
G1 X 0017.62 Y 0068.82 E 0490.45
 G1 X 0017.00 Y 0069.07 E 0491.51
G1 X 0024.51 Y 0061.55 E 0492.45
 G1 X 0017.62 Y 0068.82 E 0493.51
G1 X 0068.61 Y 0125.10 E 0496.62
 G1 X 0088.70 Y 0130.71 E 0497.68
G1 X 0060.83 Y 0133.01 E 0500.71
 G1 X 0055.59 Y 0152.75 E 0501.77
G1 X 0060.83 Y 0133.01 E 0505.48
 G1 X 0037.47 Y 0128.09 E 0506.54
G1 X 0060.83 Y 0133.01 E 0507.70
 G1 X 0068.61 Y 0125.10 E 0508.76
G1 X 0028.94 Y 0073.35 E 0510.14
 G1 X 0017.62 Y 0068.82 E 0511.20
G1 X 0064.02 Y 0115.21 E 0512.32
 G1 X 0068.61 Y 0125.10 E 0513.38
G1 X 0101.58 Y 0099.72 E 0513.66
 G1 X 0101.02 Y 0106.41 E 0514.72
G1 X 0080.25 Y 0092.90 E 0519.18
 G1 X 0064.02 Y 0115.21 E 0520.24
G1 X 0023.43 Y 0081.45 E 0521.14
 G1 X 0028.94 Y 0073.35 E 0522.20
G1 X 0040.51 Y 0082.76 E 0524.56
 G1 X 0023.43 Y 0081.45 E 0525.62
G1 X 0025.90 Y 0094.72 E 0528.34
 G1 X 0040.51 Y 0082.76 E 0529.40
G1 X 0021.76 Y 0082.78 E 0528.77
 G1 X 0023.43 Y 0081.45 E 0529.83
G1 X 0049.18 Y 0078.55 E 0530.70
 G1 X 0040.51 Y 0082.76 E 0531.76
G1 X 0035.76 Y 0069.29 E 0532.28
 G1 X 0028.94 Y 0073.35 E 0533.34
G1 X 0053.54 Y 0109.52 E 0534.67
 G1 X 0064.02 Y 0115.21 E 0535.73
G1 X 0053.54 Y 0109.52 E 0539.55
 G1 X 0065.31 Y 0088.13 E 0540.61
G1 X 0044.69 Y 0107.55 E 0542.27
 G1 X 0032.18 Y 0112.83 E 0543.32
G1 X 0044.69 Y 0107.55 E 0548.12
 G1 X 0049.33 Y 0078.65 E 0549.18
G1 X 0044.69 Y 0107.55 E 0549.94
 G1 X 0053.54 Y 0109.52 E 0550.99
;CONTOUR EDGES
G1 X 0010.94 Y 0051.58 E 0549.94
 G1 X 0010.94 Y 0051.58 E 0550.99
G1 X 0010.94 Y 0051.58 E 0552.50
 G1 X 0021.19 Y 0059.26 E 0553.56
G1 X 0021.19 Y 0059.26 E 0562.21
 G1 X 0061.19 Y 0086.82 E 0563.27
G1 X 0061.19 Y 0086.82 E 0571.71
 G1 X 0106.41 Y 0101.26 E 0572.77
G1 X 0106.41 Y 0101.26 E 0579.09
 G1 X 0141.14 Y 0113.83 E 0580.15
G1 X 0141.14 Y 0113.83 E 0585.43
 G1 X 0157.28 Y 0141.10 E 0586.49
G1 X 0157.28 Y 0141.10 E 0588.63
 G1 X 0153.87 Y 0156.72 E 0589.69
G1 X 0153.87 Y 0156.72 E 0592.82
 G1 X 0141.28 Y 0173.48 E 0593.88
G1 X 0141.28 Y 0173.48 E 0599.25
 G1 X 0109.30 Y 0176.68 E 0600.31
G1 X 0109.30 Y 0176.68 E 0606.63
 G1 X 0074.10 Y 0165.60 E 0607.69
G1 X 0074.10 Y 0165.60 E 0612.21
 G1 X 0047.53 Y 0157.09 E 0613.27
G1 X 0047.53 Y 0157.09 E 0612.21
 G1 X 0047.53 Y 0157.09 E 0613.27
G1 X 0047.53 Y 0157.09 E 0634.54
 G1 X 0010.94 Y 0051.58 E 0635.60
G0  F600 Z1.2
;INSOLE EDGES
G1 X 0122.46 Y 0146.01 E 0640.87
 G1 X 0146.24 Y 0166.87 E 0641.93
G1 X 0107.04 Y 0161.43 E 0645.23
 G1 X 0122.46 Y 0146.01 E 0646.29
G1 X 0107.04 Y 0161.43 E 0652.36
 G1 X 0091.97 Y 0129.13 E 0653.42
G1 X 0099.30 Y 0173.53 E 0655.23
 G1 X 0107.04 Y 0161.43 E 0656.29
G1 X 0128.09 Y 0132.01 E 0660.47
 G1 X 0154.04 Y 0135.63 E 0661.53
G1 X 0121.53 Y 0140.97 E 0661.50
 G1 X 0122.46 Y 0146.01 E 0662.56
G1 X 0121.53 Y 0140.97 E 0663.72
 G1 X 0128.09 Y 0132.01 E 0664.78
G1 X 0093.31 Y 0128.25 E 0664.04
 G1 X 0091.97 Y 0129.13 E 0665.10
G1 X 0093.31 Y 0128.25 E 0670.23
 G1 X 0121.53 Y 0140.97 E 0671.29
G1 X 0055.59 Y 0152.75 E 0671.76
 G1 X 0049.92 Y 0157.86 E 0672.81
G1 X 0088.70 Y 0130.71 E 0672.48
 G1 X 0091.97 Y 0129.13 E 0673.54
G1 X 0082.98 Y 0152.75 E 0676.36
 G1 X 0090.29 Y 0170.69 E 0677.41
G1 X 0082.98 Y 0152.75 E 0681.84
 G1 X 0055.59 Y 0152.75 E 0682.89
G1 X 0082.98 Y 0152.75 E 0686.39
 G1 X 0088.70 Y 0130.71 E 0687.45
G1 X 0128.83 Y 0125.66 E 0687.67
 G1 X 0128.09 Y 0132.01 E 0688.73
G1 X 0101.02 Y 0106.41 E 0692.30
 G1 X 0093.31 Y 0128.25 E 0693.36
G1 X 0101.02 Y 0106.41 E 0699.06
 G1 X 0128.83 Y 0125.66 E 0700.12
G1 X 0136.78 Y 0112.25 E 0702.18
 G1 X 0128.83 Y 0125.66 E 0703.24
G1 X 0017.62 Y 0068.82 E 0702.32
 G1 X 0017.00 Y 0069.07 E 0703.37
G1 X 0024.51 Y 0061.55 E 0704.32
 G1 X 0017.62 Y 0068.82 E 0705.38
G1 X 0068.61 Y 0125.10 E 0708.49
 G1 X 0088.70 Y 0130.71 E 0709.55
G1 X 0060.83 Y 0133.01 E 0712.58
 G1 X 0055.59 Y 0152.75 E 0713.64
G1 X 0060.83 Y 0133.01 E 0717.35
 G1 X 0037.47 Y 0128.09 E 0718.41
G1 X 0060.83 Y 0133.01 E 0719.57
 G1 X 0068.61 Y 0125.10 E 0720.63
G1 X 0028.94 Y 0073.35 E 0722.01
 G1 X 0017.62 Y 0068.82 E 0723.07
G1 X 0064.02 Y 0115.21 E 0724.19
 G1 X 0068.61 Y 0125.10 E 0725.24
G1 X 0101.58 Y 0099.72 E 0725.53
 G1 X 0101.02 Y 0106.41 E 0726.59
G1 X 0080.25 Y 0092.90 E 0731.05
 G1 X 0064.02 Y 0115.21 E 0732.10
G1 X 0023.43 Y 0081.45 E 0733.01
 G1 X 0028.94 Y 0073.35 E 0734.06
G1 X 0040.51 Y 0082.76 E 0736.43
 G1 X 0023.43 Y 0081.45 E 0737.49
G1 X 0025.90 Y 0094.72 E 0740.21
 G1 X 0040.51 Y 0082.76 E 0741.27
G1 X 0021.76 Y 0082.78 E 0740.63
 G1 X 0023.43 Y 0081.45 E 0741.69
G1 X 0049.18 Y 0078.55 E 0742.56
 G1 X 0040.51 Y 0082.76 E 0743.62
G1 X 0035.76 Y 0069.29 E 0744.15
 G1 X 0028.94 Y 0073.35 E 0745.21
G1 X 0053.54 Y 0109.52 E 0746.54
 G1 X 0064.02 Y 0115.21 E 0747.59
G1 X 0053.54 Y 0109.52 E 0751.42
 G1 X 0065.31 Y 0088.13 E 0752.48
G1 X 0044.69 Y 0107.55 E 0754.13
 G1 X 0032.18 Y 0112.83 E 0755.19
G1 X 0044.69 Y 0107.55 E 0759.99
 G1 X 0049.33 Y 0078.65 E 0761.05
G1 X 0044.69 Y 0107.55 E 0761.80
 G1 X 0053.54 Y 0109.52 E 0762.86
;CONTOUR EDGES
G1 X 0010.94 Y 0051.58 E 0761.80
 G1 X 0010.94 Y 0051.58 E 0762.86
G1 X 0010.94 Y 0051.58 E 0764.36
 G1 X 0021.19 Y 0059.26 E 0765.42
G1 X 0021.19 Y 0059.26 E 0774.08
 G1 X 0061.19 Y 0086.82 E 0775.14
G1 X 0061.19 Y 0086.82 E 0783.58
 G1 X 0106.41 Y 0101.26 E 0784.63
G1 X 0106.41 Y 0101.26 E 0790.96
 G1 X 0141.14 Y 0113.83 E 0792.02
G1 X 0141.14 Y 0113.83 E 0797.30
 G1 X 0157.28 Y 0141.10 E 0798.36
G1 X 0157.28 Y 0141.10 E 0800.50
 G1 X 0153.87 Y 0156.72 E 0801.55
G1 X 0153.87 Y 0156.72 E 0804.69
 G1 X 0141.28 Y 0173.48 E 0805.75
G1 X 0141.28 Y 0173.48 E 0811.11
 G1 X 0109.30 Y 0176.68 E 0812.17
G1 X 0109.30 Y 0176.68 E 0818.50
 G1 X 0074.10 Y 0165.60 E 0819.55
G1 X 0074.10 Y 0165.60 E 0824.07
 G1 X 0047.53 Y 0157.09 E 0825.13
G1 X 0047.53 Y 0157.09 E 0824.07
 G1 X 0047.53 Y 0157.09 E 0825.13
G1 X 0047.53 Y 0157.09 E 0846.41
 G1 X 0010.94 Y 0051.58 E 0847.47
G0  F600 Z1.5
;INSOLE EDGES
G1 X 0122.46 Y 0146.01 E 0852.74
 G1 X 0146.24 Y 0166.87 E 0853.80
G1 X 0107.04 Y 0161.43 E 0857.10
 G1 X 0122.46 Y 0146.01 E 0858.16
G1 X 0107.04 Y 0161.43 E 0864.23
 G1 X 0091.97 Y 0129.13 E 0865.29
G1 X 0099.30 Y 0173.53 E 0867.10
 G1 X 0107.04 Y 0161.43 E 0868.16
G1 X 0128.09 Y 0132.01 E 0872.34
 G1 X 0154.04 Y 0135.63 E 0873.40
G1 X 0121.53 Y 0140.97 E 0873.37
 G1 X 0122.46 Y 0146.01 E 0874.42
G1 X 0121.53 Y 0140.97 E 0875.59
 G1 X 0128.09 Y 0132.01 E 0876.64
G1 X 0093.31 Y 0128.25 E 0875.91
 G1 X 0091.97 Y 0129.13 E 0876.97
G1 X 0093.31 Y 0128.25 E 0882.10
 G1 X 0121.53 Y 0140.97 E 0883.16
G1 X 0055.59 Y 0152.75 E 0883.62
 G1 X 0049.92 Y 0157.86 E 0884.68
G1 X 0088.70 Y 0130.71 E 0884.35
 G1 X 0091.97 Y 0129.13 E 0885.41
G1 X 0082.98 Y 0152.75 E 0888.22
 G1 X 0090.29 Y 0170.69 E 0889.28
G1 X 0082.98 Y 0152.75 E 0893.70
 G1 X 0055.59 Y 0152.75 E 0894.76
G1 X 0082.98 Y 0152.75 E 0898.26
 G1 X 0088.70 Y 0130.71 E 0899.31
G1 X 0128.83 Y 0125.66 E 0899.54
 G1 X 0128.09 Y 0132.01 E 0900.59
G1 X 0101.02 Y 0106.41 E 0904.17
 G1 X 0093.31 Y 0128.25 E 0905.23
G1 X 0101.02 Y 0106.41 E 0910.93
 G1 X 0128.83 Y 0125.66 E 0911.99
G1 X 0136.78 Y 0112.25 E 0914.05
 G1 X 0128.83 Y 0125.66 E 0915.11
