;FLAVOR:UltiGCode
; TIME:400
;MATERIAL:160
; MATERIAL2: 0
;NOZZLE_DIAMETER:0.400000
;NOZZLE_DIAMETER2:  0.400000
;Layer count: 98
;LAYER: 0
M107
G0  F600 Z0.3
;CONTOUR EDGES
G1 X 0194.03 Y 0118.18 E -0002.85
 G1 X 0195.44 Y 0117.23 E 0000.68
G1 X 0195.44 Y 0117.23 E -0002.17
 G1 X 0196.85 Y 0116.28 E 0001.36
G1 X 0196.85 Y 0116.28 E -0001.49
 G1 X 0198.26 Y 0115.33 E 0002.04
G1 X 0198.26 Y 0115.33 E -0000.81
 G1 X 0199.67 Y 0114.37 E 0002.72
G1 X 0199.67 Y 0114.37 E -0000.13
 G1 X 0201.07 Y 0113.42 E 0003.40
G1 X 0201.07 Y 0113.42 E 0000.55
 G1 X 0202.48 Y 0112.46 E 0004.08
G1 X 0202.48 Y 0112.46 E 0001.24
 G1 X 0203.89 Y 0111.51 E 0004.76
G1 X 0203.89 Y 0111.51 E 0001.92
 G1 X 0205.30 Y 0110.55 E 0005.44
G1 X 0205.30 Y 0110.55 E 0002.60
 G1 X 0206.70 Y 0109.60 E 0006.12
G1 X 0206.70 Y 0109.60 E 0003.28
 G1 X 0208.11 Y 0108.64 E 0006.80
G1 X 0208.11 Y 0108.64 E 0003.96
 G1 X 0209.52 Y 0107.69 E 0007.48
G1 X 0209.52 Y 0107.69 E 0004.64
 G1 X 0210.93 Y 0106.73 E 0008.16
G1 X 0210.93 Y 0106.73 E 0005.32
 G1 X 0212.33 Y 0105.78 E 0008.85
G1 X 0212.33 Y 0105.78 E 0006.00
 G1 X 0213.74 Y 0104.82 E 0009.53
G1 X 0213.74 Y 0104.82 E 0006.68
 G1 X 0215.15 Y 0103.87 E 0010.21
G1 X 0215.15 Y 0103.87 E 0007.36
 G1 X 0216.56 Y 0102.91 E 0010.89
G1 X 0216.56 Y 0102.91 E 0008.04
 G1 X 0217.97 Y 0101.96 E 0011.57
G1 X 0217.97 Y 0101.96 E 0008.72
 G1 X 0219.37 Y 0101.00 E 0012.25
G1 X 0219.37 Y 0101.00 E 0009.40
 G1 X 0220.78 Y 0100.05 E 0012.93
G1 X 0220.78 Y 0100.05 E 0010.08
 G1 X 0222.19 Y 0099.10 E 0013.61
G1 X 0222.19 Y 0099.10 E 0010.76
 G1 X 0223.60 Y 0098.14 E 0014.29
G1 X 0223.60 Y 0098.14 E 0011.44
 G1 X 0225.01 Y 0097.19 E 0014.97
G1 X 0225.01 Y 0097.19 E 0012.12
 G1 X 0226.42 Y 0096.24 E 0015.65
G1 X 0226.42 Y 0096.24 E 0012.80
 G1 X 0227.83 Y 0095.29 E 0016.33
G1 X 0227.83 Y 0095.29 E 0013.48
 G1 X 0229.24 Y 0094.34 E 0017.01
G1 X 0229.24 Y 0094.34 E 0014.16
 G1 X 0230.65 Y 0093.39 E 0017.69
G1 X 0230.65 Y 0093.39 E 0014.84
 G1 X 0232.06 Y 0092.44 E 0018.37
G1 X 0232.06 Y 0092.44 E 0015.52
 G1 X 0233.48 Y 0091.49 E 0019.05
G1 X 0233.48 Y 0091.49 E 0016.20
 G1 X 0234.89 Y 0090.54 E 0019.73
G1 X 0234.89 Y 0090.54 E 0016.88
 G1 X 0236.30 Y 0089.60 E 0020.41
G1 X 0236.30 Y 0089.60 E 0017.57
 G1 X 0237.72 Y 0088.65 E 0021.09
G1 X 0237.72 Y 0088.65 E 0018.25
 G1 X 0239.13 Y 0087.71 E 0021.77
G1 X 0239.13 Y 0087.71 E 0018.93
 G1 X 0240.55 Y 0086.77 E 0022.45
G1 X 0240.55 Y 0086.77 E 0019.61
 G1 X 0241.97 Y 0085.83 E 0023.13
G1 X 0241.97 Y 0085.83 E 0020.29
 G1 X 0243.38 Y 0084.89 E 0023.81
G1 X 0243.38 Y 0084.89 E 0020.97
 G1 X 0244.80 Y 0083.95 E 0024.50
G1 X 0244.80 Y 0083.95 E 0021.65
 G1 X 0246.23 Y 0083.02 E 0025.18
G1 X 0246.23 Y 0083.02 E 0022.33
 G1 X 0247.65 Y 0082.08 E 0025.86
G1 X 0247.65 Y 0082.08 E 0023.01
 G1 X 0249.08 Y 0081.16 E 0026.54
G1 X 0249.08 Y 0081.16 E 0023.69
 G1 X 0250.51 Y 0080.24 E 0027.22
G1 X 0250.51 Y 0080.24 E 0024.37
 G1 X 0251.94 Y 0079.32 E 0027.90
G1 X 0251.94 Y 0079.32 E 0025.05
 G1 X 0253.38 Y 0078.41 E 0028.58
G1 X 0253.38 Y 0078.41 E 0025.73
 G1 X 0254.83 Y 0077.52 E 0029.26
G1 X 0254.83 Y 0077.52 E 0026.41
 G1 X 0256.29 Y 0076.64 E 0029.94
G1 X 0256.29 Y 0076.64 E 0027.09
 G1 X 0257.76 Y 0075.78 E 0030.62
G1 X 0257.76 Y 0075.78 E 0027.77
 G1 X 0259.24 Y 0074.96 E 0031.30
G1 X 0259.24 Y 0074.96 E 0028.45
 G1 X 0260.76 Y 0074.19 E 0031.98
G1 X 0260.76 Y 0074.19 E 0029.13
 G1 X 0262.32 Y 0073.53 E 0032.66
G1 X 0262.32 Y 0073.53 E 0029.81
 G1 X 0263.98 Y 0073.16 E 0033.34
G1 X 0263.98 Y 0073.16 E 0030.49
 G1 X 0265.66 Y 0072.93 E 0034.02
G1 X 0265.66 Y 0072.93 E 0031.17
 G1 X 0267.28 Y 0072.42 E 0034.70
G1 X 0267.28 Y 0072.42 E 0031.85
 G1 X 0268.86 Y 0071.79 E 0035.38
G1 X 0268.86 Y 0071.79 E 0032.53
 G1 X 0270.44 Y 0071.15 E 0036.06
G1 X 0270.44 Y 0071.15 E 0033.21
 G1 X 0272.01 Y 0070.50 E 0036.74
G1 X 0272.01 Y 0070.50 E 0033.89
 G1 X 0273.59 Y 0069.86 E 0037.42
G1 X 0273.59 Y 0069.86 E 0034.57
 G1 X 0275.17 Y 0069.22 E 0038.10
G1 X 0275.17 Y 0069.22 E 0035.25
 G1 X 0276.75 Y 0068.60 E 0038.78
G1 X 0276.75 Y 0068.60 E 0035.93
 G1 X 0278.34 Y 0068.00 E 0039.46
G1 X 0278.34 Y 0068.00 E 0036.61
 G1 X 0279.94 Y 0067.42 E 0040.14
G1 X 0279.94 Y 0067.42 E 0037.29
 G1 X 0281.55 Y 0066.86 E 0040.82
G1 X 0281.55 Y 0066.86 E 0037.97
 G1 X 0283.16 Y 0066.33 E 0041.50
G1 X 0283.16 Y 0066.33 E 0038.65
 G1 X 0284.79 Y 0065.84 E 0042.18
G1 X 0284.79 Y 0065.84 E 0039.34
 G1 X 0286.43 Y 0065.37 E 0042.86
G1 X 0286.43 Y 0065.37 E 0040.02
 G1 X 0288.07 Y 0064.93 E 0043.54
G1 X 0288.07 Y 0064.93 E 0040.70
 G1 X 0289.72 Y 0064.50 E 0044.22
G1 X 0289.72 Y 0064.50 E 0041.38
 G1 X 0291.37 Y 0064.09 E 0044.90
G1 X 0291.37 Y 0064.09 E 0042.06
 G1 X 0293.02 Y 0063.70 E 0045.58
G1 X 0293.02 Y 0063.70 E 0042.74
 G1 X 0294.68 Y 0063.31 E 0046.27
G1 X 0294.68 Y 0063.31 E 0043.42
 G1 X 0296.34 Y 0062.95 E 0046.95
G1 X 0296.34 Y 0062.95 E 0044.10
 G1 X 0298.00 Y 0062.59 E 0047.63
G1 X 0298.00 Y 0062.59 E 0044.78
 G1 X 0299.67 Y 0062.25 E 0048.31
G1 X 0299.67 Y 0062.25 E 0045.46
 G1 X 0301.34 Y 0061.92 E 0048.99
G1 X 0301.34 Y 0061.92 E 0046.14
 G1 X 0303.01 Y 0061.60 E 0049.67
G1 X 0303.01 Y 0061.60 E 0046.82
 G1 X 0304.68 Y 0061.29 E 0050.35
G1 X 0304.68 Y 0061.29 E 0047.50
 G1 X 0306.36 Y 0061.01 E 0051.03
G1 X 0306.36 Y 0061.01 E 0048.18
 G1 X 0308.04 Y 0060.73 E 0051.71
G1 X 0308.04 Y 0060.73 E 0048.86
 G1 X 0309.72 Y 0060.48 E 0052.39
G1 X 0309.72 Y 0060.48 E 0049.54
 G1 X 0311.40 Y 0060.24 E 0053.07
G1 X 0311.40 Y 0060.24 E 0050.22
 G1 X 0313.09 Y 0060.02 E 0053.75
G1 X 0313.09 Y 0060.02 E 0050.90
 G1 X 0314.78 Y 0059.82 E 0054.43
G1 X 0314.78 Y 0059.82 E 0051.58
 G1 X 0316.47 Y 0059.64 E 0055.11
G1 X 0316.47 Y 0059.64 E 0052.26
 G1 X 0318.17 Y 0059.48 E 0055.79
G1 X 0318.17 Y 0059.48 E 0052.94
 G1 X 0319.86 Y 0059.34 E 0056.47
G1 X 0319.86 Y 0059.34 E 0053.62
 G1 X 0321.56 Y 0059.22 E 0057.15
G1 X 0321.56 Y 0059.22 E 0054.30
 G1 X 0323.26 Y 0059.12 E 0057.83
G1 X 0323.26 Y 0059.12 E 0054.98
 G1 X 0324.95 Y 0059.05 E 0058.51
G1 X 0324.95 Y 0059.05 E 0055.67
 G1 X 0326.65 Y 0058.99 E 0059.19
G1 X 0326.65 Y 0058.99 E 0056.35
 G1 X 0328.36 Y 0058.95 E 0059.87
G1 X 0328.36 Y 0058.95 E 0057.03
 G1 X 0330.06 Y 0058.92 E 0060.55
G1 X 0330.06 Y 0058.92 E 0057.71
 G1 X 0331.76 Y 0058.91 E 0061.23
G1 X 0331.76 Y 0058.91 E 0058.39
 G1 X 0333.46 Y 0058.93 E 0061.91
G1 X 0333.46 Y 0058.93 E 0059.07
 G1 X 0335.16 Y 0058.98 E 0062.59
G1 X 0335.16 Y 0058.98 E 0059.75
 G1 X 0336.86 Y 0059.07 E 0063.28
G1 X 0336.86 Y 0059.07 E 0060.43
 G1 X 0338.55 Y 0059.19 E 0063.96
G1 X 0338.55 Y 0059.19 E 0061.11
 G1 X 0340.25 Y 0059.36 E 0064.64
G1 X 0340.25 Y 0059.36 E 0061.79
 G1 X 0341.94 Y 0059.56 E 0065.32
G1 X 0341.94 Y 0059.56 E 0062.47
 G1 X 0343.62 Y 0059.80 E 0066.00
G1 X 0343.62 Y 0059.80 E 0063.15
 G1 X 0345.30 Y 0060.05 E 0066.68
G1 X 0345.30 Y 0060.05 E 0063.83
 G1 X 0346.98 Y 0060.29 E 0067.36
G1 X 0346.98 Y 0060.29 E 0064.51
 G1 X 0348.67 Y 0060.54 E 0068.04
G1 X 0348.67 Y 0060.54 E 0065.19
 G1 X 0350.35 Y 0060.80 E 0068.72
G1 X 0350.35 Y 0060.80 E 0065.87
 G1 X 0352.03 Y 0061.08 E 0069.40
G1 X 0352.03 Y 0061.08 E 0066.55
 G1 X 0353.70 Y 0061.39 E 0070.08
G1 X 0353.70 Y 0061.39 E 0067.23
 G1 X 0355.36 Y 0061.74 E 0070.76
G1 X 0355.36 Y 0061.74 E 0067.91
 G1 X 0357.02 Y 0062.13 E 0071.44
G1 X 0357.02 Y 0062.13 E 0068.59
 G1 X 0358.66 Y 0062.57 E 0072.12
G1 X 0358.66 Y 0062.57 E 0069.27
 G1 X 0360.29 Y 0063.08 E 0072.80
G1 X 0360.29 Y 0063.08 E 0069.95
 G1 X 0361.89 Y 0063.65 E 0073.48
G1 X 0361.89 Y 0063.65 E 0070.63
 G1 X 0363.45 Y 0064.31 E 0074.16
G1 X 0363.45 Y 0064.31 E 0071.31
 G1 X 0364.98 Y 0065.07 E 0074.84
G1 X 0364.98 Y 0065.07 E 0071.99
 G1 X 0366.46 Y 0065.90 E 0075.52
G1 X 0366.46 Y 0065.90 E 0072.67
 G1 X 0367.91 Y 0066.80 E 0076.20
G1 X 0367.91 Y 0066.80 E 0073.36
 G1 X 0369.32 Y 0067.75 E 0076.88
G1 X 0369.32 Y 0067.75 E 0074.04
 G1 X 0370.70 Y 0068.74 E 0077.56
G1 X 0370.70 Y 0068.74 E 0074.72
 G1 X 0372.05 Y 0069.78 E 0078.24
G1 X 0372.05 Y 0069.78 E 0075.40
 G1 X 0373.37 Y 0070.85 E 0078.92
G1 X 0373.37 Y 0070.85 E 0076.08
 G1 X 0374.66 Y 0071.96 E 0079.60
G1 X 0374.66 Y 0071.96 E 0076.76
 G1 X 0375.92 Y 0073.10 E 0080.29
G1 X 0375.92 Y 0073.10 E 0077.44
 G1 X 0377.14 Y 0074.28 E 0080.97
G1 X 0377.14 Y 0074.28 E 0078.12
 G1 X 0378.34 Y 0075.49 E 0081.65
G1 X 0378.34 Y 0075.49 E 0078.80
 G1 X 0379.48 Y 0076.75 E 0082.33
G1 X 0379.48 Y 0076.75 E 0079.48
 G1 X 0380.58 Y 0078.05 E 0083.01
G1 X 0380.58 Y 0078.05 E 0080.16
 G1 X 0381.61 Y 0079.40 E 0083.69
G1 X 0381.61 Y 0079.40 E 0080.84
 G1 X 0382.56 Y 0080.82 E 0084.37
G1 X 0382.56 Y 0080.82 E 0081.52
 G1 X 0383.39 Y 0082.30 E 0085.05
G1 X 0383.39 Y 0082.30 E 0082.20
 G1 X 0384.10 Y 0083.84 E 0085.73
G1 X 0384.10 Y 0083.84 E 0082.88
 G1 X 0384.67 Y 0085.44 E 0086.41
G1 X 0384.67 Y 0085.44 E 0083.56
 G1 X 0385.09 Y 0087.09 E 0087.09
G1 X 0385.09 Y 0087.09 E 0084.24
 G1 X 0385.37 Y 0088.77 E 0087.77
G1 X 0385.37 Y 0088.77 E 0084.92
 G1 X 0385.53 Y 0090.46 E 0088.45
G1 X 0385.53 Y 0090.46 E 0085.60
 G1 X 0385.60 Y 0092.16 E 0089.13
G1 X 0385.60 Y 0092.16 E 0086.28
 G1 X 0385.60 Y 0093.86 E 0089.81
G1 X 0385.60 Y 0093.86 E 0086.96
 G1 X 0385.56 Y 0095.56 E 0090.49
G1 X 0385.56 Y 0095.56 E 0087.64
 G1 X 0385.46 Y 0097.26 E 0091.17
G1 X 0385.46 Y 0097.26 E 0088.32
 G1 X 0385.31 Y 0098.96 E 0091.85
G1 X 0385.31 Y 0098.96 E 0089.00
 G1 X 0385.08 Y 0100.64 E 0092.53
G1 X 0385.08 Y 0100.64 E 0089.68
 G1 X 0384.79 Y 0102.32 E 0093.21
G1 X 0384.79 Y 0102.32 E 0090.36
 G1 X 0384.42 Y 0103.98 E 0093.89
G1 X 0384.42 Y 0103.98 E 0091.04
 G1 X 0383.97 Y 0105.62 E 0094.57
G1 X 0383.97 Y 0105.62 E 0091.72
 G1 X 0383.44 Y 0107.23 E 0095.25
G1 X 0383.44 Y 0107.23 E 0092.40
 G1 X 0382.82 Y 0108.82 E 0095.93
G1 X 0382.82 Y 0108.82 E 0093.09
 G1 X 0382.13 Y 0110.37 E 0096.61
G1 X 0382.13 Y 0110.37 E 0093.77
 G1 X 0381.37 Y 0111.89 E 0097.29
G1 X 0381.37 Y 0111.89 E 0094.45
 G1 X 0380.52 Y 0113.37 E 0097.97
G1 X 0380.52 Y 0113.37 E 0095.13
 G1 X 0379.62 Y 0114.81 E 0098.65
G1 X 0379.62 Y 0114.81 E 0095.81
 G1 X 0378.67 Y 0116.22 E 0099.33
G1 X 0378.67 Y 0116.22 E 0096.49
 G1 X 0377.69 Y 0117.61 E 0100.01
G1 X 0377.69 Y 0117.61 E 0097.17
 G1 X 0376.67 Y 0118.97 E 0100.70
G1 X 0376.67 Y 0118.97 E 0097.85
 G1 X 0375.62 Y 0120.32 E 0101.38
G1 X 0375.62 Y 0120.32 E 0098.53
 G1 X 0374.56 Y 0121.64 E 0102.06
G1 X 0374.56 Y 0121.64 E 0099.21
 G1 X 0373.47 Y 0122.95 E 0102.74
G1 X 0373.47 Y 0122.95 E 0099.89
 G1 X 0372.36 Y 0124.24 E 0103.42
G1 X 0372.36 Y 0124.24 E 0100.57
 G1 X 0371.24 Y 0125.52 E 0104.10
G1 X 0371.24 Y 0125.52 E 0101.25
 G1 X 0370.10 Y 0126.78 E 0104.78
G1 X 0370.10 Y 0126.78 E 0101.93
 G1 X 0368.94 Y 0128.02 E 0105.46
G1 X 0368.94 Y 0128.02 E 0102.61
 G1 X 0367.77 Y 0129.26 E 0106.14
G1 X 0367.77 Y 0129.26 E 0103.29
 G1 X 0366.58 Y 0130.47 E 0106.82
G1 X 0366.58 Y 0130.47 E 0103.97
 G1 X 0365.37 Y 0131.67 E 0107.50
G1 X 0365.37 Y 0131.67 E 0104.65
 G1 X 0364.15 Y 0132.85 E 0108.18
G1 X 0364.15 Y 0132.85 E 0105.33
 G1 X 0362.90 Y 0134.02 E 0108.86
G1 X 0362.90 Y 0134.02 E 0106.01
 G1 X 0361.63 Y 0135.14 E 0109.54
G1 X 0361.63 Y 0135.14 E 0106.69
 G1 X 0360.32 Y 0136.23 E 0110.22
G1 X 0360.32 Y 0136.23 E 0107.37
 G1 X 0358.99 Y 0137.28 E 0110.90
G1 X 0358.99 Y 0137.28 E 0108.05
 G1 X 0357.63 Y 0138.31 E 0111.58
G1 X 0357.63 Y 0138.31 E 0108.73
 G1 X 0356.25 Y 0139.30 E 0112.26
G1 X 0356.25 Y 0139.30 E 0109.41
 G1 X 0354.85 Y 0140.27 E 0112.94
G1 X 0354.85 Y 0140.27 E 0110.10
 G1 X 0353.43 Y 0141.21 E 0113.62
G1 X 0353.43 Y 0141.21 E 0110.78
 G1 X 0352.00 Y 0142.13 E 0114.30
G1 X 0352.00 Y 0142.13 E 0111.46
 G1 X 0350.56 Y 0143.04 E 0114.98
G1 X 0350.56 Y 0143.04 E 0112.14
 G1 X 0349.11 Y 0143.93 E 0115.66
G1 X 0349.11 Y 0143.93 E 0112.82
 G1 X 0347.66 Y 0144.81 E 0116.34
G1 X 0347.66 Y 0144.81 E 0113.50
 G1 X 0346.20 Y 0145.68 E 0117.03
G1 X 0346.20 Y 0145.68 E 0114.18
 G1 X 0344.74 Y 0146.56 E 0117.71
G1 X 0344.74 Y 0146.56 E 0114.86
 G1 X 0343.28 Y 0147.43 E 0118.39
G1 X 0343.28 Y 0147.43 E 0115.54
 G1 X 0341.81 Y 0148.28 E 0119.07
G1 X 0341.81 Y 0148.28 E 0116.22
 G1 X 0340.32 Y 0149.11 E 0119.75
G1 X 0340.32 Y 0149.11 E 0116.90
 G1 X 0338.82 Y 0149.90 E 0120.43
G1 X 0338.82 Y 0149.90 E 0117.58
 G1 X 0337.30 Y 0150.66 E 0121.11
G1 X 0337.30 Y 0150.66 E 0118.26
 G1 X 0335.76 Y 0151.40 E 0121.79
G1 X 0335.76 Y 0151.40 E 0118.94
 G1 X 0334.21 Y 0152.10 E 0122.47
G1 X 0334.21 Y 0152.10 E 0119.62
 G1 X 0332.65 Y 0152.77 E 0123.15
G1 X 0332.65 Y 0152.77 E 0120.30
 G1 X 0331.07 Y 0153.42 E 0123.83
G1 X 0331.07 Y 0153.42 E 0120.98
 G1 X 0329.50 Y 0154.05 E 0124.51
G1 X 0329.50 Y 0154.05 E 0121.66
 G1 X 0327.91 Y 0154.67 E 0125.19
G1 X 0327.91 Y 0154.67 E 0122.34
 G1 X 0326.31 Y 0155.25 E 0125.87
G1 X 0326.31 Y 0155.25 E 0123.02
 G1 X 0324.70 Y 0155.79 E 0126.55
G1 X 0324.70 Y 0155.79 E 0123.70
 G1 X 0323.08 Y 0156.31 E 0127.23
G1 X 0323.08 Y 0156.31 E 0124.38
 G1 X 0321.45 Y 0156.81 E 0127.91
G1 X 0321.45 Y 0156.81 E 0125.06
 G1 X 0319.82 Y 0157.29 E 0128.59
G1 X 0319.82 Y 0157.29 E 0125.74
 G1 X 0318.19 Y 0157.77 E 0129.27
G1 X 0318.19 Y 0157.77 E 0126.43
 G1 X 0316.55 Y 0158.23 E 0129.95
G1 X 0316.55 Y 0158.23 E 0127.11
 G1 X 0314.92 Y 0158.70 E 0130.63
G1 X 0314.92 Y 0158.70 E 0127.79
 G1 X 0313.28 Y 0159.17 E 0131.31
G1 X 0313.28 Y 0159.17 E 0128.47
 G1 X 0311.65 Y 0159.65 E 0132.00
G1 X 0311.65 Y 0159.65 E 0129.15
 G1 X 0310.01 Y 0160.11 E 0132.67
G1 X 0310.01 Y 0160.11 E 0129.83
 G1 X 0308.36 Y 0160.52 E 0133.35
G1 X 0308.36 Y 0160.52 E 0130.51
 G1 X 0306.72 Y 0160.94 E 0134.03
G1 X 0306.72 Y 0160.94 E 0131.19
 G1 X 0305.08 Y 0161.38 E 0134.71
G1 X 0305.08 Y 0161.38 E 0131.87
 G1 X 0303.44 Y 0161.85 E 0135.39
G1 X 0303.44 Y 0161.85 E 0132.55
 G1 X 0301.80 Y 0162.32 E 0136.08
G1 X 0301.80 Y 0162.32 E 0133.23
 G1 X 0300.17 Y 0162.80 E 0136.76
G1 X 0300.17 Y 0162.80 E 0133.91
 G1 X 0298.54 Y 0163.28 E 0137.44
G1 X 0298.54 Y 0163.28 E 0134.59
 G1 X 0296.90 Y 0163.76 E 0138.12
G1 X 0296.90 Y 0163.76 E 0135.27
 G1 X 0295.26 Y 0164.21 E 0138.80
G1 X 0295.26 Y 0164.21 E 0135.95
 G1 X 0293.62 Y 0164.64 E 0139.48
G1 X 0293.62 Y 0164.64 E 0136.63
 G1 X 0291.97 Y 0165.07 E 0140.16
G1 X 0291.97 Y 0165.07 E 0137.31
 G1 X 0290.33 Y 0165.49 E 0140.84
G1 X 0290.33 Y 0165.49 E 0137.99
 G1 X 0288.68 Y 0165.91 E 0141.52
G1 X 0288.68 Y 0165.91 E 0138.67
 G1 X 0287.03 Y 0166.32 E 0142.20
G1 X 0287.03 Y 0166.32 E 0139.35
 G1 X 0285.38 Y 0166.74 E 0142.88
G1 X 0285.38 Y 0166.74 E 0140.03
 G1 X 0283.73 Y 0167.15 E 0143.56
G1 X 0283.73 Y 0167.15 E 0140.71
 G1 X 0282.08 Y 0167.57 E 0144.24
G1 X 0282.08 Y 0167.57 E 0141.39
 G1 X 0280.43 Y 0167.99 E 0144.92
G1 X 0280.43 Y 0167.99 E 0142.07
 G1 X 0278.78 Y 0168.42 E 0145.60
G1 X 0278.78 Y 0168.42 E 0142.75
 G1 X 0277.14 Y 0168.85 E 0146.28
G1 X 0277.14 Y 0168.85 E 0143.44
 G1 X 0275.49 Y 0169.28 E 0146.96
G1 X 0275.49 Y 0169.28 E 0144.12
 G1 X 0273.85 Y 0169.72 E 0147.64
G1 X 0273.85 Y 0169.72 E 0144.80
 G1 X 0272.21 Y 0170.17 E 0148.32
G1 X 0272.21 Y 0170.17 E 0145.48
 G1 X 0270.57 Y 0170.63 E 0149.00
G1 X 0270.57 Y 0170.63 E 0146.16
 G1 X 0268.93 Y 0171.09 E 0149.68
G1 X 0268.93 Y 0171.09 E 0146.84
 G1 X 0267.30 Y 0171.57 E 0150.37
G1 X 0267.30 Y 0171.57 E 0147.52
 G1 X 0265.67 Y 0172.05 E 0151.05
G1 X 0265.67 Y 0172.05 E 0148.20
 G1 X 0264.04 Y 0172.55 E 0151.73
G1 X 0264.04 Y 0172.55 E 0148.88
 G1 X 0262.42 Y 0173.06 E 0152.41
G1 X 0262.42 Y 0173.06 E 0149.56
 G1 X 0260.80 Y 0173.58 E 0153.09
G1 X 0260.80 Y 0173.58 E 0150.24
 G1 X 0259.19 Y 0174.11 E 0153.77
G1 X 0259.19 Y 0174.11 E 0150.92
 G1 X 0257.58 Y 0174.66 E 0154.45
G1 X 0257.58 Y 0174.66 E 0151.60
 G1 X 0255.97 Y 0175.23 E 0155.13
G1 X 0255.97 Y 0175.23 E 0152.28
 G1 X 0254.38 Y 0175.82 E 0155.81
