;FLAVOR:UltiGCode
; TIME:400
;MATERIAL:160
; MATERIAL2: 0
;NOZZLE_DIAMETER:0.400000
;NOZZLE_DIAMETER2:  0.400000
;Layer count: 98
;LAYER: 0
M107
G0  F600 Z0.3
;INSOLE EDGES
;CONTOUR EDGES
G1 X 0087.84 Y 0045.51 E 0002.68
 G1 X 0074.44 Y 0032.46 E 0003.74
G1 X 0074.44 Y 0032.46 E 0006.75
 G1 X 0055.39 Y 0025.40 E 0007.81
G1 X 0055.39 Y 0025.40 E 0009.71
 G1 X 0040.57 Y 0025.40 E 0010.77
G1 X 0040.57 Y 0025.40 E 0013.40
 G1 X 0027.87 Y 0038.81 E 0014.46
G1 X 0027.87 Y 0038.81 E 0017.64
 G1 X 0027.87 Y 0059.97 E 0018.69
G1 X 0027.87 Y 0059.97 E 0025.45
 G1 X 0041.27 Y 0096.66 E 0026.51
G1 X 0041.27 Y 0096.66 E 0043.02
 G1 X 0105.83 Y 0156.28 E 0044.08
G1 X 0105.83 Y 0156.28 E 0050.38
 G1 X 0136.17 Y 0177.09 E 0051.44
G1 X 0136.17 Y 0177.09 E 0057.49
 G1 X 0166.16 Y 0196.14 E 0058.55
G1 X 0166.16 Y 0196.14 E 0061.13
 G1 X 0179.56 Y 0183.80 E 0062.19
G1 X 0179.56 Y 0183.80 E 0065.76
 G1 X 0188.03 Y 0162.28 E 0066.82
G1 X 0188.03 Y 0162.28 E 0080.63
 G1 X 0135.47 Y 0109.71 E 0081.68
G1 X 0135.47 Y 0109.71 E 0090.39
 G1 X 0108.30 Y 0069.14 E 0091.45
G1 X 0108.30 Y 0069.14 E 0095.55
 G1 X 0091.72 Y 0049.39 E 0096.61
G1 X 0091.72 Y 0049.39 E 0096.65
 G1 X 0087.84 Y 0045.51 E 0097.70
G0  F600 Z0.6
;INSOLE EDGES
;CONTOUR EDGES
G1 X 0087.84 Y 0045.51 E 0100.39
 G1 X 0074.44 Y 0032.46 E 0101.45
G1 X 0074.44 Y 0032.46 E 0104.45
 G1 X 0055.39 Y 0025.40 E 0105.51
G1 X 0055.39 Y 0025.40 E 0107.41
 G1 X 0040.57 Y 0025.40 E 0108.47
G1 X 0040.57 Y 0025.40 E 0111.11
 G1 X 0027.87 Y 0038.81 E 0112.17
G1 X 0027.87 Y 0038.81 E 0115.34
 G1 X 0027.87 Y 0059.97 E 0116.40
G1 X 0027.87 Y 0059.97 E 0123.15
 G1 X 0041.27 Y 0096.66 E 0124.21
G1 X 0041.27 Y 0096.66 E 0140.73
 G1 X 0105.83 Y 0156.28 E 0141.79
G1 X 0105.83 Y 0156.28 E 0148.09
 G1 X 0136.17 Y 0177.09 E 0149.14
G1 X 0136.17 Y 0177.09 E 0155.19
 G1 X 0166.16 Y 0196.14 E 0156.25
G1 X 0166.16 Y 0196.14 E 0158.84
 G1 X 0179.56 Y 0183.80 E 0159.90
G1 X 0179.56 Y 0183.80 E 0163.46
 G1 X 0188.03 Y 0162.28 E 0164.52
G1 X 0188.03 Y 0162.28 E 0178.33
 G1 X 0135.47 Y 0109.71 E 0179.39
G1 X 0135.47 Y 0109.71 E 0188.09
 G1 X 0108.30 Y 0069.14 E 0189.15
G1 X 0108.30 Y 0069.14 E 0193.25
 G1 X 0091.72 Y 0049.39 E 0194.31
G1 X 0091.72 Y 0049.39 E 0194.35
 G1 X 0087.84 Y 0045.51 E 0195.41
G0  F600 Z0.90000004
;INSOLE EDGES
;CONTOUR EDGES
G1 X 0087.84 Y 0045.51 E 0198.09
 G1 X 0074.44 Y 0032.46 E 0199.15
G1 X 0074.44 Y 0032.46 E 0202.15
 G1 X 0055.39 Y 0025.40 E 0203.21
G1 X 0055.39 Y 0025.40 E 0205.12
 G1 X 0040.57 Y 0025.40 E 0206.18
G1 X 0040.57 Y 0025.40 E 0208.81
 G1 X 0027.87 Y 0038.81 E 0209.87
G1 X 0027.87 Y 0038.81 E 0213.04
 G1 X 0027.87 Y 0059.97 E 0214.10
G1 X 0027.87 Y 0059.97 E 0220.86
 G1 X 0041.27 Y 0096.66 E 0221.92
G1 X 0041.27 Y 0096.66 E 0238.43
 G1 X 0105.83 Y 0156.28 E 0239.49
G1 X 0105.83 Y 0156.28 E 0245.79
 G1 X 0136.17 Y 0177.09 E 0246.85
G1 X 0136.17 Y 0177.09 E 0252.90
 G1 X 0166.16 Y 0196.14 E 0253.95
G1 X 0166.16 Y 0196.14 E 0256.54
 G1 X 0179.56 Y 0183.80 E 0257.60
G1 X 0179.56 Y 0183.80 E 0261.17
 G1 X 0188.03 Y 0162.28 E 0262.22
G1 X 0188.03 Y 0162.28 E 0276.03
 G1 X 0135.47 Y 0109.71 E 0277.09
G1 X 0135.47 Y 0109.71 E 0285.80
 G1 X 0108.30 Y 0069.14 E 0286.86
G1 X 0108.30 Y 0069.14 E 0290.96
 G1 X 0091.72 Y 0049.39 E 0292.01
G1 X 0091.72 Y 0049.39 E 0292.05
 G1 X 0087.84 Y 0045.51 E 0293.11
G0  F600 Z1.2
;INSOLE EDGES
;CONTOUR EDGES
G1 X 0087.84 Y 0045.51 E 0295.80
 G1 X 0074.44 Y 0032.46 E 0296.85
G1 X 0074.44 Y 0032.46 E 0299.86
 G1 X 0055.39 Y 0025.40 E 0300.92
G1 X 0055.39 Y 0025.40 E 0302.82
 G1 X 0040.57 Y 0025.40 E 0303.88
G1 X 0040.57 Y 0025.40 E 0306.52
 G1 X 0027.87 Y 0038.81 E 0307.57
G1 X 0027.87 Y 0038.81 E 0310.75
 G1 X 0027.87 Y 0059.97 E 0311.81
G1 X 0027.87 Y 0059.97 E 0318.56
 G1 X 0041.27 Y 0096.66 E 0319.62
G1 X 0041.27 Y 0096.66 E 0336.14
 G1 X 0105.83 Y 0156.28 E 0337.19
G1 X 0105.83 Y 0156.28 E 0343.49
 G1 X 0136.17 Y 0177.09 E 0344.55
G1 X 0136.17 Y 0177.09 E 0350.60
 G1 X 0166.16 Y 0196.14 E 0351.66
G1 X 0166.16 Y 0196.14 E 0354.24
 G1 X 0179.56 Y 0183.80 E 0355.30
G1 X 0179.56 Y 0183.80 E 0358.87
 G1 X 0188.03 Y 0162.28 E 0359.93
G1 X 0188.03 Y 0162.28 E 0373.74
 G1 X 0135.47 Y 0109.71 E 0374.80
G1 X 0135.47 Y 0109.71 E 0383.50
 G1 X 0108.30 Y 0069.14 E 0384.56
G1 X 0108.30 Y 0069.14 E 0388.66
 G1 X 0091.72 Y 0049.39 E 0389.72
G1 X 0091.72 Y 0049.39 E 0389.76
 G1 X 0087.84 Y 0045.51 E 0390.82
G0  F600 Z1.5
;INSOLE EDGES
;CONTOUR EDGES
G1 X 0087.84 Y 0045.51 E 0393.50
 G1 X 0074.44 Y 0032.46 E 0394.56
G1 X 0074.44 Y 0032.46 E 0397.56
 G1 X 0055.39 Y 0025.40 E 0398.62
G1 X 0055.39 Y 0025.40 E 0400.53
 G1 X 0040.57 Y 0025.40 E 0401.58
G1 X 0040.57 Y 0025.40 E 0404.22
 G1 X 0027.87 Y 0038.81 E 0405.28
G1 X 0027.87 Y 0038.81 E 0408.45
 G1 X 0027.87 Y 0059.97 E 0409.51
G1 X 0027.87 Y 0059.97 E 0416.26
 G1 X 0041.27 Y 0096.66 E 0417.32
G1 X 0041.27 Y 0096.66 E 0433.84
 G1 X 0105.83 Y 0156.28 E 0434.90
G1 X 0105.83 Y 0156.28 E 0441.20
 G1 X 0136.17 Y 0177.09 E 0442.26
G1 X 0136.17 Y 0177.09 E 0448.30
 G1 X 0166.16 Y 0196.14 E 0449.36
G1 X 0166.16 Y 0196.14 E 0451.95
 G1 X 0179.56 Y 0183.80 E 0453.01
G1 X 0179.56 Y 0183.80 E 0456.57
 G1 X 0188.03 Y 0162.28 E 0457.63
G1 X 0188.03 Y 0162.28 E 0471.44
 G1 X 0135.47 Y 0109.71 E 0472.50
G1 X 0135.47 Y 0109.71 E 0481.21
 G1 X 0108.30 Y 0069.14 E 0482.26
G1 X 0108.30 Y 0069.14 E 0486.36
 G1 X 0091.72 Y 0049.39 E 0487.42
G1 X 0091.72 Y 0049.39 E 0487.46
 G1 X 0087.84 Y 0045.51 E 0488.52
G0  F600 Z1.8
M107
G10
G0 F9000 X110.000 Y126.900 Z15.000
M25 ;Stop reading from this point on.
;CURA_PROFILE_STRING:eNrtWt1v2zYQfxWC/RF8bLHGk2S7aWvoYe2SvqRDgXhYmxeBlmiLi0QKJBXHCfy/746iFNlRunQN1o/JDw70093xePe7j6LO6YapOGN8lZnIHwXemuZ5bDKeXAimNUATTzGjaGK4FDETdJGzaK4q5mmZ8zTOrYGuwnNvycFGyoTmZhOFvlcqLkysS8bSaNo8GlaUTFFTKRaFQQ8aRj3guA+c9IHTFlywdOe0I9/TVVlKZaK5rJKMixVZVDxPy5wa5uH3UqoipmnGNNw6+l0K1qjEaUXzmF0ZVdl3r6XJvDUvWWzkmqnohOaadYD4UuZVwaJg6kl5zWKdcZanTgwCRQsGLqYc/hpQD0cvpndhDMUdcNwHTvrAaRdc5nIdBb4/8j0hr69zcIlfs/1E18maoFQHpYWshIkmo2kXtRFxr4Lnu+8KLmJ4uGR5FOy+SWSxgMhHv+b5ngIvdiIMPoRdiUyWiHkLaYwsdqg39iwd/XjNU5PFS9CQCi/rycVfLAEOcnEBwZCXTOW0tJ4j66de7aO7djDt2K8JXr8ALnNh2V0/o5gtA6oY7WBcaGb8feCqAyRS5jY4rn44UAQST5sSS12NXXCgXM4Fg3jZ+DpoRctojKfbpyZoORMrkzn/0diyAl9ddU8d5u7od57igl5ZpHVrCSiUC/DWgRmjUOx8aRx16+o3kIvucx2zW3bnsQs18h8KkFs+QkVCgbG4jmVjwNWX2ZQsOoUb6xaiYgVN53lbtrG1XLs3bcGrDRBeGyoSZPNRi193YZQvuaI5ct4dzIsSqqCQqWtsC3CzG3PIuqJLiDJVKy5sHO2zFdElTZDG4wZdUM32SHmLo4rlJlSDk4cOxRQwdVcpPNp/e6tqSxVfUq6ABzF0bMupDoYWwhrQldNHouloD+07s9XYOXHJr6D0lOLAzrgSth3gqIB0xbQO3KdEFi0pujIQElkyES+40X0C0AVwjFxCnA03tlU7sTKvIBmQIeDQKmrqO2EYr/gqOgz2oA1APwENlBmtEkz17CznCUsJNa/ITUo3W/w2DP5gMW4PZq+p5gmBujVwqn5FTjGApC4mUMk7k3NL/oSLgszN7vjckhNgKsDdiQim3+NcIngOvHOTqz70xLVpAqFJa8W6bdf9dVt0oHV99qqjlUhtulr4DFbfBS99cnbTOw63ZPaHgGZs9Y0kNE3JRlaKyLUgIEs6sgQpgeb8l625h5q6Y+ZtGBD3mUFbUBDsS5pXTB+8BW+bN3QBnaUyjJQSggeUgmQcvHsRtgKQIGKHRQrZwUMbBSzoA3D1qJXE7JM1NxkxGSPQ/YhcLsGPF+SDTz766Ae0K/Lhl49oCNogYSLV0OO0FTr3nbModH5XJCDnATQHcnLTnSZbp4BHNqsFSTEiwbQo4K4hOW6ve/uZXTMlrZK7XErq7o7nnIS+T47HexpOkIyLAi5GsIUTcC25+PxDCF1RLuxRu5cB7laG2Mzj2lQAyemKESnI6ZvfiE4UYwKCHhyR905mNBp5EKOm6o5FSt6+camZkLMerzp3wXqDolQ2Ue+CiX+vgpVLLWFvVcgTvkQGkgyuQLh5CpEIyAM+M8UgVdB3dmgH4Tg+hJCMff8flO2yUrOsKU1KoMmRevIRHKQYP5Sot7BnyCc4lcGYIFoWDFNoOaMgxlA0ll8/+6Mp+DAlHw5DoCx+9bPtnFSlO5JCxBuPWm/YJRNQIWj2lv6fvNR9pfEMvLWO4oZAuCYSCOJ8X9MN1OrkfqPasBK6gq4L8eX9PvT3gRn0IAl3wvEAdFttPVvj4dDiH6HFT768xdeTYh70WQr/lSn/686db32azO/pbrOzNa5PeApqhtASmg77JRMo8PsnUOA/6giyZx3e9P+Tc3sw9x906SVX2nxP136kyRveM3rn/mdOX9QJhok9TOzHn9jjYWIPE/v/ObHDBw2vsfqhJvawpgxryt6aMv6aawrqhMNqM6w2j7/aTIbV5ptabcLHW22GLek/25LGD5qdE3D6B1oYhtVwWA2H1VCkk+9tNUSd8bBODuvk466T7gct3V8xtODtf7HWv9fZEbJIR0IxmLEJGyX6MvIgCXWbOXa8bBfWuvksmFlDZdpLJ5VSNsQNhTEBNtGAtOgzss5Aoa10u0wUVW54mbftQunRwWyeQVDxNAwurDeW5ZZFaHT+RDz1ICbmW/KPLrEAG/f+BnWV/Wo=
