;FLAVOR:UltiGCode
; TIME:400
;MATERIAL:160
; MATERIAL2: 0
;NOZZLE_DIAMETER:0.400000
;NOZZLE_DIAMETER2:  0.400000
;Layer count: 98
;LAYER: 0
M107
G0  F600 Z0.3
;INSOLE EDGES
G1 X 0057.60 Y 0057.74 E 0004.39
 G1 X 0031.34 Y 0065.00 E 0005.45
G1 X 0058.53 Y 0026.78 E 0010.59
 G1 X 0057.60 Y 0057.74 E 0011.64
G1 X 0142.21 Y 0146.14 E 0021.15
 G1 X 0159.07 Y 0196.20 E 0022.21
G1 X 0142.21 Y 0146.14 E 0026.58
 G1 X 0148.35 Y 0119.68 E 0027.64
G1 X 0112.05 Y 0162.73 E 0033.47
 G1 X 0142.21 Y 0146.14 E 0034.52
G1 X 0061.25 Y 0096.57 E 0035.75
 G1 X 0052.73 Y 0104.14 E 0036.80
G1 X 0076.63 Y 0066.22 E 0039.91
 G1 X 0057.60 Y 0057.74 E 0040.97
G1 X 0076.63 Y 0066.22 E 0046.72
 G1 X 0061.25 Y 0096.57 E 0047.77
G1 X 0083.72 Y 0064.46 E 0050.14
 G1 X 0093.88 Y 0050.69 E 0051.20
G1 X 0083.72 Y 0064.46 E 0051.60
 G1 X 0076.63 Y 0066.22 E 0052.66
G1 X 0086.11 Y 0102.95 E 0057.10
 G1 X 0073.81 Y 0127.55 E 0058.16
G1 X 0124.20 Y 0104.22 E 0064.72
 G1 X 0086.11 Y 0102.95 E 0065.78
G1 X 0127.61 Y 0106.05 E 0066.52
 G1 X 0136.48 Y 0104.64 E 0067.58
G1 X 0127.61 Y 0106.05 E 0077.25
 G1 X 0086.86 Y 0140.92 E 0078.31
G1 X 0127.61 Y 0106.05 E 0078.02
 G1 X 0124.20 Y 0104.22 E 0079.08
G1 X 0084.67 Y 0065.88 E 0078.36
 G1 X 0083.72 Y 0064.46 E 0079.42
G1 X 0109.76 Y 0093.49 E 0081.96
 G1 X 0124.20 Y 0104.22 E 0083.02
G1 X 0109.76 Y 0093.49 E 0089.42
 G1 X 0084.67 Y 0065.88 E 0090.48
G1 X 0062.77 Y 0096.60 E 0089.73
 G1 X 0061.25 Y 0096.57 E 0090.79
G1 X 0084.67 Y 0092.62 E 0095.08
 G1 X 0084.67 Y 0065.88 E 0096.13
G1 X 0084.67 Y 0092.62 E 0099.53
 G1 X 0062.77 Y 0096.60 E 0100.58
G1 X 0085.86 Y 0093.49 E 0104.31
 G1 X 0109.76 Y 0093.49 E 0105.36
G1 X 0085.86 Y 0093.49 E 0104.60
 G1 X 0084.67 Y 0092.62 E 0105.66
G1 X 0084.84 Y 0101.62 E 0104.97
 G1 X 0086.11 Y 0102.95 E 0106.03
G1 X 0084.84 Y 0101.62 E 0109.49
 G1 X 0062.77 Y 0096.60 E 0110.55
G1 X 0084.84 Y 0101.62 E 0111.13
 G1 X 0085.86 Y 0093.49 E 0112.19
;CONTOUR EDGES
G1 X 0037.75 Y 0027.52 E 0114.71
 G1 X 0055.39 Y 0024.69 E 0115.76
G1 X 0055.39 Y 0024.69 E 0123.77
 G1 X 0093.13 Y 0049.74 E 0124.82
G1 X 0093.13 Y 0049.74 E 0142.55
 G1 X 0151.34 Y 0123.47 E 0143.61
G1 X 0151.34 Y 0123.47 E 0151.04
 G1 X 0182.74 Y 0152.05 E 0152.10
G1 X 0182.74 Y 0152.05 E 0157.33
 G1 X 0182.03 Y 0183.44 E 0158.38
G1 X 0182.03 Y 0183.44 E 0163.14
 G1 X 0156.63 Y 0197.56 E 0164.19
G1 X 0156.63 Y 0197.56 E 0174.60
 G1 X 0111.48 Y 0162.28 E 0175.66
G1 X 0111.48 Y 0162.28 E 0182.35
 G1 X 0082.20 Y 0136.88 E 0183.41
G1 X 0082.20 Y 0136.88 E 0196.59
 G1 X 0034.57 Y 0083.96 E 0197.65
G1 X 0034.57 Y 0083.96 E 0202.89
 G1 X 0029.28 Y 0052.92 E 0203.94
G1 X 0029.28 Y 0052.92 E 0206.24
 G1 X 0031.75 Y 0036.34 E 0207.30
G1 X 0031.75 Y 0036.34 E 0207.94
 G1 X 0035.28 Y 0028.57 E 0209.00
G1 X 0035.28 Y 0028.57 E 0208.48
 G1 X 0037.75 Y 0027.52 E 0209.54
G0  F600 Z0.6
;INSOLE EDGES
G1 X 0057.60 Y 0057.74 E 0213.93
 G1 X 0031.34 Y 0065.00 E 0214.99
G1 X 0058.53 Y 0026.78 E 0220.13
 G1 X 0057.60 Y 0057.74 E 0221.18
G1 X 0142.21 Y 0146.14 E 0230.69
 G1 X 0159.07 Y 0196.20 E 0231.75
G1 X 0142.21 Y 0146.14 E 0236.12
 G1 X 0148.35 Y 0119.68 E 0237.18
G1 X 0112.05 Y 0162.73 E 0243.01
 G1 X 0142.21 Y 0146.14 E 0244.06
G1 X 0061.25 Y 0096.57 E 0245.29
 G1 X 0052.73 Y 0104.14 E 0246.34
G1 X 0076.63 Y 0066.22 E 0249.45
 G1 X 0057.60 Y 0057.74 E 0250.51
G1 X 0076.63 Y 0066.22 E 0256.26
 G1 X 0061.25 Y 0096.57 E 0257.31
G1 X 0083.72 Y 0064.46 E 0259.68
 G1 X 0093.88 Y 0050.69 E 0260.74
G1 X 0083.72 Y 0064.46 E 0261.14
 G1 X 0076.63 Y 0066.22 E 0262.20
G1 X 0086.11 Y 0102.95 E 0266.64
 G1 X 0073.81 Y 0127.55 E 0267.70
G1 X 0124.20 Y 0104.22 E 0274.26
 G1 X 0086.11 Y 0102.95 E 0275.32
G1 X 0127.61 Y 0106.05 E 0276.06
 G1 X 0136.48 Y 0104.64 E 0277.12
G1 X 0127.61 Y 0106.05 E 0286.79
 G1 X 0086.86 Y 0140.92 E 0287.85
G1 X 0127.61 Y 0106.05 E 0287.56
 G1 X 0124.20 Y 0104.22 E 0288.62
G1 X 0084.67 Y 0065.88 E 0287.90
 G1 X 0083.72 Y 0064.46 E 0288.96
G1 X 0109.76 Y 0093.49 E 0291.50
 G1 X 0124.20 Y 0104.22 E 0292.56
G1 X 0109.76 Y 0093.49 E 0298.96
 G1 X 0084.67 Y 0065.88 E 0300.02
G1 X 0062.77 Y 0096.60 E 0299.27
 G1 X 0061.25 Y 0096.57 E 0300.33
G1 X 0084.67 Y 0092.62 E 0304.62
 G1 X 0084.67 Y 0065.88 E 0305.67
G1 X 0084.67 Y 0092.62 E 0309.07
 G1 X 0062.77 Y 0096.60 E 0310.12
G1 X 0085.86 Y 0093.49 E 0313.85
 G1 X 0109.76 Y 0093.49 E 0314.90
G1 X 0085.86 Y 0093.49 E 0314.14
 G1 X 0084.67 Y 0092.62 E 0315.20
G1 X 0084.84 Y 0101.62 E 0314.51
 G1 X 0086.11 Y 0102.95 E 0315.57
G1 X 0084.84 Y 0101.62 E 0319.03
 G1 X 0062.77 Y 0096.60 E 0320.09
G1 X 0084.84 Y 0101.62 E 0320.67
 G1 X 0085.86 Y 0093.49 E 0321.73
;CONTOUR EDGES
G1 X 0037.75 Y 0027.52 E 0324.25
 G1 X 0055.39 Y 0024.69 E 0325.30
G1 X 0055.39 Y 0024.69 E 0333.31
 G1 X 0093.13 Y 0049.74 E 0334.36
G1 X 0093.13 Y 0049.74 E 0352.09
 G1 X 0151.34 Y 0123.47 E 0353.15
G1 X 0151.34 Y 0123.47 E 0360.58
 G1 X 0182.74 Y 0152.05 E 0361.64
G1 X 0182.74 Y 0152.05 E 0366.87
 G1 X 0182.03 Y 0183.44 E 0367.92
G1 X 0182.03 Y 0183.44 E 0372.68
 G1 X 0156.63 Y 0197.56 E 0373.73
G1 X 0156.63 Y 0197.56 E 0384.14
 G1 X 0111.48 Y 0162.28 E 0385.20
G1 X 0111.48 Y 0162.28 E 0391.89
 G1 X 0082.20 Y 0136.88 E 0392.95
G1 X 0082.20 Y 0136.88 E 0406.13
 G1 X 0034.57 Y 0083.96 E 0407.19
G1 X 0034.57 Y 0083.96 E 0412.43
 G1 X 0029.28 Y 0052.92 E 0413.48
G1 X 0029.28 Y 0052.92 E 0415.78
 G1 X 0031.75 Y 0036.34 E 0416.84
G1 X 0031.75 Y 0036.34 E 0417.48
 G1 X 0035.28 Y 0028.57 E 0418.54
G1 X 0035.28 Y 0028.57 E 0418.02
 G1 X 0037.75 Y 0027.52 E 0419.08
G0  F600 Z0.90000004
;INSOLE EDGES
G1 X 0057.60 Y 0057.74 E 0423.47
 G1 X 0031.34 Y 0065.00 E 0424.53
G1 X 0058.53 Y 0026.78 E 0429.67
 G1 X 0057.60 Y 0057.74 E 0430.72
G1 X 0142.21 Y 0146.14 E 0440.23
 G1 X 0159.07 Y 0196.20 E 0441.29
G1 X 0142.21 Y 0146.14 E 0445.66
 G1 X 0148.35 Y 0119.68 E 0446.72
G1 X 0112.05 Y 0162.73 E 0452.55
 G1 X 0142.21 Y 0146.14 E 0453.60
G1 X 0061.25 Y 0096.57 E 0454.83
 G1 X 0052.73 Y 0104.14 E 0455.88
G1 X 0076.63 Y 0066.22 E 0458.99
 G1 X 0057.60 Y 0057.74 E 0460.05
G1 X 0076.63 Y 0066.22 E 0465.80
 G1 X 0061.25 Y 0096.57 E 0466.85
G1 X 0083.72 Y 0064.46 E 0469.22
 G1 X 0093.88 Y 0050.69 E 0470.28
G1 X 0083.72 Y 0064.46 E 0470.68
 G1 X 0076.63 Y 0066.22 E 0471.74
G1 X 0086.11 Y 0102.95 E 0476.18
 G1 X 0073.81 Y 0127.55 E 0477.24
G1 X 0124.20 Y 0104.22 E 0483.80
 G1 X 0086.11 Y 0102.95 E 0484.86
G1 X 0127.61 Y 0106.05 E 0485.60
 G1 X 0136.48 Y 0104.64 E 0486.66
G1 X 0127.61 Y 0106.05 E 0496.33
 G1 X 0086.86 Y 0140.92 E 0497.38
G1 X 0127.61 Y 0106.05 E 0497.10
 G1 X 0124.20 Y 0104.22 E 0498.16
G1 X 0084.67 Y 0065.88 E 0497.44
 G1 X 0083.72 Y 0064.46 E 0498.50
G1 X 0109.76 Y 0093.49 E 0501.04
 G1 X 0124.20 Y 0104.22 E 0502.10
G1 X 0109.76 Y 0093.49 E 0508.50
 G1 X 0084.67 Y 0065.88 E 0509.56
G1 X 0062.77 Y 0096.60 E 0508.81
 G1 X 0061.25 Y 0096.57 E 0509.87
G1 X 0084.67 Y 0092.62 E 0514.15
 G1 X 0084.67 Y 0065.88 E 0515.21
G1 X 0084.67 Y 0092.62 E 0518.60
 G1 X 0062.77 Y 0096.60 E 0519.66
G1 X 0085.86 Y 0093.49 E 0523.39
 G1 X 0109.76 Y 0093.49 E 0524.44
G1 X 0085.86 Y 0093.49 E 0523.68
 G1 X 0084.67 Y 0092.62 E 0524.74
G1 X 0084.84 Y 0101.62 E 0524.05
 G1 X 0086.11 Y 0102.95 E 0525.11
G1 X 0084.84 Y 0101.62 E 0528.57
 G1 X 0062.77 Y 0096.60 E 0529.63
G1 X 0084.84 Y 0101.62 E 0530.21
 G1 X 0085.86 Y 0093.49 E 0531.27
;CONTOUR EDGES
G1 X 0037.75 Y 0027.52 E 0533.79
 G1 X 0055.39 Y 0024.69 E 0534.84
G1 X 0055.39 Y 0024.69 E 0542.85
 G1 X 0093.13 Y 0049.74 E 0543.90
G1 X 0093.13 Y 0049.74 E 0561.63
 G1 X 0151.34 Y 0123.47 E 0562.69
G1 X 0151.34 Y 0123.47 E 0570.12
 G1 X 0182.74 Y 0152.05 E 0571.18
G1 X 0182.74 Y 0152.05 E 0576.40
 G1 X 0182.03 Y 0183.44 E 0577.46
G1 X 0182.03 Y 0183.44 E 0582.22
 G1 X 0156.63 Y 0197.56 E 0583.27
G1 X 0156.63 Y 0197.56 E 0593.68
 G1 X 0111.48 Y 0162.28 E 0594.73
G1 X 0111.48 Y 0162.28 E 0601.43
 G1 X 0082.20 Y 0136.88 E 0602.49
G1 X 0082.20 Y 0136.88 E 0615.67
 G1 X 0034.57 Y 0083.96 E 0616.73
G1 X 0034.57 Y 0083.96 E 0621.97
 G1 X 0029.28 Y 0052.92 E 0623.02
G1 X 0029.28 Y 0052.92 E 0625.32
 G1 X 0031.75 Y 0036.34 E 0626.38
G1 X 0031.75 Y 0036.34 E 0627.02
 G1 X 0035.28 Y 0028.57 E 0628.08
G1 X 0035.28 Y 0028.57 E 0627.56
 G1 X 0037.75 Y 0027.52 E 0628.62
G0  F600 Z1.2
;INSOLE EDGES
G1 X 0057.60 Y 0057.74 E 0633.01
 G1 X 0031.34 Y 0065.00 E 0634.07
G1 X 0058.53 Y 0026.78 E 0639.21
 G1 X 0057.60 Y 0057.74 E 0640.26
G1 X 0142.21 Y 0146.14 E 0649.77
 G1 X 0159.07 Y 0196.20 E 0650.83
G1 X 0142.21 Y 0146.14 E 0655.20
 G1 X 0148.35 Y 0119.68 E 0656.26
G1 X 0112.05 Y 0162.73 E 0662.09
 G1 X 0142.21 Y 0146.14 E 0663.14
G1 X 0061.25 Y 0096.57 E 0664.36
 G1 X 0052.73 Y 0104.14 E 0665.42
G1 X 0076.63 Y 0066.22 E 0668.53
 G1 X 0057.60 Y 0057.74 E 0669.59
G1 X 0076.63 Y 0066.22 E 0675.34
 G1 X 0061.25 Y 0096.57 E 0676.39
G1 X 0083.72 Y 0064.46 E 0678.76
 G1 X 0093.88 Y 0050.69 E 0679.82
G1 X 0083.72 Y 0064.46 E 0680.22
 G1 X 0076.63 Y 0066.22 E 0681.28
G1 X 0086.11 Y 0102.95 E 0685.72
 G1 X 0073.81 Y 0127.55 E 0686.78
G1 X 0124.20 Y 0104.22 E 0693.34
 G1 X 0086.11 Y 0102.95 E 0694.40
G1 X 0127.61 Y 0106.05 E 0695.14
 G1 X 0136.48 Y 0104.64 E 0696.20
G1 X 0127.61 Y 0106.05 E 0705.87
 G1 X 0086.86 Y 0140.92 E 0706.92
G1 X 0127.61 Y 0106.05 E 0706.64
 G1 X 0124.20 Y 0104.22 E 0707.70
G1 X 0084.67 Y 0065.88 E 0706.98
 G1 X 0083.72 Y 0064.46 E 0708.04
G1 X 0109.76 Y 0093.49 E 0710.58
 G1 X 0124.20 Y 0104.22 E 0711.64
G1 X 0109.76 Y 0093.49 E 0718.04
 G1 X 0084.67 Y 0065.88 E 0719.10
G1 X 0062.77 Y 0096.60 E 0718.35
 G1 X 0061.25 Y 0096.57 E 0719.41
G1 X 0084.67 Y 0092.62 E 0723.69
 G1 X 0084.67 Y 0065.88 E 0724.75
G1 X 0084.67 Y 0092.62 E 0728.14
 G1 X 0062.77 Y 0096.60 E 0729.20
G1 X 0085.86 Y 0093.49 E 0732.93
 G1 X 0109.76 Y 0093.49 E 0733.98
G1 X 0085.86 Y 0093.49 E 0733.22
 G1 X 0084.67 Y 0092.62 E 0734.28
G1 X 0084.84 Y 0101.62 E 0733.59
 G1 X 0086.11 Y 0102.95 E 0734.65
G1 X 0084.84 Y 0101.62 E 0738.11
 G1 X 0062.77 Y 0096.60 E 0739.17
G1 X 0084.84 Y 0101.62 E 0739.75
 G1 X 0085.86 Y 0093.49 E 0740.81
;CONTOUR EDGES
G1 X 0037.75 Y 0027.52 E 0743.32
 G1 X 0055.39 Y 0024.69 E 0744.38
G1 X 0055.39 Y 0024.69 E 0752.39
 G1 X 0093.13 Y 0049.74 E 0753.44
G1 X 0093.13 Y 0049.74 E 0771.17
 G1 X 0151.34 Y 0123.47 E 0772.23
G1 X 0151.34 Y 0123.47 E 0779.66
 G1 X 0182.74 Y 0152.05 E 0780.72
G1 X 0182.74 Y 0152.05 E 0785.94
 G1 X 0182.03 Y 0183.44 E 0787.00
G1 X 0182.03 Y 0183.44 E 0791.76
 G1 X 0156.63 Y 0197.56 E 0792.81
G1 X 0156.63 Y 0197.56 E 0803.22
 G1 X 0111.48 Y 0162.28 E 0804.27
G1 X 0111.48 Y 0162.28 E 0810.97
 G1 X 0082.20 Y 0136.88 E 0812.03
G1 X 0082.20 Y 0136.88 E 0825.21
 G1 X 0034.57 Y 0083.96 E 0826.27
G1 X 0034.57 Y 0083.96 E 0831.51
 G1 X 0029.28 Y 0052.92 E 0832.56
G1 X 0029.28 Y 0052.92 E 0834.86
 G1 X 0031.75 Y 0036.34 E 0835.92
G1 X 0031.75 Y 0036.34 E 0836.56
 G1 X 0035.28 Y 0028.57 E 0837.62
G1 X 0035.28 Y 0028.57 E 0837.10
 G1 X 0037.75 Y 0027.52 E 0838.16
G0  F600 Z1.5
;INSOLE EDGES
G1 X 0057.60 Y 0057.74 E 0842.55
 G1 X 0031.34 Y 0065.00 E 0843.61
G1 X 0058.53 Y 0026.78 E 0848.74
 G1 X 0057.60 Y 0057.74 E 0849.80
G1 X 0142.21 Y 0146.14 E 0859.31
 G1 X 0159.07 Y 0196.20 E 0860.37
G1 X 0142.21 Y 0146.14 E 0864.74
 G1 X 0148.35 Y 0119.68 E 0865.80
G1 X 0112.05 Y 0162.73 E 0871.63
 G1 X 0142.21 Y 0146.14 E 0872.68
G1 X 0061.25 Y 0096.57 E 0873.90
 G1 X 0052.73 Y 0104.14 E 0874.96
G1 X 0076.63 Y 0066.22 E 0878.07
 G1 X 0057.60 Y 0057.74 E 0879.13
G1 X 0076.63 Y 0066.22 E 0884.88
 G1 X 0061.25 Y 0096.57 E 0885.93
G1 X 0083.72 Y 0064.46 E 0888.30
 G1 X 0093.88 Y 0050.69 E 0889.36
G1 X 0083.72 Y 0064.46 E 0889.76
 G1 X 0076.63 Y 0066.22 E 0890.82
G1 X 0086.11 Y 0102.95 E 0895.26
 G1 X 0073.81 Y 0127.55 E 0896.32
G1 X 0124.20 Y 0104.22 E 0902.88
 G1 X 0086.11 Y 0102.95 E 0903.94
G1 X 0127.61 Y 0106.05 E 0904.68
 G1 X 0136.48 Y 0104.64 E 0905.74
G1 X 0127.61 Y 0106.05 E 0915.41
 G1 X 0086.86 Y 0140.92 E 0916.46
G1 X 0127.61 Y 0106.05 E 0916.18
 G1 X 0124.20 Y 0104.22 E 0917.24
G1 X 0084.67 Y 0065.88 E 0916.52
 G1 X 0083.72 Y 0064.46 E 0917.58
G1 X 0109.76 Y 0093.49 E 0920.12
 G1 X 0124.20 Y 0104.22 E 0921.18
G1 X 0109.76 Y 0093.49 E 0927.58
 G1 X 0084.67 Y 0065.88 E 0928.64
G1 X 0062.77 Y 0096.60 E 0927.89
 G1 X 0061.25 Y 0096.57 E 0928.94
G1 X 0084.67 Y 0092.62 E 0933.23
 G1 X 0084.67 Y 0065.88 E 0934.29
G1 X 0084.67 Y 0092.62 E 0937.68
 G1 X 0062.77 Y 0096.60 E 0938.74
G1 X 0085.86 Y 0093.49 E 0942.47
 G1 X 0109.76 Y 0093.49 E 0943.52
G1 X 0085.86 Y 0093.49 E 0942.76
 G1 X 0084.67 Y 0092.62 E 0943.82
G1 X 0084.84 Y 0101.62 E 0943.13
 G1 X 0086.11 Y 0102.95 E 0944.19
G1 X 0084.84 Y 0101.62 E 0947.65
 G1 X 0062.77 Y 0096.60 E 0948.71
G1 X 0084.84 Y 0101.62 E 0949.29
 G1 X 0085.86 Y 0093.49 E 0950.35
;CONTOUR EDGES
G1 X 0037.75 Y 0027.52 E 0952.86
 G1 X 0055.39 Y 0024.69 E 0953.92
G1 X 0055.39 Y 0024.69 E 0961.92
 G1 X 0093.13 Y 0049.74 E 0962.98
G1 X 0093.13 Y 0049.74 E 0980.71
 G1 X 0151.34 Y 0123.47 E 0981.77
G1 X 0151.34 Y 0123.47 E 0989.20
 G1 X 0182.74 Y 0152.05 E 0990.26
G1 X 0182.74 Y 0152.05 E 0995.48
 G1 X 0182.03 Y 0183.44 E 0996.54
G1 X 0182.03 Y 0183.44 E 1001.30
 G1 X 0156.63 Y 0197.56 E 1002.35
G1 X 0156.63 Y 0197.56 E 1012.76
 G1 X 0111.48 Y 0162.28 E 1013.81
G1 X 0111.48 Y 0162.28 E 1020.51
 G1 X 0082.20 Y 0136.88 E 1021.57
G1 X 0082.20 Y 0136.88 E 1034.75
 G1 X 0034.57 Y 0083.96 E 1035.80
G1 X 0034.57 Y 0083.96 E 1041.04
 G1 X 0029.28 Y 0052.92 E 1042.10
G1 X 0029.28 Y 0052.92 E 1044.40
 G1 X 0031.75 Y 0036.34 E 1045.46
G1 X 0031.75 Y 0036.34 E 1046.10
 G1 X 0035.28 Y 0028.57 E 1047.16
G1 X 0035.28 Y 0028.57 E 1046.64
 G1 X 0037.75 Y 0027.52 E 1047.70
G0  F600 Z1.8
M107
G10
G0 F9000 X110.000 Y126.900 Z15.000
M25 ;Stop reading from this point on.
;CURA_PROFILE_STRING:eNrtWt1v2zYQfxWC/RF8bLHGk2S7aWvoYe2SvqRDgXhYmxeBlmiLi0QKJBXHCfy/746iFNlRunQN1o/JDw70093xePe7j6LO6YapOGN8lZnIHwXemuZ5bDKeXAimNUATTzGjaGK4FDETdJGzaK4q5mmZ8zTOrYGuwnNvycFGyoTmZhOFvlcqLkysS8bSaNo8GlaUTFFTKRaFQQ8aRj3guA+c9IHTFlywdOe0I9/TVVlKZaK5rJKMixVZVDxPy5wa5uH3UqoipmnGNNw6+l0K1qjEaUXzmF0ZVdl3r6XJvDUvWWzkmqnohOaadYD4UuZVwaJg6kl5zWKdcZanTgwCRQsGLqYc/hpQD0cvpndhDMUdcNwHTvrAaRdc5nIdBb4/8j0hr69zcIlfs/1E18maoFQHpYWshIkmo2kXtRFxr4Lnu+8KLmJ4uGR5FOy+SWSxgMhHv+b5ngIvdiIMPoRdiUyWiHkLaYwsdqg39iwd/XjNU5PFS9CQCi/rycVfLAEOcnEBwZCXTOW0tJ4j66de7aO7djDt2K8JXr8ALnNh2V0/o5gtA6oY7WBcaGb8feCqAyRS5jY4rn44UAQST5sSS12NXXCgXM4Fg3jZ+DpoRctojKfbpyZoORMrkzn/0diyAl9ddU8d5u7od57igl5ZpHVrCSiUC/DWgRmjUOx8aRx16+o3kIvucx2zW3bnsQs18h8KkFs+QkVCgbG4jmVjwNWX2ZQsOoUb6xaiYgVN53lbtrG1XLs3bcGrDRBeGyoSZPNRi193YZQvuaI5ct4dzIsSqqCQqWtsC3CzG3PIuqJLiDJVKy5sHO2zFdElTZDG4wZdUM32SHmLo4rlJlSDk4cOxRQwdVcpPNp/e6tqSxVfUq6ABzF0bMupDoYWwhrQldNHouloD+07s9XYOXHJr6D0lOLAzrgSth3gqIB0xbQO3KdEFi0pujIQElkyES+40X0C0AVwjFxCnA03tlU7sTKvIBmQIeDQKmrqO2EYr/gqOgz2oA1APwENlBmtEkz17CznCUsJNa/ITUo3W/w2DP5gMW4PZq+p5gmBujVwqn5FTjGApC4mUMk7k3NL/oSLgszN7vjckhNgKsDdiQim3+NcIngOvHOTqz70xLVpAqFJa8W6bdf9dVt0oHV99qqjlUhtulr4DFbfBS99cnbTOw63ZPaHgGZs9Y0kNE3JRlaKyLUgIEs6sgQpgeb8l625h5q6Y+ZtGBD3mUFbUBDsS5pXTB+8BW+bN3QBnaUyjJQSggeUgmQcvHsRtgKQIGKHRQrZwUMbBSzoA3D1qJXE7JM1NxkxGSPQ/YhcLsGPF+SDTz766Ae0K/Lhl49oCNogYSLV0OO0FTr3nbModH5XJCDnATQHcnLTnSZbp4BHNqsFSTEiwbQo4K4hOW6ve/uZXTMlrZK7XErq7o7nnIS+T47HexpOkIyLAi5GsIUTcC25+PxDCF1RLuxRu5cB7laG2Mzj2lQAyemKESnI6ZvfiE4UYwKCHhyR905mNBp5EKOm6o5FSt6+camZkLMerzp3wXqDolQ2Ue+CiX+vgpVLLWFvVcgTvkQGkgyuQLh5CpEIyAM+M8UgVdB3dmgH4Tg+hJCMff8flO2yUrOsKU1KoMmRevIRHKQYP5Sot7BnyCc4lcGYIFoWDFNoOaMgxlA0ll8/+6Mp+DAlHw5DoCx+9bPtnFSlO5JCxBuPWm/YJRNQIWj2lv6fvNR9pfEMvLWO4oZAuCYSCOJ8X9MN1OrkfqPasBK6gq4L8eX9PvT3gRn0IAl3wvEAdFttPVvj4dDiH6HFT768xdeTYh70WQr/lSn/686db32azO/pbrOzNa5PeApqhtASmg77JRMo8PsnUOA/6giyZx3e9P+Tc3sw9x906SVX2nxP136kyRveM3rn/mdOX9QJhok9TOzHn9jjYWIPE/v/ObHDBw2vsfqhJvawpgxryt6aMv6aawrqhMNqM6w2j7/aTIbV5ptabcLHW22GLek/25LGD5qdE3D6B1oYhtVwWA2H1VCkk+9tNUSd8bBODuvk466T7gct3V8xtODtf7HWv9fZEbJIR0IxmLEJGyX6MvIgCXWbOXa8bBfWuvksmFlDZdpLJ5VSNsQNhTEBNtGAtOgzss5Aoa10u0wUVW54mbftQunRwWyeQVDxNAwurDeW5ZZFaHT+RDz1ICbmW/KPLrEAG/f+BnWV/Wo=
