;FLAVOR:UltiGCode
; TIME:400
;MATERIAL:160
; MATERIAL2: 0
;NOZZLE_DIAMETER:0.400000
;NOZZLE_DIAMETER2:  0.400000
;Layer count: 98
;LAYER: 0
M107
G0  F600 Z0.3
;INSOLE EDGES
G1 X 0053.70 Y 0030.30 E 0001.42
 G1 X 0050.69 Y 0018.28 E 0002.48
G1 X 0167.76 Y 0177.69 E 0004.51
 G1 X 0182.93 Y 0174.66 E 0005.57
G1 X 0153.39 Y 0172.01 E 0008.49
 G1 X 0150.29 Y 0191.63 E 0009.55
G1 X 0153.39 Y 0172.01 E 0012.81
 G1 X 0134.21 Y 0181.98 E 0013.87
G1 X 0153.39 Y 0172.01 E 0012.93
 G1 X 0153.86 Y 0171.66 E 0013.99
G1 X 0049.97 Y 0060.15 E 0015.50
 G1 X 0062.08 Y 0064.43 E 0016.56
G1 X 0086.50 Y 0038.18 E 0016.05
 G1 X 0087.82 Y 0035.76 E 0017.11
G1 X 0064.57 Y 0058.17 E 0017.40
 G1 X 0062.08 Y 0064.43 E 0018.45
G1 X 0064.57 Y 0058.17 E 0023.33
 G1 X 0086.50 Y 0038.18 E 0024.39
G1 X 0064.12 Y 0034.87 E 0025.61
 G1 X 0053.70 Y 0030.30 E 0026.67
G1 X 0064.12 Y 0034.87 E 0028.61
 G1 X 0075.55 Y 0025.16 E 0029.67
G1 X 0064.12 Y 0034.87 E 0033.27
 G1 X 0064.57 Y 0058.17 E 0034.33
G1 X 0048.55 Y 0057.50 E 0033.87
 G1 X 0049.97 Y 0060.15 E 0034.93
G1 X 0024.99 Y 0044.73 E 0039.23
 G1 X 0048.55 Y 0057.50 E 0040.29
G1 X 0044.32 Y 0040.00 E 0041.93
 G1 X 0053.70 Y 0030.30 E 0042.99
G1 X 0044.32 Y 0040.00 E 0045.53
 G1 X 0048.55 Y 0057.50 E 0046.59
G1 X 0044.32 Y 0040.00 E 0048.77
 G1 X 0030.73 Y 0031.15 E 0049.83
G1 X 0110.01 Y 0137.69 E 0052.84
 G1 X 0099.92 Y 0155.33 E 0053.90
G1 X 0161.53 Y 0175.68 E 0054.15
 G1 X 0167.76 Y 0177.69 E 0055.21
G1 X 0155.57 Y 0172.74 E 0054.55
 G1 X 0153.86 Y 0171.66 E 0055.61
G1 X 0155.57 Y 0172.74 E 0055.88
 G1 X 0161.53 Y 0175.68 E 0056.94
G1 X 0155.57 Y 0194.80 E 0060.29
 G1 X 0155.57 Y 0172.74 E 0061.35
G1 X 0160.16 Y 0196.10 E 0064.39
 G1 X 0161.53 Y 0175.68 E 0065.44
G1 X 0168.38 Y 0180.48 E 0064.96
 G1 X 0167.76 Y 0177.69 E 0066.02
G1 X 0168.38 Y 0180.48 E 0067.89
 G1 X 0165.68 Y 0194.87 E 0068.94
G1 X 0169.73 Y 0183.49 E 0070.31
 G1 X 0178.29 Y 0192.05 E 0071.36
G1 X 0169.73 Y 0183.49 E 0070.97
 G1 X 0168.38 Y 0180.48 E 0072.02
G1 X 0170.74 Y 0187.21 E 0072.31
 G1 X 0174.20 Y 0192.96 E 0073.37
G1 X 0170.74 Y 0187.21 E 0073.08
 G1 X 0169.73 Y 0183.49 E 0074.14
G1 X 0170.74 Y 0193.74 E 0074.39
 G1 X 0170.74 Y 0187.21 E 0075.44
G1 X 0047.83 Y 0061.03 E 0074.85
 G1 X 0049.97 Y 0060.15 E 0075.91
G1 X 0025.52 Y 0084.88 E 0081.38
 G1 X 0047.83 Y 0061.03 E 0082.44
G1 X 0019.08 Y 0061.03 E 0087.13
 G1 X 0047.83 Y 0061.03 E 0088.19
G1 X 0091.29 Y 0066.87 E 0092.95
 G1 X 0086.50 Y 0038.18 E 0094.01
G1 X 0058.21 Y 0086.71 E 0099.49
 G1 X 0025.53 Y 0084.89 E 0100.55
G1 X 0076.88 Y 0119.85 E 0107.02
 G1 X 0110.01 Y 0137.69 E 0108.08
G1 X 0068.04 Y 0130.77 E 0109.83
 G1 X 0076.88 Y 0119.85 E 0110.89
G1 X 0042.51 Y 0107.37 E 0115.02
 G1 X 0058.21 Y 0086.71 E 0116.08
G1 X 0117.33 Y 0131.47 E 0116.94
 G1 X 0110.01 Y 0137.69 E 0118.00
G1 X 0120.13 Y 0122.23 E 0118.25
 G1 X 0117.50 Y 0116.23 E 0119.31
G1 X 0120.13 Y 0122.23 E 0120.18
 G1 X 0117.33 Y 0131.47 E 0121.24
G1 X 0145.26 Y 0124.22 E 0125.22
 G1 X 0120.13 Y 0122.23 E 0126.28
G1 X 0138.05 Y 0151.60 E 0130.89
 G1 X 0145.26 Y 0124.22 E 0131.94
G1 X 0133.97 Y 0151.35 E 0135.93
 G1 X 0114.52 Y 0167.41 E 0136.99
G1 X 0133.97 Y 0151.35 E 0141.12
 G1 X 0117.33 Y 0131.47 E 0142.18
G1 X 0133.97 Y 0151.35 E 0141.93
 G1 X 0138.05 Y 0151.60 E 0142.99
G1 X 0149.67 Y 0122.57 E 0142.88
 G1 X 0145.26 Y 0124.22 E 0143.93
G1 X 0138.10 Y 0104.45 E 0147.62
 G1 X 0117.50 Y 0116.23 E 0148.68
G1 X 0092.76 Y 0066.77 E 0147.92
 G1 X 0091.29 Y 0066.87 E 0148.98
G1 X 0106.87 Y 0055.53 E 0151.52
 G1 X 0092.76 Y 0066.77 E 0152.58
G1 X 0077.39 Y 0118.82 E 0151.75
 G1 X 0076.88 Y 0119.85 E 0152.81
G1 X 0077.39 Y 0118.82 E 0156.84
 G1 X 0098.61 Y 0104.84 E 0157.90
G1 X 0061.20 Y 0084.77 E 0157.55
 G1 X 0058.21 Y 0086.71 E 0158.61
G1 X 0061.20 Y 0084.77 E 0165.09
 G1 X 0077.39 Y 0118.82 E 0166.15
G1 X 0066.68 Y 0071.50 E 0166.78
 G1 X 0062.08 Y 0064.43 E 0167.84
G1 X 0066.68 Y 0071.50 E 0169.65
 G1 X 0061.20 Y 0084.77 E 0170.71
G1 X 0074.84 Y 0072.42 E 0173.12
 G1 X 0091.29 Y 0066.87 E 0174.18
G1 X 0074.84 Y 0072.42 E 0181.16
 G1 X 0098.61 Y 0104.84 E 0182.22
G1 X 0074.84 Y 0072.42 E 0182.80
 G1 X 0066.68 Y 0071.50 E 0183.86
G1 X 0153.32 Y 0151.08 E 0188.06
 G1 X 0151.13 Y 0124.86 E 0189.12
G1 X 0163.53 Y 0144.27 E 0190.52
 G1 X 0153.32 Y 0151.08 E 0191.58
G1 X 0153.73 Y 0170.31 E 0190.79
 G1 X 0153.86 Y 0171.66 E 0191.85
G1 X 0153.73 Y 0170.31 E 0195.29
 G1 X 0170.84 Y 0155.73 E 0196.35
G1 X 0148.53 Y 0157.85 E 0197.73
 G1 X 0138.05 Y 0151.60 E 0198.78
G1 X 0148.53 Y 0157.85 E 0199.38
 G1 X 0153.32 Y 0151.08 E 0200.44
G1 X 0148.53 Y 0157.85 E 0202.08
 G1 X 0153.73 Y 0170.31 E 0203.14
G1 X 0106.71 Y 0081.85 E 0206.19
 G1 X 0092.76 Y 0066.77 E 0207.25
G1 X 0120.22 Y 0076.44 E 0209.10
 G1 X 0106.71 Y 0081.85 E 0210.16
G1 X 0112.36 Y 0109.09 E 0210.86
 G1 X 0117.50 Y 0116.23 E 0211.92
G1 X 0112.36 Y 0109.09 E 0215.89
 G1 X 0129.08 Y 0090.32 E 0216.95
G1 X 0101.81 Y 0104.49 E 0216.53
 G1 X 0098.61 Y 0104.84 E 0217.59
G1 X 0101.81 Y 0104.49 E 0221.17
 G1 X 0106.71 Y 0081.85 E 0222.22
G1 X 0101.81 Y 0104.49 E 0223.47
 G1 X 0112.36 Y 0109.09 E 0224.53
;CONTOUR EDGES
G1 X 0184.86 Y 0191.56 E 0225.09
 G1 X 0189.44 Y 0184.86 E 0226.15
G1 X 0189.44 Y 0184.86 E 0256.82
 G1 X 0104.07 Y 0051.15 E 0257.88
G1 X 0104.07 Y 0051.15 E 0262.36
 G1 X 0083.96 Y 0032.10 E 0263.42
G1 X 0083.96 Y 0032.10 E 0266.57
 G1 X 0067.73 Y 0018.70 E 0267.63
G1 X 0067.73 Y 0018.70 E 0269.02
 G1 X 0055.74 Y 0016.23 E 0270.08
G1 X 0055.74 Y 0016.23 E 0273.89
 G1 X 0033.16 Y 0025.40 E 0274.95
G1 X 0033.16 Y 0025.40 E 0281.32
 G1 X 0018.70 Y 0059.62 E 0282.38
G1 X 0018.70 Y 0059.62 E 0286.73
 G1 X 0025.75 Y 0085.72 E 0287.79
G1 X 0025.75 Y 0085.72 E 0295.03
 G1 X 0051.15 Y 0118.53 E 0296.09
G1 X 0051.15 Y 0118.53 E 0303.57
 G1 X 0085.72 Y 0143.58 E 0304.63
G1 X 0085.72 Y 0143.58 E 0314.19
 G1 X 0126.65 Y 0177.45 E 0315.25
G1 X 0126.65 Y 0177.45 E 0321.60
 G1 X 0158.40 Y 0196.50 E 0322.65
G1 X 0158.40 Y 0196.50 E 0327.09
 G1 X 0185.21 Y 0190.50 E 0328.15
G1 X 0185.21 Y 0190.50 E 0327.09
 G1 X 0185.21 Y 0190.50 E 0328.15
G1 X 0185.21 Y 0190.50 E 0327.31
 G1 X 0184.86 Y 0191.56 E 0328.37
G0  F600 Z0.6
;INSOLE EDGES
G1 X 0053.70 Y 0030.30 E 0329.79
 G1 X 0050.69 Y 0018.28 E 0330.85
G1 X 0167.76 Y 0177.69 E 0332.89
 G1 X 0182.93 Y 0174.66 E 0333.94
G1 X 0153.39 Y 0172.01 E 0336.86
 G1 X 0150.29 Y 0191.63 E 0337.92
G1 X 0153.39 Y 0172.01 E 0341.18
 G1 X 0134.21 Y 0181.98 E 0342.24
G1 X 0153.39 Y 0172.01 E 0341.30
 G1 X 0153.86 Y 0171.66 E 0342.36
G1 X 0049.97 Y 0060.15 E 0343.87
 G1 X 0062.08 Y 0064.43 E 0344.93
G1 X 0086.50 Y 0038.18 E 0344.42
 G1 X 0087.82 Y 0035.76 E 0345.48
G1 X 0064.57 Y 0058.17 E 0345.77
 G1 X 0062.08 Y 0064.43 E 0346.83
G1 X 0064.57 Y 0058.17 E 0351.71
 G1 X 0086.50 Y 0038.18 E 0352.76
G1 X 0064.12 Y 0034.87 E 0353.98
 G1 X 0053.70 Y 0030.30 E 0355.04
G1 X 0064.12 Y 0034.87 E 0356.98
 G1 X 0075.55 Y 0025.16 E 0358.04
G1 X 0064.12 Y 0034.87 E 0361.64
 G1 X 0064.57 Y 0058.17 E 0362.70
G1 X 0048.55 Y 0057.50 E 0362.24
 G1 X 0049.97 Y 0060.15 E 0363.30
G1 X 0024.99 Y 0044.73 E 0367.60
 G1 X 0048.55 Y 0057.50 E 0368.66
G1 X 0044.32 Y 0040.00 E 0370.30
 G1 X 0053.70 Y 0030.30 E 0371.36
G1 X 0044.32 Y 0040.00 E 0373.90
 G1 X 0048.55 Y 0057.50 E 0374.96
G1 X 0044.32 Y 0040.00 E 0377.14
 G1 X 0030.73 Y 0031.15 E 0378.20
G1 X 0110.01 Y 0137.69 E 0381.21
 G1 X 0099.92 Y 0155.33 E 0382.27
G1 X 0161.53 Y 0175.68 E 0382.52
 G1 X 0167.76 Y 0177.69 E 0383.58
G1 X 0155.57 Y 0172.74 E 0382.93
 G1 X 0153.86 Y 0171.66 E 0383.98
G1 X 0155.57 Y 0172.74 E 0384.25
 G1 X 0161.53 Y 0175.68 E 0385.31
G1 X 0155.57 Y 0194.80 E 0388.67
 G1 X 0155.57 Y 0172.74 E 0389.72
G1 X 0160.16 Y 0196.10 E 0392.76
 G1 X 0161.53 Y 0175.68 E 0393.82
G1 X 0168.38 Y 0180.48 E 0393.33
 G1 X 0167.76 Y 0177.69 E 0394.39
G1 X 0168.38 Y 0180.48 E 0396.26
 G1 X 0165.68 Y 0194.87 E 0397.32
G1 X 0169.73 Y 0183.49 E 0398.68
 G1 X 0178.29 Y 0192.05 E 0399.74
G1 X 0169.73 Y 0183.49 E 0399.34
 G1 X 0168.38 Y 0180.48 E 0400.40
G1 X 0170.74 Y 0187.21 E 0400.68
 G1 X 0174.20 Y 0192.96 E 0401.74
G1 X 0170.74 Y 0187.21 E 0401.45
 G1 X 0169.73 Y 0183.49 E 0402.51
G1 X 0170.74 Y 0193.74 E 0402.76
 G1 X 0170.74 Y 0187.21 E 0403.82
G1 X 0047.83 Y 0061.03 E 0403.22
 G1 X 0049.97 Y 0060.15 E 0404.28
G1 X 0025.52 Y 0084.88 E 0409.75
 G1 X 0047.83 Y 0061.03 E 0410.81
G1 X 0019.08 Y 0061.03 E 0415.50
 G1 X 0047.83 Y 0061.03 E 0416.56
G1 X 0091.29 Y 0066.87 E 0421.32
 G1 X 0086.50 Y 0038.18 E 0422.38
G1 X 0058.21 Y 0086.71 E 0427.87
 G1 X 0025.53 Y 0084.89 E 0428.93
G1 X 0076.88 Y 0119.85 E 0435.39
 G1 X 0110.01 Y 0137.69 E 0436.45
G1 X 0068.04 Y 0130.77 E 0438.20
 G1 X 0076.88 Y 0119.85 E 0439.26
G1 X 0042.51 Y 0107.37 E 0443.39
 G1 X 0058.21 Y 0086.71 E 0444.45
G1 X 0117.33 Y 0131.47 E 0445.31
 G1 X 0110.01 Y 0137.69 E 0446.37
G1 X 0120.13 Y 0122.23 E 0446.63
 G1 X 0117.50 Y 0116.23 E 0447.68
G1 X 0120.13 Y 0122.23 E 0448.56
 G1 X 0117.33 Y 0131.47 E 0449.61
G1 X 0145.26 Y 0124.22 E 0453.60
 G1 X 0120.13 Y 0122.23 E 0454.65
G1 X 0138.05 Y 0151.60 E 0459.26
 G1 X 0145.26 Y 0124.22 E 0460.32
G1 X 0133.97 Y 0151.35 E 0464.30
 G1 X 0114.52 Y 0167.41 E 0465.36
G1 X 0133.97 Y 0151.35 E 0469.49
 G1 X 0117.33 Y 0131.47 E 0470.55
G1 X 0133.97 Y 0151.35 E 0470.31
 G1 X 0138.05 Y 0151.60 E 0471.36
G1 X 0149.67 Y 0122.57 E 0471.25
 G1 X 0145.26 Y 0124.22 E 0472.31
G1 X 0138.10 Y 0104.45 E 0475.99
 G1 X 0117.50 Y 0116.23 E 0477.05
G1 X 0092.76 Y 0066.77 E 0476.29
 G1 X 0091.29 Y 0066.87 E 0477.35
G1 X 0106.87 Y 0055.53 E 0479.90
 G1 X 0092.76 Y 0066.77 E 0480.96
G1 X 0077.39 Y 0118.82 E 0480.13
 G1 X 0076.88 Y 0119.85 E 0481.18
G1 X 0077.39 Y 0118.82 E 0485.21
 G1 X 0098.61 Y 0104.84 E 0486.27
G1 X 0061.20 Y 0084.77 E 0485.92
 G1 X 0058.21 Y 0086.71 E 0486.98
G1 X 0061.20 Y 0084.77 E 0493.46
 G1 X 0077.39 Y 0118.82 E 0494.52
G1 X 0066.68 Y 0071.50 E 0495.15
 G1 X 0062.08 Y 0064.43 E 0496.21
G1 X 0066.68 Y 0071.50 E 0498.02
 G1 X 0061.20 Y 0084.77 E 0499.08
G1 X 0074.84 Y 0072.42 E 0501.49
 G1 X 0091.29 Y 0066.87 E 0502.55
G1 X 0074.84 Y 0072.42 E 0509.53
 G1 X 0098.61 Y 0104.84 E 0510.59
G1 X 0074.84 Y 0072.42 E 0511.17
 G1 X 0066.68 Y 0071.50 E 0512.23
G1 X 0153.32 Y 0151.08 E 0516.44
 G1 X 0151.13 Y 0124.86 E 0517.49
G1 X 0163.53 Y 0144.27 E 0518.89
 G1 X 0153.32 Y 0151.08 E 0519.95
G1 X 0153.73 Y 0170.31 E 0519.16
 G1 X 0153.86 Y 0171.66 E 0520.22
G1 X 0153.73 Y 0170.31 E 0523.66
 G1 X 0170.84 Y 0155.73 E 0524.72
G1 X 0148.53 Y 0157.85 E 0526.10
 G1 X 0138.05 Y 0151.60 E 0527.16
G1 X 0148.53 Y 0157.85 E 0527.76
 G1 X 0153.32 Y 0151.08 E 0528.82
G1 X 0148.53 Y 0157.85 E 0530.46
 G1 X 0153.73 Y 0170.31 E 0531.52
G1 X 0106.71 Y 0081.85 E 0534.57
 G1 X 0092.76 Y 0066.77 E 0535.62
G1 X 0120.22 Y 0076.44 E 0537.47
 G1 X 0106.71 Y 0081.85 E 0538.53
G1 X 0112.36 Y 0109.09 E 0539.23
 G1 X 0117.50 Y 0116.23 E 0540.29
G1 X 0112.36 Y 0109.09 E 0544.26
 G1 X 0129.08 Y 0090.32 E 0545.32
G1 X 0101.81 Y 0104.49 E 0544.90
 G1 X 0098.61 Y 0104.84 E 0545.96
G1 X 0101.81 Y 0104.49 E 0549.54
 G1 X 0106.71 Y 0081.85 E 0550.60
G1 X 0101.81 Y 0104.49 E 0551.84
 G1 X 0112.36 Y 0109.09 E 0552.90
;CONTOUR EDGES
G1 X 0184.86 Y 0191.56 E 0553.46
 G1 X 0189.44 Y 0184.86 E 0554.52
G1 X 0189.44 Y 0184.86 E 0585.19
 G1 X 0104.07 Y 0051.15 E 0586.25
G1 X 0104.07 Y 0051.15 E 0590.73
 G1 X 0083.96 Y 0032.10 E 0591.79
G1 X 0083.96 Y 0032.10 E 0594.94
 G1 X 0067.73 Y 0018.70 E 0596.00
G1 X 0067.73 Y 0018.70 E 0597.39
 G1 X 0055.74 Y 0016.23 E 0598.45
G1 X 0055.74 Y 0016.23 E 0602.26
 G1 X 0033.16 Y 0025.40 E 0603.32
G1 X 0033.16 Y 0025.40 E 0609.69
 G1 X 0018.70 Y 0059.62 E 0610.75
G1 X 0018.70 Y 0059.62 E 0615.10
 G1 X 0025.75 Y 0085.72 E 0616.16
G1 X 0025.75 Y 0085.72 E 0623.40
 G1 X 0051.15 Y 0118.53 E 0624.46
G1 X 0051.15 Y 0118.53 E 0631.94
 G1 X 0085.72 Y 0143.58 E 0633.00
G1 X 0085.72 Y 0143.58 E 0642.56
 G1 X 0126.65 Y 0177.45 E 0643.62
G1 X 0126.65 Y 0177.45 E 0649.97
 G1 X 0158.40 Y 0196.50 E 0651.03
G1 X 0158.40 Y 0196.50 E 0655.46
 G1 X 0185.21 Y 0190.50 E 0656.52
G1 X 0185.21 Y 0190.50 E 0655.46
 G1 X 0185.21 Y 0190.50 E 0656.52
G1 X 0185.21 Y 0190.50 E 0655.69
 G1 X 0184.86 Y 0191.56 E 0656.74
G0  F600 Z0.90000004
;INSOLE EDGES
G1 X 0053.70 Y 0030.30 E 0658.16
 G1 X 0050.69 Y 0018.28 E 0659.22
G1 X 0167.76 Y 0177.69 E 0661.26
 G1 X 0182.93 Y 0174.66 E 0662.32
G1 X 0153.39 Y 0172.01 E 0665.23
 G1 X 0150.29 Y 0191.63 E 0666.29
G1 X 0153.39 Y 0172.01 E 0669.56
 G1 X 0134.21 Y 0181.98 E 0670.61
G1 X 0153.39 Y 0172.01 E 0669.67
 G1 X 0153.86 Y 0171.66 E 0670.73
G1 X 0049.97 Y 0060.15 E 0672.24
 G1 X 0062.08 Y 0064.43 E 0673.30
G1 X 0086.50 Y 0038.18 E 0672.79
 G1 X 0087.82 Y 0035.76 E 0673.85
G1 X 0064.57 Y 0058.17 E 0674.14
 G1 X 0062.08 Y 0064.43 E 0675.20
G1 X 0064.57 Y 0058.17 E 0680.08
 G1 X 0086.50 Y 0038.18 E 0681.14
G1 X 0064.12 Y 0034.87 E 0682.35
 G1 X 0053.70 Y 0030.30 E 0683.41
G1 X 0064.12 Y 0034.87 E 0685.35
 G1 X 0075.55 Y 0025.16 E 0686.41
G1 X 0064.12 Y 0034.87 E 0690.01
 G1 X 0064.57 Y 0058.17 E 0691.07
G1 X 0048.55 Y 0057.50 E 0690.62
 G1 X 0049.97 Y 0060.15 E 0691.67
G1 X 0024.99 Y 0044.73 E 0695.97
 G1 X 0048.55 Y 0057.50 E 0697.03
G1 X 0044.32 Y 0040.00 E 0698.67
 G1 X 0053.70 Y 0030.30 E 0699.73
G1 X 0044.32 Y 0040.00 E 0702.27
 G1 X 0048.55 Y 0057.50 E 0703.33
G1 X 0044.32 Y 0040.00 E 0705.52
 G1 X 0030.73 Y 0031.15 E 0706.58
G1 X 0110.01 Y 0137.69 E 0709.58
 G1 X 0099.92 Y 0155.33 E 0710.64
G1 X 0161.53 Y 0175.68 E 0710.89
 G1 X 0167.76 Y 0177.69 E 0711.95
G1 X 0155.57 Y 0172.74 E 0711.30
 G1 X 0153.86 Y 0171.66 E 0712.36
G1 X 0155.57 Y 0172.74 E 0712.62
 G1 X 0161.53 Y 0175.68 E 0713.68
G1 X 0155.57 Y 0194.80 E 0717.04
 G1 X 0155.57 Y 0172.74 E 0718.10
G1 X 0160.16 Y 0196.10 E 0721.13
 G1 X 0161.53 Y 0175.68 E 0722.19
G1 X 0168.38 Y 0180.48 E 0721.70
 G1 X 0167.76 Y 0177.69 E 0722.76
G1 X 0168.38 Y 0180.48 E 0724.63
 G1 X 0165.68 Y 0194.87 E 0725.69
G1 X 0169.73 Y 0183.49 E 0727.05
 G1 X 0178.29 Y 0192.05 E 0728.11
G1 X 0169.73 Y 0183.49 E 0727.71
 G1 X 0168.38 Y 0180.48 E 0728.77
G1 X 0170.74 Y 0187.21 E 0729.05
 G1 X 0174.20 Y 0192.96 E 0730.11
G1 X 0170.74 Y 0187.21 E 0729.82
 G1 X 0169.73 Y 0183.49 E 0730.88
G1 X 0170.74 Y 0193.74 E 0731.13
 G1 X 0170.74 Y 0187.21 E 0732.19
G1 X 0047.83 Y 0061.03 E 0731.59
 G1 X 0049.97 Y 0060.15 E 0732.65
G1 X 0025.52 Y 0084.88 E 0738.12
 G1 X 0047.83 Y 0061.03 E 0739.18
G1 X 0019.08 Y 0061.03 E 0743.87
 G1 X 0047.83 Y 0061.03 E 0744.93
G1 X 0091.29 Y 0066.87 E 0749.69
 G1 X 0086.50 Y 0038.18 E 0750.75
G1 X 0058.21 Y 0086.71 E 0756.24
 G1 X 0025.53 Y 0084.89 E 0757.30
G1 X 0076.88 Y 0119.85 E 0763.76
 G1 X 0110.01 Y 0137.69 E 0764.82
G1 X 0068.04 Y 0130.77 E 0766.57
 G1 X 0076.88 Y 0119.85 E 0767.63
G1 X 0042.51 Y 0107.37 E 0771.76
 G1 X 0058.21 Y 0086.71 E 0772.82
G1 X 0117.33 Y 0131.47 E 0773.69
 G1 X 0110.01 Y 0137.69 E 0774.74
G1 X 0120.13 Y 0122.23 E 0775.00
 G1 X 0117.50 Y 0116.23 E 0776.06
G1 X 0120.13 Y 0122.23 E 0776.93
 G1 X 0117.33 Y 0131.47 E 0777.99
G1 X 0145.26 Y 0124.22 E 0781.97
 G1 X 0120.13 Y 0122.23 E 0783.03
G1 X 0138.05 Y 0151.60 E 0787.63
 G1 X 0145.26 Y 0124.22 E 0788.69
G1 X 0133.97 Y 0151.35 E 0792.68
 G1 X 0114.52 Y 0167.41 E 0793.73
G1 X 0133.97 Y 0151.35 E 0797.86
 G1 X 0117.33 Y 0131.47 E 0798.92
G1 X 0133.97 Y 0151.35 E 0798.68
 G1 X 0138.05 Y 0151.60 E 0799.74
G1 X 0149.67 Y 0122.57 E 0799.62
 G1 X 0145.26 Y 0124.22 E 0800.68
G1 X 0138.10 Y 0104.45 E 0804.37
 G1 X 0117.50 Y 0116.23 E 0805.42
G1 X 0092.76 Y 0066.77 E 0804.66
 G1 X 0091.29 Y 0066.87 E 0805.72
G1 X 0106.87 Y 0055.53 E 0808.27
 G1 X 0092.76 Y 0066.77 E 0809.33
G1 X 0077.39 Y 0118.82 E 0808.50
 G1 X 0076.88 Y 0119.85 E 0809.56
G1 X 0077.39 Y 0118.82 E 0813.58
 G1 X 0098.61 Y 0104.84 E 0814.64
G1 X 0061.20 Y 0084.77 E 0814.29
 G1 X 0058.21 Y 0086.71 E 0815.35
G1 X 0061.20 Y 0084.77 E 0821.84
 G1 X 0077.39 Y 0118.82 E 0822.89
G1 X 0066.68 Y 0071.50 E 0823.52
 G1 X 0062.08 Y 0064.43 E 0824.58
G1 X 0066.68 Y 0071.50 E 0826.39
 G1 X 0061.20 Y 0084.77 E 0827.45
G1 X 0074.84 Y 0072.42 E 0829.86
 G1 X 0091.29 Y 0066.87 E 0830.92
G1 X 0074.84 Y 0072.42 E 0837.90
 G1 X 0098.61 Y 0104.84 E 0838.96
G1 X 0074.84 Y 0072.42 E 0839.55
