;FLAVOR:UltiGCode
; TIME:400
;MATERIAL:160
; MATERIAL2: 0
;NOZZLE_DIAMETER:0.400000
;NOZZLE_DIAMETER2:  0.400000
;Layer count: 98
;LAYER: 0
M107
G0  F600 Z0.3
;INSOLE EDGES
G1 X 0119.29 Y 0152.80 E 0007.56
 G1 X 0114.89 Y 0195.66 E 0008.62
G1 X 0175.47 Y 0162.08 E 0018.95
 G1 X 0119.29 Y 0152.80 E 0020.00
G1 X 0115.80 Y 0146.29 E 0020.42
 G1 X 0119.29 Y 0152.80 E 0021.48
G1 X 0092.50 Y 0148.96 E 0029.39
 G1 X 0058.07 Y 0177.65 E 0030.44
G1 X 0092.50 Y 0148.96 E 0034.08
 G1 X 0115.80 Y 0146.29 E 0035.14
G1 X 0061.94 Y 0126.59 E 0038.97
 G1 X 0038.29 Y 0132.89 E 0040.03
G1 X 0061.94 Y 0126.59 E 0046.55
 G1 X 0092.50 Y 0148.96 E 0047.60
G1 X 0120.78 Y 0114.06 E 0053.07
 G1 X 0115.80 Y 0146.29 E 0054.13
G1 X 0084.24 Y 0102.33 E 0059.66
 G1 X 0061.94 Y 0126.59 E 0060.72
;CONTOUR EDGES
G1 X 0012.26 Y 0057.83 E 0059.66
 G1 X 0012.26 Y 0057.83 E 0060.72
G1 X 0012.26 Y 0057.83 E 0062.53
 G1 X 0023.76 Y 0066.43 E 0063.59
G1 X 0023.76 Y 0066.43 E 0073.42
 G1 X 0068.59 Y 0097.33 E 0074.48
G1 X 0068.59 Y 0097.33 E 0084.07
 G1 X 0119.30 Y 0113.52 E 0085.13
G1 X 0119.30 Y 0113.52 E 0092.35
 G1 X 0158.23 Y 0127.61 E 0093.41
G1 X 0158.23 Y 0127.61 E 0099.45
 G1 X 0176.32 Y 0158.19 E 0100.51
G1 X 0176.32 Y 0158.19 E 0103.04
 G1 X 0172.50 Y 0175.69 E 0104.10
G1 X 0172.50 Y 0175.69 E 0107.74
 G1 X 0158.38 Y 0194.48 E 0108.79
G1 X 0158.38 Y 0194.48 E 0114.94
 G1 X 0122.53 Y 0198.07 E 0116.00
G1 X 0122.53 Y 0198.07 E 0123.22
 G1 X 0083.07 Y 0185.65 E 0124.27
G1 X 0083.07 Y 0185.65 E 0129.47
 G1 X 0053.28 Y 0176.11 E 0130.53
G1 X 0053.28 Y 0176.11 E 0129.47
 G1 X 0053.28 Y 0176.11 E 0130.53
G1 X 0053.28 Y 0176.11 E 0154.51
 G1 X 0012.26 Y 0057.83 E 0155.57
G0  F600 Z0.6
;INSOLE EDGES
G1 X 0119.29 Y 0152.80 E 0163.13
 G1 X 0114.89 Y 0195.66 E 0164.19
G1 X 0175.47 Y 0162.08 E 0174.52
 G1 X 0119.29 Y 0152.80 E 0175.57
G1 X 0115.80 Y 0146.29 E 0175.99
 G1 X 0119.29 Y 0152.80 E 0177.05
G1 X 0092.50 Y 0148.96 E 0184.95
 G1 X 0058.07 Y 0177.65 E 0186.01
G1 X 0092.50 Y 0148.96 E 0189.65
 G1 X 0115.80 Y 0146.29 E 0190.71
G1 X 0061.94 Y 0126.59 E 0194.54
 G1 X 0038.29 Y 0132.89 E 0195.60
G1 X 0061.94 Y 0126.59 E 0202.12
 G1 X 0092.50 Y 0148.96 E 0203.17
G1 X 0120.78 Y 0114.06 E 0208.64
 G1 X 0115.80 Y 0146.29 E 0209.70
G1 X 0084.24 Y 0102.33 E 0215.23
 G1 X 0061.94 Y 0126.59 E 0216.29
;CONTOUR EDGES
G1 X 0012.26 Y 0057.83 E 0215.23
 G1 X 0012.26 Y 0057.83 E 0216.29
G1 X 0012.26 Y 0057.83 E 0218.10
 G1 X 0023.76 Y 0066.43 E 0219.16
G1 X 0023.76 Y 0066.43 E 0228.99
 G1 X 0068.59 Y 0097.33 E 0230.05
G1 X 0068.59 Y 0097.33 E 0239.64
 G1 X 0119.30 Y 0113.52 E 0240.70
G1 X 0119.30 Y 0113.52 E 0247.92
 G1 X 0158.23 Y 0127.61 E 0248.98
G1 X 0158.23 Y 0127.61 E 0255.02
 G1 X 0176.32 Y 0158.19 E 0256.08
G1 X 0176.32 Y 0158.19 E 0258.61
 G1 X 0172.50 Y 0175.69 E 0259.66
G1 X 0172.50 Y 0175.69 E 0263.31
 G1 X 0158.38 Y 0194.48 E 0264.36
G1 X 0158.38 Y 0194.48 E 0270.51
 G1 X 0122.53 Y 0198.07 E 0271.57
G1 X 0122.53 Y 0198.07 E 0278.79
 G1 X 0083.07 Y 0185.65 E 0279.84
G1 X 0083.07 Y 0185.65 E 0285.04
 G1 X 0053.28 Y 0176.11 E 0286.10
G1 X 0053.28 Y 0176.11 E 0285.04
 G1 X 0053.28 Y 0176.11 E 0286.10
G1 X 0053.28 Y 0176.11 E 0310.08
 G1 X 0012.26 Y 0057.83 E 0311.14
G0  F600 Z0.90000004
;INSOLE EDGES
G1 X 0119.29 Y 0152.80 E 0318.70
 G1 X 0114.89 Y 0195.66 E 0319.76
G1 X 0175.47 Y 0162.08 E 0330.08
 G1 X 0119.29 Y 0152.80 E 0331.14
G1 X 0115.80 Y 0146.29 E 0331.56
 G1 X 0119.29 Y 0152.80 E 0332.62
G1 X 0092.50 Y 0148.96 E 0340.52
 G1 X 0058.07 Y 0177.65 E 0341.58
G1 X 0092.50 Y 0148.96 E 0345.22
 G1 X 0115.80 Y 0146.29 E 0346.27
G1 X 0061.94 Y 0126.59 E 0350.11
 G1 X 0038.29 Y 0132.89 E 0351.17
G1 X 0061.94 Y 0126.59 E 0357.68
 G1 X 0092.50 Y 0148.96 E 0358.74
G1 X 0120.78 Y 0114.06 E 0364.21
 G1 X 0115.80 Y 0146.29 E 0365.27
G1 X 0084.24 Y 0102.33 E 0370.80
 G1 X 0061.94 Y 0126.59 E 0371.86
;CONTOUR EDGES
G1 X 0012.26 Y 0057.83 E 0370.80
 G1 X 0012.26 Y 0057.83 E 0371.86
G1 X 0012.26 Y 0057.83 E 0373.67
 G1 X 0023.76 Y 0066.43 E 0374.73
G1 X 0023.76 Y 0066.43 E 0384.56
 G1 X 0068.59 Y 0097.33 E 0385.62
G1 X 0068.59 Y 0097.33 E 0395.21
 G1 X 0119.30 Y 0113.52 E 0396.26
G1 X 0119.30 Y 0113.52 E 0403.49
 G1 X 0158.23 Y 0127.61 E 0404.54
G1 X 0158.23 Y 0127.61 E 0410.59
 G1 X 0176.32 Y 0158.19 E 0411.65
G1 X 0176.32 Y 0158.19 E 0414.18
 G1 X 0172.50 Y 0175.69 E 0415.23
G1 X 0172.50 Y 0175.69 E 0418.87
 G1 X 0158.38 Y 0194.48 E 0419.93
G1 X 0158.38 Y 0194.48 E 0426.08
 G1 X 0122.53 Y 0198.07 E 0427.14
G1 X 0122.53 Y 0198.07 E 0434.35
 G1 X 0083.07 Y 0185.65 E 0435.41
G1 X 0083.07 Y 0185.65 E 0440.61
 G1 X 0053.28 Y 0176.11 E 0441.67
G1 X 0053.28 Y 0176.11 E 0440.61
 G1 X 0053.28 Y 0176.11 E 0441.67
G1 X 0053.28 Y 0176.11 E 0465.65
 G1 X 0012.26 Y 0057.83 E 0466.71
G0  F600 Z1.2
;INSOLE EDGES
G1 X 0119.29 Y 0152.80 E 0474.27
 G1 X 0114.89 Y 0195.66 E 0475.32
G1 X 0175.47 Y 0162.08 E 0485.65
 G1 X 0119.29 Y 0152.80 E 0486.71
G1 X 0115.80 Y 0146.29 E 0487.13
 G1 X 0119.29 Y 0152.80 E 0488.19
G1 X 0092.50 Y 0148.96 E 0496.09
 G1 X 0058.07 Y 0177.65 E 0497.15
G1 X 0092.50 Y 0148.96 E 0500.79
 G1 X 0115.80 Y 0146.29 E 0501.84
G1 X 0061.94 Y 0126.59 E 0505.68
 G1 X 0038.29 Y 0132.89 E 0506.74
G1 X 0061.94 Y 0126.59 E 0513.25
 G1 X 0092.50 Y 0148.96 E 0514.31
G1 X 0120.78 Y 0114.06 E 0519.78
 G1 X 0115.80 Y 0146.29 E 0520.83
G1 X 0084.24 Y 0102.33 E 0526.37
 G1 X 0061.94 Y 0126.59 E 0527.43
;CONTOUR EDGES
G1 X 0012.26 Y 0057.83 E 0526.37
 G1 X 0012.26 Y 0057.83 E 0527.43
G1 X 0012.26 Y 0057.83 E 0529.24
 G1 X 0023.76 Y 0066.43 E 0530.30
G1 X 0023.76 Y 0066.43 E 0540.13
 G1 X 0068.59 Y 0097.33 E 0541.19
G1 X 0068.59 Y 0097.33 E 0550.78
 G1 X 0119.30 Y 0113.52 E 0551.83
G1 X 0119.30 Y 0113.52 E 0559.06
 G1 X 0158.23 Y 0127.61 E 0560.11
G1 X 0158.23 Y 0127.61 E 0566.16
 G1 X 0176.32 Y 0158.19 E 0567.22
G1 X 0176.32 Y 0158.19 E 0569.74
 G1 X 0172.50 Y 0175.69 E 0570.80
G1 X 0172.50 Y 0175.69 E 0574.44
 G1 X 0158.38 Y 0194.48 E 0575.50
G1 X 0158.38 Y 0194.48 E 0581.65
 G1 X 0122.53 Y 0198.07 E 0582.71
G1 X 0122.53 Y 0198.07 E 0589.92
 G1 X 0083.07 Y 0185.65 E 0590.98
G1 X 0083.07 Y 0185.65 E 0596.18
 G1 X 0053.28 Y 0176.11 E 0597.24
G1 X 0053.28 Y 0176.11 E 0596.18
 G1 X 0053.28 Y 0176.11 E 0597.24
G1 X 0053.28 Y 0176.11 E 0621.22
 G1 X 0012.26 Y 0057.83 E 0622.28
G0  F600 Z1.5
;INSOLE EDGES
G1 X 0119.29 Y 0152.80 E 0629.84
 G1 X 0114.89 Y 0195.66 E 0630.89
G1 X 0175.47 Y 0162.08 E 0641.22
 G1 X 0119.29 Y 0152.80 E 0642.28
G1 X 0115.80 Y 0146.29 E 0642.70
 G1 X 0119.29 Y 0152.80 E 0643.76
G1 X 0092.50 Y 0148.96 E 0651.66
 G1 X 0058.07 Y 0177.65 E 0652.72
G1 X 0092.50 Y 0148.96 E 0656.36
 G1 X 0115.80 Y 0146.29 E 0657.41
G1 X 0061.94 Y 0126.59 E 0661.25
 G1 X 0038.29 Y 0132.89 E 0662.31
G1 X 0061.94 Y 0126.59 E 0668.82
 G1 X 0092.50 Y 0148.96 E 0669.88
G1 X 0120.78 Y 0114.06 E 0675.35
 G1 X 0115.80 Y 0146.29 E 0676.40
G1 X 0084.24 Y 0102.33 E 0681.94
 G1 X 0061.94 Y 0126.59 E 0683.00
;CONTOUR EDGES
G1 X 0012.26 Y 0057.83 E 0681.94
 G1 X 0012.26 Y 0057.83 E 0683.00
G1 X 0012.26 Y 0057.83 E 0684.81
 G1 X 0023.76 Y 0066.43 E 0685.87
G1 X 0023.76 Y 0066.43 E 0695.70
 G1 X 0068.59 Y 0097.33 E 0696.76
G1 X 0068.59 Y 0097.33 E 0706.35
 G1 X 0119.30 Y 0113.52 E 0707.40
G1 X 0119.30 Y 0113.52 E 0714.63
 G1 X 0158.23 Y 0127.61 E 0715.68
G1 X 0158.23 Y 0127.61 E 0721.73
 G1 X 0176.32 Y 0158.19 E 0722.79
G1 X 0176.32 Y 0158.19 E 0725.31
 G1 X 0172.50 Y 0175.69 E 0726.37
G1 X 0172.50 Y 0175.69 E 0730.01
 G1 X 0158.38 Y 0194.48 E 0731.07
G1 X 0158.38 Y 0194.48 E 0737.22
 G1 X 0122.53 Y 0198.07 E 0738.28
G1 X 0122.53 Y 0198.07 E 0745.49
 G1 X 0083.07 Y 0185.65 E 0746.55
G1 X 0083.07 Y 0185.65 E 0751.75
 G1 X 0053.28 Y 0176.11 E 0752.81
G1 X 0053.28 Y 0176.11 E 0751.75
 G1 X 0053.28 Y 0176.11 E 0752.81
G1 X 0053.28 Y 0176.11 E 0776.79
 G1 X 0012.26 Y 0057.83 E 0777.85
G0  F600 Z1.8
M107
G10
G0 F9000 X110.000 Y126.900 Z15.000
M25 ;Stop reading from this point on.
;CURA_PROFILE_STRING:eNrtWt1v2zYQfxWC/RF8bLHGk2S7aWvoYe2SvqRDgXhYmxeBlmiLi0QKJBXHCfy/746iFNlRunQN1o/JDw70093xePe7j6LO6YapOGN8lZnIHwXemuZ5bDKeXAimNUATTzGjaGK4FDETdJGzaK4q5mmZ8zTOrYGuwnNvycFGyoTmZhOFvlcqLkysS8bSaNo8GlaUTFFTKRaFQQ8aRj3guA+c9IHTFlywdOe0I9/TVVlKZaK5rJKMixVZVDxPy5wa5uH3UqoipmnGNNw6+l0K1qjEaUXzmF0ZVdl3r6XJvDUvWWzkmqnohOaadYD4UuZVwaJg6kl5zWKdcZanTgwCRQsGLqYc/hpQD0cvpndhDMUdcNwHTvrAaRdc5nIdBb4/8j0hr69zcIlfs/1E18maoFQHpYWshIkmo2kXtRFxr4Lnu+8KLmJ4uGR5FOy+SWSxgMhHv+b5ngIvdiIMPoRdiUyWiHkLaYwsdqg39iwd/XjNU5PFS9CQCi/rycVfLAEOcnEBwZCXTOW0tJ4j66de7aO7djDt2K8JXr8ALnNh2V0/o5gtA6oY7WBcaGb8feCqAyRS5jY4rn44UAQST5sSS12NXXCgXM4Fg3jZ+DpoRctojKfbpyZoORMrkzn/0diyAl9ddU8d5u7od57igl5ZpHVrCSiUC/DWgRmjUOx8aRx16+o3kIvucx2zW3bnsQs18h8KkFs+QkVCgbG4jmVjwNWX2ZQsOoUb6xaiYgVN53lbtrG1XLs3bcGrDRBeGyoSZPNRi193YZQvuaI5ct4dzIsSqqCQqWtsC3CzG3PIuqJLiDJVKy5sHO2zFdElTZDG4wZdUM32SHmLo4rlJlSDk4cOxRQwdVcpPNp/e6tqSxVfUq6ABzF0bMupDoYWwhrQldNHouloD+07s9XYOXHJr6D0lOLAzrgSth3gqIB0xbQO3KdEFi0pujIQElkyES+40X0C0AVwjFxCnA03tlU7sTKvIBmQIeDQKmrqO2EYr/gqOgz2oA1APwENlBmtEkz17CznCUsJNa/ITUo3W/w2DP5gMW4PZq+p5gmBujVwqn5FTjGApC4mUMk7k3NL/oSLgszN7vjckhNgKsDdiQim3+NcIngOvHOTqz70xLVpAqFJa8W6bdf9dVt0oHV99qqjlUhtulr4DFbfBS99cnbTOw63ZPaHgGZs9Y0kNE3JRlaKyLUgIEs6sgQpgeb8l625h5q6Y+ZtGBD3mUFbUBDsS5pXTB+8BW+bN3QBnaUyjJQSggeUgmQcvHsRtgKQIGKHRQrZwUMbBSzoA3D1qJXE7JM1NxkxGSPQ/YhcLsGPF+SDTz766Ae0K/Lhl49oCNogYSLV0OO0FTr3nbModH5XJCDnATQHcnLTnSZbp4BHNqsFSTEiwbQo4K4hOW6ve/uZXTMlrZK7XErq7o7nnIS+T47HexpOkIyLAi5GsIUTcC25+PxDCF1RLuxRu5cB7laG2Mzj2lQAyemKESnI6ZvfiE4UYwKCHhyR905mNBp5EKOm6o5FSt6+camZkLMerzp3wXqDolQ2Ue+CiX+vgpVLLWFvVcgTvkQGkgyuQLh5CpEIyAM+M8UgVdB3dmgH4Tg+hJCMff8flO2yUrOsKU1KoMmRevIRHKQYP5Sot7BnyCc4lcGYIFoWDFNoOaMgxlA0ll8/+6Mp+DAlHw5DoCx+9bPtnFSlO5JCxBuPWm/YJRNQIWj2lv6fvNR9pfEMvLWO4oZAuCYSCOJ8X9MN1OrkfqPasBK6gq4L8eX9PvT3gRn0IAl3wvEAdFttPVvj4dDiH6HFT768xdeTYh70WQr/lSn/686db32azO/pbrOzNa5PeApqhtASmg77JRMo8PsnUOA/6giyZx3e9P+Tc3sw9x906SVX2nxP136kyRveM3rn/mdOX9QJhok9TOzHn9jjYWIPE/v/ObHDBw2vsfqhJvawpgxryt6aMv6aawrqhMNqM6w2j7/aTIbV5ptabcLHW22GLek/25LGD5qdE3D6B1oYhtVwWA2H1VCkk+9tNUSd8bBODuvk466T7gct3V8xtODtf7HWv9fZEbJIR0IxmLEJGyX6MvIgCXWbOXa8bBfWuvksmFlDZdpLJ5VSNsQNhTEBNtGAtOgzss5Aoa10u0wUVW54mbftQunRwWyeQVDxNAwurDeW5ZZFaHT+RDz1ICbmW/KPLrEAG/f+BnWV/Wo=
