;FLAVOR:UltiGCode
; TIME:400
;MATERIAL:160
; MATERIAL2: 0
;NOZZLE_DIAMETER:0.400000
;NOZZLE_DIAMETER2:  0.400000
;Layer count: 98
;LAYER: 0
M107
G0  F600 Z0.3
;INSOLE EDGES
G1 X 0117.96 Y 0089.16 E 0863.98
 G1 X 0132.16 Y 0045.47 E 0865.04
G1 X 0117.96 Y 0089.16 E 0875.15
 G1 X 0089.84 Y 0137.42 E 0876.21
G1 X 0132.23 Y 0150.06 E 0887.66
 G1 X 0117.96 Y 0089.16 E 0888.72
;CONTOUR EDGES
G1 X 0128.99 Y 0161.79 E 0887.66
 G1 X 0128.99 Y 0161.79 E 0888.72
G1 X 0128.99 Y 0161.79 E 0890.95
 G1 X 0114.50 Y 0153.99 E 0892.01
G1 X 0114.50 Y 0153.99 E 0894.87
 G1 X 0097.70 Y 0143.88 E 0895.93
G1 X 0097.70 Y 0143.88 E 0899.56
 G1 X 0079.58 Y 0128.97 E 0900.62
G1 X 0079.58 Y 0128.97 E 0903.65
 G1 X 0065.38 Y 0114.30 E 0904.71
G1 X 0065.38 Y 0114.30 E 0907.28
 G1 X 0054.80 Y 0099.56 E 0908.33
G1 X 0054.80 Y 0099.56 E 0911.75
 G1 X 0045.46 Y 0079.22 E 0912.81
G1 X 0045.46 Y 0079.22 E 0916.39
 G1 X 0046.27 Y 0056.03 E 0917.45
G1 X 0046.27 Y 0056.03 E 0919.55
 G1 X 0055.47 Y 0043.23 E 0920.60
G1 X 0055.47 Y 0043.23 E 0923.54
 G1 X 0073.58 Y 0034.80 E 0924.60
G1 X 0073.58 Y 0034.80 E 0929.33
 G1 X 0102.52 Y 0035.54 E 0930.39
G1 X 0102.52 Y 0035.54 E 0934.27
 G1 X 0126.16 Y 0042.71 E 0935.33
G1 X 0126.16 Y 0042.71 E 0934.95
 G1 X 0129.29 Y 0044.04 E 0936.01
G1 X 0129.29 Y 0044.04 E 0938.26
 G1 X 0144.08 Y 0051.43 E 0939.32
G1 X 0144.08 Y 0051.43 E 0941.41
 G1 X 0156.90 Y 0060.55 E 0942.47
G1 X 0156.90 Y 0060.55 E 0962.41
 G1 X 0128.99 Y 0161.79 E 0963.47
G0  F600 Z0.6
;INSOLE EDGES
G1 X 0117.96 Y 0089.16 E 0971.60
 G1 X 0132.16 Y 0045.47 E 0972.66
G1 X 0117.96 Y 0089.16 E 0982.77
 G1 X 0089.84 Y 0137.42 E 0983.83
G1 X 0132.23 Y 0150.06 E 0995.28
 G1 X 0117.96 Y 0089.16 E 0996.33
;CONTOUR EDGES
G1 X 0128.99 Y 0161.79 E 0995.28
 G1 X 0128.99 Y 0161.79 E 0996.33
G1 X 0128.99 Y 0161.79 E 0998.57
 G1 X 0114.50 Y 0153.99 E 0999.63
G1 X 0114.50 Y 0153.99 E 1002.49
 G1 X 0097.70 Y 0143.88 E 1003.55
G1 X 0097.70 Y 0143.88 E 1007.18
 G1 X 0079.58 Y 0128.97 E 1008.24
G1 X 0079.58 Y 0128.97 E 1011.27
 G1 X 0065.38 Y 0114.30 E 1012.33
G1 X 0065.38 Y 0114.30 E 1014.90
 G1 X 0054.80 Y 0099.56 E 1015.95
G1 X 0054.80 Y 0099.56 E 1019.37
 G1 X 0045.46 Y 0079.22 E 1020.43
G1 X 0045.46 Y 0079.22 E 1024.01
 G1 X 0046.27 Y 0056.03 E 1025.07
G1 X 0046.27 Y 0056.03 E 1027.16
 G1 X 0055.47 Y 0043.23 E 1028.22
G1 X 0055.47 Y 0043.23 E 1031.16
 G1 X 0073.58 Y 0034.80 E 1032.22
G1 X 0073.58 Y 0034.80 E 1036.95
 G1 X 0102.52 Y 0035.54 E 1038.01
G1 X 0102.52 Y 0035.54 E 1041.89
 G1 X 0126.16 Y 0042.71 E 1042.95
G1 X 0126.16 Y 0042.71 E 1042.57
 G1 X 0129.29 Y 0044.04 E 1043.63
G1 X 0129.29 Y 0044.04 E 1045.88
 G1 X 0144.08 Y 0051.43 E 1046.94
G1 X 0144.08 Y 0051.43 E 1049.03
 G1 X 0156.90 Y 0060.55 E 1050.08
G1 X 0156.90 Y 0060.55 E 1070.03
 G1 X 0128.99 Y 0161.79 E 1071.09
G0  F600 Z0.90000004
;INSOLE EDGES
G1 X 0117.96 Y 0089.16 E 1079.22
 G1 X 0132.16 Y 0045.47 E 1080.28
G1 X 0117.96 Y 0089.16 E 1090.39
 G1 X 0089.84 Y 0137.42 E 1091.45
G1 X 0132.23 Y 0150.06 E 1102.90
 G1 X 0117.96 Y 0089.16 E 1103.95
;CONTOUR EDGES
G1 X 0128.99 Y 0161.79 E 1102.90
 G1 X 0128.99 Y 0161.79 E 1103.95
G1 X 0128.99 Y 0161.79 E 1106.19
 G1 X 0114.50 Y 0153.99 E 1107.25
G1 X 0114.50 Y 0153.99 E 1110.11
 G1 X 0097.70 Y 0143.88 E 1111.17
G1 X 0097.70 Y 0143.88 E 1114.80
 G1 X 0079.58 Y 0128.97 E 1115.86
G1 X 0079.58 Y 0128.97 E 1118.89
 G1 X 0065.38 Y 0114.30 E 1119.94
G1 X 0065.38 Y 0114.30 E 1122.51
 G1 X 0054.80 Y 0099.56 E 1123.57
G1 X 0054.80 Y 0099.56 E 1126.99
 G1 X 0045.46 Y 0079.22 E 1128.05
G1 X 0045.46 Y 0079.22 E 1131.63
 G1 X 0046.27 Y 0056.03 E 1132.69
G1 X 0046.27 Y 0056.03 E 1134.78
 G1 X 0055.47 Y 0043.23 E 1135.84
G1 X 0055.47 Y 0043.23 E 1138.78
 G1 X 0073.58 Y 0034.80 E 1139.84
G1 X 0073.58 Y 0034.80 E 1144.57
 G1 X 0102.52 Y 0035.54 E 1145.63
G1 X 0102.52 Y 0035.54 E 1149.51
 G1 X 0126.16 Y 0042.71 E 1150.57
G1 X 0126.16 Y 0042.71 E 1150.19
 G1 X 0129.29 Y 0044.04 E 1151.25
G1 X 0129.29 Y 0044.04 E 1153.50
 G1 X 0144.08 Y 0051.43 E 1154.56
G1 X 0144.08 Y 0051.43 E 1156.65
 G1 X 0156.90 Y 0060.55 E 1157.70
G1 X 0156.90 Y 0060.55 E 1177.65
 G1 X 0128.99 Y 0161.79 E 1178.71
G0  F600 Z1.2
;INSOLE EDGES
G1 X 0117.96 Y 0089.16 E 1186.84
 G1 X 0132.16 Y 0045.47 E 1187.90
G1 X 0117.96 Y 0089.16 E 1198.01
 G1 X 0089.84 Y 0137.42 E 1199.06
G1 X 0132.23 Y 0150.06 E 1210.51
 G1 X 0117.96 Y 0089.16 E 1211.57
;CONTOUR EDGES
G1 X 0128.99 Y 0161.79 E 1210.51
 G1 X 0128.99 Y 0161.79 E 1211.57
G1 X 0128.99 Y 0161.79 E 1213.81
 G1 X 0114.50 Y 0153.99 E 1214.87
G1 X 0114.50 Y 0153.99 E 1217.73
 G1 X 0097.70 Y 0143.88 E 1218.79
G1 X 0097.70 Y 0143.88 E 1222.42
 G1 X 0079.58 Y 0128.97 E 1223.48
G1 X 0079.58 Y 0128.97 E 1226.51
 G1 X 0065.38 Y 0114.30 E 1227.56
G1 X 0065.38 Y 0114.30 E 1230.13
 G1 X 0054.80 Y 0099.56 E 1231.19
G1 X 0054.80 Y 0099.56 E 1234.61
 G1 X 0045.46 Y 0079.22 E 1235.67
G1 X 0045.46 Y 0079.22 E 1239.25
 G1 X 0046.27 Y 0056.03 E 1240.31
G1 X 0046.27 Y 0056.03 E 1242.40
 G1 X 0055.47 Y 0043.23 E 1243.46
G1 X 0055.47 Y 0043.23 E 1246.40
 G1 X 0073.58 Y 0034.80 E 1247.46
G1 X 0073.58 Y 0034.80 E 1252.19
 G1 X 0102.52 Y 0035.54 E 1253.25
G1 X 0102.52 Y 0035.54 E 1257.13
 G1 X 0126.16 Y 0042.71 E 1258.19
G1 X 0126.16 Y 0042.71 E 1257.81
 G1 X 0129.29 Y 0044.04 E 1258.87
G1 X 0129.29 Y 0044.04 E 1261.12
 G1 X 0144.08 Y 0051.43 E 1262.18
G1 X 0144.08 Y 0051.43 E 1264.26
 G1 X 0156.90 Y 0060.55 E 1265.32
G1 X 0156.90 Y 0060.55 E 1285.27
 G1 X 0128.99 Y 0161.79 E 1286.33
G0  F600 Z1.5
;INSOLE EDGES
G1 X 0117.96 Y 0089.16 E 1294.46
 G1 X 0132.16 Y 0045.47 E 1295.51
G1 X 0117.96 Y 0089.16 E 1305.63
 G1 X 0089.84 Y 0137.42 E 1306.68
G1 X 0132.23 Y 0150.06 E 1318.13
 G1 X 0117.96 Y 0089.16 E 1319.19
;CONTOUR EDGES
G1 X 0128.99 Y 0161.79 E 1318.13
 G1 X 0128.99 Y 0161.79 E 1319.19
G1 X 0128.99 Y 0161.79 E 1321.43
 G1 X 0114.50 Y 0153.99 E 1322.49
G1 X 0114.50 Y 0153.99 E 1325.35
 G1 X 0097.70 Y 0143.88 E 1326.41
G1 X 0097.70 Y 0143.88 E 1330.04
 G1 X 0079.58 Y 0128.97 E 1331.10
G1 X 0079.58 Y 0128.97 E 1334.12
 G1 X 0065.38 Y 0114.30 E 1335.18
G1 X 0065.38 Y 0114.30 E 1337.75
 G1 X 0054.80 Y 0099.56 E 1338.81
G1 X 0054.80 Y 0099.56 E 1342.23
 G1 X 0045.46 Y 0079.22 E 1343.29
G1 X 0045.46 Y 0079.22 E 1346.87
 G1 X 0046.27 Y 0056.03 E 1347.93
G1 X 0046.27 Y 0056.03 E 1350.02
 G1 X 0055.47 Y 0043.23 E 1351.08
G1 X 0055.47 Y 0043.23 E 1354.02
 G1 X 0073.58 Y 0034.80 E 1355.08
G1 X 0073.58 Y 0034.80 E 1359.81
 G1 X 0102.52 Y 0035.54 E 1360.87
G1 X 0102.52 Y 0035.54 E 1364.75
 G1 X 0126.16 Y 0042.71 E 1365.81
G1 X 0126.16 Y 0042.71 E 1365.43
 G1 X 0129.29 Y 0044.04 E 1366.49
G1 X 0129.29 Y 0044.04 E 1368.74
 G1 X 0144.08 Y 0051.43 E 1369.79
G1 X 0144.08 Y 0051.43 E 1371.88
 G1 X 0156.90 Y 0060.55 E 1372.94
G1 X 0156.90 Y 0060.55 E 1392.89
 G1 X 0128.99 Y 0161.79 E 1393.95
G0  F600 Z1.8
M107
G10
G0 F9000 X110.000 Y126.900 Z15.000
M25 ;Stop reading from this point on.
;CURA_PROFILE_STRING:eNrtWt1v2zYQfxWC/RF8bLHGk2S7aWvoYe2SvqRDgXhYmxeBlmiLi0QKJBXHCfy/746iFNlRunQN1o/JDw70093xePe7j6LO6YapOGN8lZnIHwXemuZ5bDKeXAimNUATTzGjaGK4FDETdJGzaK4q5mmZ8zTOrYGuwnNvycFGyoTmZhOFvlcqLkysS8bSaNo8GlaUTFFTKRaFQQ8aRj3guA+c9IHTFlywdOe0I9/TVVlKZaK5rJKMixVZVDxPy5wa5uH3UqoipmnGNNw6+l0K1qjEaUXzmF0ZVdl3r6XJvDUvWWzkmqnohOaadYD4UuZVwaJg6kl5zWKdcZanTgwCRQsGLqYc/hpQD0cvpndhDMUdcNwHTvrAaRdc5nIdBb4/8j0hr69zcIlfs/1E18maoFQHpYWshIkmo2kXtRFxr4Lnu+8KLmJ4uGR5FOy+SWSxgMhHv+b5ngIvdiIMPoRdiUyWiHkLaYwsdqg39iwd/XjNU5PFS9CQCi/rycVfLAEOcnEBwZCXTOW0tJ4j66de7aO7djDt2K8JXr8ALnNh2V0/o5gtA6oY7WBcaGb8feCqAyRS5jY4rn44UAQST5sSS12NXXCgXM4Fg3jZ+DpoRctojKfbpyZoORMrkzn/0diyAl9ddU8d5u7od57igl5ZpHVrCSiUC/DWgRmjUOx8aRx16+o3kIvucx2zW3bnsQs18h8KkFs+QkVCgbG4jmVjwNWX2ZQsOoUb6xaiYgVN53lbtrG1XLs3bcGrDRBeGyoSZPNRi193YZQvuaI5ct4dzIsSqqCQqWtsC3CzG3PIuqJLiDJVKy5sHO2zFdElTZDG4wZdUM32SHmLo4rlJlSDk4cOxRQwdVcpPNp/e6tqSxVfUq6ABzF0bMupDoYWwhrQldNHouloD+07s9XYOXHJr6D0lOLAzrgSth3gqIB0xbQO3KdEFi0pujIQElkyES+40X0C0AVwjFxCnA03tlU7sTKvIBmQIeDQKmrqO2EYr/gqOgz2oA1APwENlBmtEkz17CznCUsJNa/ITUo3W/w2DP5gMW4PZq+p5gmBujVwqn5FTjGApC4mUMk7k3NL/oSLgszN7vjckhNgKsDdiQim3+NcIngOvHOTqz70xLVpAqFJa8W6bdf9dVt0oHV99qqjlUhtulr4DFbfBS99cnbTOw63ZPaHgGZs9Y0kNE3JRlaKyLUgIEs6sgQpgeb8l625h5q6Y+ZtGBD3mUFbUBDsS5pXTB+8BW+bN3QBnaUyjJQSggeUgmQcvHsRtgKQIGKHRQrZwUMbBSzoA3D1qJXE7JM1NxkxGSPQ/YhcLsGPF+SDTz766Ae0K/Lhl49oCNogYSLV0OO0FTr3nbModH5XJCDnATQHcnLTnSZbp4BHNqsFSTEiwbQo4K4hOW6ve/uZXTMlrZK7XErq7o7nnIS+T47HexpOkIyLAi5GsIUTcC25+PxDCF1RLuxRu5cB7laG2Mzj2lQAyemKESnI6ZvfiE4UYwKCHhyR905mNBp5EKOm6o5FSt6+camZkLMerzp3wXqDolQ2Ue+CiX+vgpVLLWFvVcgTvkQGkgyuQLh5CpEIyAM+M8UgVdB3dmgH4Tg+hJCMff8flO2yUrOsKU1KoMmRevIRHKQYP5Sot7BnyCc4lcGYIFoWDFNoOaMgxlA0ll8/+6Mp+DAlHw5DoCx+9bPtnFSlO5JCxBuPWm/YJRNQIWj2lv6fvNR9pfEMvLWO4oZAuCYSCOJ8X9MN1OrkfqPasBK6gq4L8eX9PvT3gRn0IAl3wvEAdFttPVvj4dDiH6HFT768xdeTYh70WQr/lSn/686db32azO/pbrOzNa5PeApqhtASmg77JRMo8PsnUOA/6giyZx3e9P+Tc3sw9x906SVX2nxP136kyRveM3rn/mdOX9QJhok9TOzHn9jjYWIPE/v/ObHDBw2vsfqhJvawpgxryt6aMv6aawrqhMNqM6w2j7/aTIbV5ptabcLHW22GLek/25LGD5qdE3D6B1oYhtVwWA2H1VCkk+9tNUSd8bBODuvk466T7gct3V8xtODtf7HWv9fZEbJIR0IxmLEJGyX6MvIgCXWbOXa8bBfWuvksmFlDZdpLJ5VSNsQNhTEBNtGAtOgzss5Aoa10u0wUVW54mbftQunRwWyeQVDxNAwurDeW5ZZFaHT+RDz1ICbmW/KPLrEAG/f+BnWV/Wo=
