;FLAVOR:UltiGCode
; TIME:400
;MATERIAL:160
; MATERIAL2: 0
;NOZZLE_DIAMETER:0.400000
;NOZZLE_DIAMETER2:  0.400000
;Layer count: 98
;LAYER: 0
M107
G0  F600 Z0.3
;INSOLE EDGES
G1 X 0087.40 Y 0078.08 E 0785.69
 G1 X 0085.54 Y 0033.62 E 0786.74
G1 X 0043.98 Y 0059.47 E 0795.14
 G1 X 0087.40 Y 0078.08 E 0796.19
G1 X 0088.91 Y 0084.70 E 0802.30
 G1 X 0061.18 Y 0107.40 E 0803.36
G1 X 0088.95 Y 0082.58 E 0803.25
 G1 X 0087.40 Y 0078.08 E 0804.31
G1 X 0088.95 Y 0082.58 E 0803.68
 G1 X 0088.91 Y 0084.70 E 0804.74
G1 X 0139.32 Y 0050.34 E 0815.64
 G1 X 0088.95 Y 0082.58 E 0816.70
G1 X 0108.78 Y 0097.71 E 0824.60
 G1 X 0100.48 Y 0141.73 E 0825.66
G1 X 0108.78 Y 0097.71 E 0829.35
 G1 X 0088.91 Y 0084.70 E 0830.41
G1 X 0108.78 Y 0097.71 E 0835.30
 G1 X 0138.52 Y 0098.89 E 0836.36
;CONTOUR EDGES
G1 X 0123.19 Y 0154.51 E 0835.30
 G1 X 0123.19 Y 0154.51 E 0836.36
G1 X 0123.19 Y 0154.51 E 0838.45
 G1 X 0109.34 Y 0147.06 E 0839.51
G1 X 0109.34 Y 0147.06 E 0842.19
 G1 X 0093.30 Y 0137.40 E 0843.25
G1 X 0093.30 Y 0137.40 E 0846.67
 G1 X 0076.00 Y 0123.17 E 0847.73
G1 X 0076.00 Y 0123.17 E 0850.57
 G1 X 0062.44 Y 0109.15 E 0851.63
G1 X 0062.44 Y 0109.15 E 0854.04
 G1 X 0052.34 Y 0095.08 E 0855.10
G1 X 0052.34 Y 0095.08 E 0858.31
 G1 X 0043.41 Y 0075.65 E 0859.37
G1 X 0043.41 Y 0075.65 E 0862.75
 G1 X 0044.19 Y 0053.51 E 0863.80
G1 X 0044.19 Y 0053.51 E 0865.76
 G1 X 0052.97 Y 0041.29 E 0866.81
G1 X 0052.97 Y 0041.29 E 0869.57
 G1 X 0070.27 Y 0033.24 E 0870.63
G1 X 0070.27 Y 0033.24 E 0875.10
 G1 X 0097.91 Y 0033.94 E 0876.16
G1 X 0097.91 Y 0033.94 E 0879.82
 G1 X 0120.48 Y 0040.79 E 0880.88
G1 X 0120.48 Y 0040.79 E 0880.47
 G1 X 0123.47 Y 0042.06 E 0881.53
G1 X 0123.47 Y 0042.06 E 0883.63
 G1 X 0137.60 Y 0049.11 E 0884.69
G1 X 0137.60 Y 0049.11 E 0886.63
 G1 X 0149.84 Y 0057.83 E 0887.69
G1 X 0149.84 Y 0057.83 E 0906.69
 G1 X 0123.19 Y 0154.51 E 0907.75
G0  F600 Z0.6
;INSOLE EDGES
G1 X 0087.40 Y 0078.08 E 0915.59
 G1 X 0085.54 Y 0033.62 E 0916.65
G1 X 0043.98 Y 0059.47 E 0925.04
 G1 X 0087.40 Y 0078.08 E 0926.10
G1 X 0088.91 Y 0084.70 E 0932.21
 G1 X 0061.18 Y 0107.40 E 0933.26
G1 X 0088.95 Y 0082.58 E 0933.16
 G1 X 0087.40 Y 0078.08 E 0934.22
G1 X 0088.95 Y 0082.58 E 0933.58
 G1 X 0088.91 Y 0084.70 E 0934.64
G1 X 0139.32 Y 0050.34 E 0945.54
 G1 X 0088.95 Y 0082.58 E 0946.60
G1 X 0108.78 Y 0097.71 E 0954.50
 G1 X 0100.48 Y 0141.73 E 0955.56
G1 X 0108.78 Y 0097.71 E 0959.25
 G1 X 0088.91 Y 0084.70 E 0960.31
G1 X 0108.78 Y 0097.71 E 0965.21
 G1 X 0138.52 Y 0098.89 E 0966.26
;CONTOUR EDGES
G1 X 0123.19 Y 0154.51 E 0965.21
 G1 X 0123.19 Y 0154.51 E 0966.26
G1 X 0123.19 Y 0154.51 E 0968.35
 G1 X 0109.34 Y 0147.06 E 0969.41
G1 X 0109.34 Y 0147.06 E 0972.10
 G1 X 0093.30 Y 0137.40 E 0973.15
G1 X 0093.30 Y 0137.40 E 0976.58
 G1 X 0076.00 Y 0123.17 E 0977.63
G1 X 0076.00 Y 0123.17 E 0980.48
 G1 X 0062.44 Y 0109.15 E 0981.53
G1 X 0062.44 Y 0109.15 E 0983.94
 G1 X 0052.34 Y 0095.08 E 0985.00
G1 X 0052.34 Y 0095.08 E 0988.22
 G1 X 0043.41 Y 0075.65 E 0989.28
G1 X 0043.41 Y 0075.65 E 0992.65
 G1 X 0044.19 Y 0053.51 E 0993.71
G1 X 0044.19 Y 0053.51 E 0995.66
 G1 X 0052.97 Y 0041.29 E 0996.72
G1 X 0052.97 Y 0041.29 E 0999.47
 G1 X 0070.27 Y 0033.24 E 1000.53
G1 X 0070.27 Y 0033.24 E 1005.00
 G1 X 0097.91 Y 0033.94 E 1006.06
G1 X 0097.91 Y 0033.94 E 1009.72
 G1 X 0120.48 Y 0040.79 E 1010.78
G1 X 0120.48 Y 0040.79 E 1010.37
 G1 X 0123.47 Y 0042.06 E 1011.43
G1 X 0123.47 Y 0042.06 E 1013.53
 G1 X 0137.60 Y 0049.11 E 1014.59
G1 X 0137.60 Y 0049.11 E 1016.54
 G1 X 0149.84 Y 0057.83 E 1017.59
G1 X 0149.84 Y 0057.83 E 1036.59
 G1 X 0123.19 Y 0154.51 E 1037.65
G0  F600 Z0.90000004
;INSOLE EDGES
G1 X 0087.40 Y 0078.08 E 1045.49
 G1 X 0085.54 Y 0033.62 E 1046.55
G1 X 0043.98 Y 0059.47 E 1054.94
 G1 X 0087.40 Y 0078.08 E 1056.00
G1 X 0088.91 Y 0084.70 E 1062.11
 G1 X 0061.18 Y 0107.40 E 1063.17
G1 X 0088.95 Y 0082.58 E 1063.06
 G1 X 0087.40 Y 0078.08 E 1064.12
G1 X 0088.95 Y 0082.58 E 1063.48
 G1 X 0088.91 Y 0084.70 E 1064.54
G1 X 0139.32 Y 0050.34 E 1075.45
 G1 X 0088.95 Y 0082.58 E 1076.50
G1 X 0108.78 Y 0097.71 E 1084.40
 G1 X 0100.48 Y 0141.73 E 1085.46
G1 X 0108.78 Y 0097.71 E 1089.15
 G1 X 0088.91 Y 0084.70 E 1090.21
G1 X 0108.78 Y 0097.71 E 1095.11
 G1 X 0138.52 Y 0098.89 E 1096.17
;CONTOUR EDGES
G1 X 0123.19 Y 0154.51 E 1095.11
 G1 X 0123.19 Y 0154.51 E 1096.17
G1 X 0123.19 Y 0154.51 E 1098.25
 G1 X 0109.34 Y 0147.06 E 1099.31
G1 X 0109.34 Y 0147.06 E 1102.00
 G1 X 0093.30 Y 0137.40 E 1103.06
G1 X 0093.30 Y 0137.40 E 1106.48
 G1 X 0076.00 Y 0123.17 E 1107.54
G1 X 0076.00 Y 0123.17 E 1110.38
 G1 X 0062.44 Y 0109.15 E 1111.44
G1 X 0062.44 Y 0109.15 E 1113.84
 G1 X 0052.34 Y 0095.08 E 1114.90
G1 X 0052.34 Y 0095.08 E 1118.12
 G1 X 0043.41 Y 0075.65 E 1119.18
G1 X 0043.41 Y 0075.65 E 1122.55
 G1 X 0044.19 Y 0053.51 E 1123.61
G1 X 0044.19 Y 0053.51 E 1125.56
 G1 X 0052.97 Y 0041.29 E 1126.62
G1 X 0052.97 Y 0041.29 E 1129.38
 G1 X 0070.27 Y 0033.24 E 1130.44
G1 X 0070.27 Y 0033.24 E 1134.91
 G1 X 0097.91 Y 0033.94 E 1135.97
G1 X 0097.91 Y 0033.94 E 1139.63
 G1 X 0120.48 Y 0040.79 E 1140.68
G1 X 0120.48 Y 0040.79 E 1140.28
 G1 X 0123.47 Y 0042.06 E 1141.33
G1 X 0123.47 Y 0042.06 E 1143.43
 G1 X 0137.60 Y 0049.11 E 1144.49
G1 X 0137.60 Y 0049.11 E 1146.44
 G1 X 0149.84 Y 0057.83 E 1147.50
G1 X 0149.84 Y 0057.83 E 1166.50
 G1 X 0123.19 Y 0154.51 E 1167.56
G0  F600 Z1.2
;INSOLE EDGES
G1 X 0087.40 Y 0078.08 E 1175.40
 G1 X 0085.54 Y 0033.62 E 1176.45
G1 X 0043.98 Y 0059.47 E 1184.85
 G1 X 0087.40 Y 0078.08 E 1185.90
G1 X 0088.91 Y 0084.70 E 1192.01
 G1 X 0061.18 Y 0107.40 E 1193.07
G1 X 0088.95 Y 0082.58 E 1192.96
 G1 X 0087.40 Y 0078.08 E 1194.02
G1 X 0088.95 Y 0082.58 E 1193.39
 G1 X 0088.91 Y 0084.70 E 1194.45
G1 X 0139.32 Y 0050.34 E 1205.35
 G1 X 0088.95 Y 0082.58 E 1206.41
G1 X 0108.78 Y 0097.71 E 1214.31
 G1 X 0100.48 Y 0141.73 E 1215.37
G1 X 0108.78 Y 0097.71 E 1219.06
 G1 X 0088.91 Y 0084.70 E 1220.12
G1 X 0108.78 Y 0097.71 E 1225.01
 G1 X 0138.52 Y 0098.89 E 1226.07
;CONTOUR EDGES
G1 X 0123.19 Y 0154.51 E 1225.01
 G1 X 0123.19 Y 0154.51 E 1226.07
G1 X 0123.19 Y 0154.51 E 1228.16
 G1 X 0109.34 Y 0147.06 E 1229.21
G1 X 0109.34 Y 0147.06 E 1231.90
 G1 X 0093.30 Y 0137.40 E 1232.96
G1 X 0093.30 Y 0137.40 E 1236.38
 G1 X 0076.00 Y 0123.17 E 1237.44
G1 X 0076.00 Y 0123.17 E 1240.28
 G1 X 0062.44 Y 0109.15 E 1241.34
G1 X 0062.44 Y 0109.15 E 1243.75
 G1 X 0052.34 Y 0095.08 E 1244.81
G1 X 0052.34 Y 0095.08 E 1248.02
 G1 X 0043.41 Y 0075.65 E 1249.08
G1 X 0043.41 Y 0075.65 E 1252.45
 G1 X 0044.19 Y 0053.51 E 1253.51
G1 X 0044.19 Y 0053.51 E 1255.46
 G1 X 0052.97 Y 0041.29 E 1256.52
G1 X 0052.97 Y 0041.29 E 1259.28
 G1 X 0070.27 Y 0033.24 E 1260.34
G1 X 0070.27 Y 0033.24 E 1264.81
 G1 X 0097.91 Y 0033.94 E 1265.87
G1 X 0097.91 Y 0033.94 E 1269.53
 G1 X 0120.48 Y 0040.79 E 1270.59
G1 X 0120.48 Y 0040.79 E 1270.18
 G1 X 0123.47 Y 0042.06 E 1271.24
G1 X 0123.47 Y 0042.06 E 1273.34
 G1 X 0137.60 Y 0049.11 E 1274.39
G1 X 0137.60 Y 0049.11 E 1276.34
 G1 X 0149.84 Y 0057.83 E 1277.40
G1 X 0149.84 Y 0057.83 E 1296.40
 G1 X 0123.19 Y 0154.51 E 1297.46
G0  F600 Z1.5
;INSOLE EDGES
G1 X 0087.40 Y 0078.08 E 1305.30
 G1 X 0085.54 Y 0033.62 E 1306.36
G1 X 0043.98 Y 0059.47 E 1314.75
 G1 X 0087.40 Y 0078.08 E 1315.81
G1 X 0088.91 Y 0084.70 E 1321.92
 G1 X 0061.18 Y 0107.40 E 1322.97
G1 X 0088.95 Y 0082.58 E 1322.87
 G1 X 0087.40 Y 0078.08 E 1323.92
G1 X 0088.95 Y 0082.58 E 1323.29
 G1 X 0088.91 Y 0084.70 E 1324.35
G1 X 0139.32 Y 0050.34 E 1335.25
 G1 X 0088.95 Y 0082.58 E 1336.31
G1 X 0108.78 Y 0097.71 E 1344.21
 G1 X 0100.48 Y 0141.73 E 1345.27
G1 X 0108.78 Y 0097.71 E 1348.96
 G1 X 0088.91 Y 0084.70 E 1350.02
G1 X 0108.78 Y 0097.71 E 1354.91
 G1 X 0138.52 Y 0098.89 E 1355.97
;CONTOUR EDGES
G1 X 0123.19 Y 0154.51 E 1354.91
 G1 X 0123.19 Y 0154.51 E 1355.97
G1 X 0123.19 Y 0154.51 E 1358.06
 G1 X 0109.34 Y 0147.06 E 1359.12
G1 X 0109.34 Y 0147.06 E 1361.80
 G1 X 0093.30 Y 0137.40 E 1362.86
G1 X 0093.30 Y 0137.40 E 1366.29
 G1 X 0076.00 Y 0123.17 E 1367.34
G1 X 0076.00 Y 0123.17 E 1370.19
 G1 X 0062.44 Y 0109.15 E 1371.24
G1 X 0062.44 Y 0109.15 E 1373.65
 G1 X 0052.34 Y 0095.08 E 1374.71
G1 X 0052.34 Y 0095.08 E 1377.93
 G1 X 0043.41 Y 0075.65 E 1378.98
G1 X 0043.41 Y 0075.65 E 1382.36
 G1 X 0044.19 Y 0053.51 E 1383.42
G1 X 0044.19 Y 0053.51 E 1385.37
 G1 X 0052.97 Y 0041.29 E 1386.43
G1 X 0052.97 Y 0041.29 E 1389.18
 G1 X 0070.27 Y 0033.24 E 1390.24
G1 X 0070.27 Y 0033.24 E 1394.71
 G1 X 0097.91 Y 0033.94 E 1395.77
G1 X 0097.91 Y 0033.94 E 1399.43
 G1 X 0120.48 Y 0040.79 E 1400.49
G1 X 0120.48 Y 0040.79 E 1400.08
 G1 X 0123.47 Y 0042.06 E 1401.14
G1 X 0123.47 Y 0042.06 E 1403.24
 G1 X 0137.60 Y 0049.11 E 1404.30
G1 X 0137.60 Y 0049.11 E 1406.24
 G1 X 0149.84 Y 0057.83 E 1407.30
G1 X 0149.84 Y 0057.83 E 1426.30
 G1 X 0123.19 Y 0154.51 E 1427.36
G0  F600 Z1.8
M107
G10
G0 F9000 X110.000 Y126.900 Z15.000
M25 ;Stop reading from this point on.
;CURA_PROFILE_STRING:eNrtWt1v2zYQfxWC/RF8bLHGk2S7aWvoYe2SvqRDgXhYmxeBlmiLi0QKJBXHCfy/746iFNlRunQN1o/JDw70093xePe7j6LO6YapOGN8lZnIHwXemuZ5bDKeXAimNUATTzGjaGK4FDETdJGzaK4q5mmZ8zTOrYGuwnNvycFGyoTmZhOFvlcqLkysS8bSaNo8GlaUTFFTKRaFQQ8aRj3guA+c9IHTFlywdOe0I9/TVVlKZaK5rJKMixVZVDxPy5wa5uH3UqoipmnGNNw6+l0K1qjEaUXzmF0ZVdl3r6XJvDUvWWzkmqnohOaadYD4UuZVwaJg6kl5zWKdcZanTgwCRQsGLqYc/hpQD0cvpndhDMUdcNwHTvrAaRdc5nIdBb4/8j0hr69zcIlfs/1E18maoFQHpYWshIkmo2kXtRFxr4Lnu+8KLmJ4uGR5FOy+SWSxgMhHv+b5ngIvdiIMPoRdiUyWiHkLaYwsdqg39iwd/XjNU5PFS9CQCi/rycVfLAEOcnEBwZCXTOW0tJ4j66de7aO7djDt2K8JXr8ALnNh2V0/o5gtA6oY7WBcaGb8feCqAyRS5jY4rn44UAQST5sSS12NXXCgXM4Fg3jZ+DpoRctojKfbpyZoORMrkzn/0diyAl9ddU8d5u7od57igl5ZpHVrCSiUC/DWgRmjUOx8aRx16+o3kIvucx2zW3bnsQs18h8KkFs+QkVCgbG4jmVjwNWX2ZQsOoUb6xaiYgVN53lbtrG1XLs3bcGrDRBeGyoSZPNRi193YZQvuaI5ct4dzIsSqqCQqWtsC3CzG3PIuqJLiDJVKy5sHO2zFdElTZDG4wZdUM32SHmLo4rlJlSDk4cOxRQwdVcpPNp/e6tqSxVfUq6ABzF0bMupDoYWwhrQldNHouloD+07s9XYOXHJr6D0lOLAzrgSth3gqIB0xbQO3KdEFi0pujIQElkyES+40X0C0AVwjFxCnA03tlU7sTKvIBmQIeDQKmrqO2EYr/gqOgz2oA1APwENlBmtEkz17CznCUsJNa/ITUo3W/w2DP5gMW4PZq+p5gmBujVwqn5FTjGApC4mUMk7k3NL/oSLgszN7vjckhNgKsDdiQim3+NcIngOvHOTqz70xLVpAqFJa8W6bdf9dVt0oHV99qqjlUhtulr4DFbfBS99cnbTOw63ZPaHgGZs9Y0kNE3JRlaKyLUgIEs6sgQpgeb8l625h5q6Y+ZtGBD3mUFbUBDsS5pXTB+8BW+bN3QBnaUyjJQSggeUgmQcvHsRtgKQIGKHRQrZwUMbBSzoA3D1qJXE7JM1NxkxGSPQ/YhcLsGPF+SDTz766Ae0K/Lhl49oCNogYSLV0OO0FTr3nbModH5XJCDnATQHcnLTnSZbp4BHNqsFSTEiwbQo4K4hOW6ve/uZXTMlrZK7XErq7o7nnIS+T47HexpOkIyLAi5GsIUTcC25+PxDCF1RLuxRu5cB7laG2Mzj2lQAyemKESnI6ZvfiE4UYwKCHhyR905mNBp5EKOm6o5FSt6+camZkLMerzp3wXqDolQ2Ue+CiX+vgpVLLWFvVcgTvkQGkgyuQLh5CpEIyAM+M8UgVdB3dmgH4Tg+hJCMff8flO2yUrOsKU1KoMmRevIRHKQYP5Sot7BnyCc4lcGYIFoWDFNoOaMgxlA0ll8/+6Mp+DAlHw5DoCx+9bPtnFSlO5JCxBuPWm/YJRNQIWj2lv6fvNR9pfEMvLWO4oZAuCYSCOJ8X9MN1OrkfqPasBK6gq4L8eX9PvT3gRn0IAl3wvEAdFttPVvj4dDiH6HFT768xdeTYh70WQr/lSn/686db32azO/pbrOzNa5PeApqhtASmg77JRMo8PsnUOA/6giyZx3e9P+Tc3sw9x906SVX2nxP136kyRveM3rn/mdOX9QJhok9TOzHn9jjYWIPE/v/ObHDBw2vsfqhJvawpgxryt6aMv6aawrqhMNqM6w2j7/aTIbV5ptabcLHW22GLek/25LGD5qdE3D6B1oYhtVwWA2H1VCkk+9tNUSd8bBODuvk466T7gct3V8xtODtf7HWv9fZEbJIR0IxmLEJGyX6MvIgCXWbOXa8bBfWuvksmFlDZdpLJ5VSNsQNhTEBNtGAtOgzss5Aoa10u0wUVW54mbftQunRwWyeQVDxNAwurDeW5ZZFaHT+RDz1ICbmW/KPLrEAG/f+BnWV/Wo=
