;FLAVOR:UltiGCode
; TIME:400
;MATERIAL:160
; MATERIAL2: 0
;NOZZLE_DIAMETER:0.400000
;NOZZLE_DIAMETER2:  0.400000
;Layer count: 98
;LAYER: 0
M107
G0  F600 Z0.3
;INSOLE EDGES
G1 X 0126.71 Y 0179.02 E 0004.31
 G1 X 0122.16 Y 0205.47 E 0005.37
G1 X 0171.03 Y 0196.75 E 0013.85
 G1 X 0126.71 Y 0179.02 E 0014.91
G1 X 0091.02 Y 0156.10 E 0021.58
 G1 X 0071.49 Y 0189.44 E 0022.64
G1 X 0086.27 Y 0143.55 E 0031.13
 G1 X 0039.09 Y 0136.24 E 0032.19
G1 X 0086.27 Y 0143.55 E 0033.81
 G1 X 0091.02 Y 0156.10 E 0034.87
G1 X 0104.45 Y 0112.34 E 0041.04
 G1 X 0086.27 Y 0143.55 E 0042.10
G1 X 0135.98 Y 0166.04 E 0049.66
 G1 X 0176.91 Y 0152.60 E 0050.71
G1 X 0135.98 Y 0166.04 E 0059.34
 G1 X 0124.92 Y 0118.87 E 0060.40
G1 X 0126.63 Y 0174.66 E 0060.22
 G1 X 0126.71 Y 0179.02 E 0061.28
G1 X 0126.63 Y 0174.66 E 0068.25
 G1 X 0091.02 Y 0156.10 E 0069.31
G1 X 0126.63 Y 0174.66 E 0070.79
 G1 X 0135.98 Y 0166.04 E 0071.85
;CONTOUR EDGES
G1 X 0012.84 Y 0060.55 E 0070.79
 G1 X 0012.84 Y 0060.55 E 0071.85
G1 X 0012.84 Y 0060.55 E 0073.80
 G1 X 0024.88 Y 0069.56 E 0074.86
G1 X 0024.88 Y 0069.56 E 0085.20
 G1 X 0071.83 Y 0101.91 E 0086.26
G1 X 0071.83 Y 0101.91 E 0096.35
 G1 X 0124.92 Y 0118.87 E 0097.41
G1 X 0124.92 Y 0118.87 E 0105.02
 G1 X 0165.68 Y 0133.63 E 0106.08
G1 X 0165.68 Y 0133.63 E 0112.46
 G1 X 0184.63 Y 0165.64 E 0113.52
G1 X 0184.63 Y 0165.64 E 0116.21
 G1 X 0180.63 Y 0183.97 E 0117.27
G1 X 0180.63 Y 0183.97 E 0121.13
 G1 X 0165.85 Y 0203.64 E 0122.19
G1 X 0165.85 Y 0203.64 E 0128.68
 G1 X 0128.31 Y 0207.40 E 0129.74
G1 X 0128.31 Y 0207.40 E 0137.34
 G1 X 0086.98 Y 0194.40 E 0138.40
G1 X 0086.98 Y 0194.40 E 0143.89
 G1 X 0055.79 Y 0184.41 E 0144.95
G1 X 0055.79 Y 0184.41 E 0143.89
 G1 X 0055.79 Y 0184.41 E 0144.95
G1 X 0055.79 Y 0184.41 E 0170.11
 G1 X 0012.84 Y 0060.55 E 0171.17
G0  F600 Z0.6
;INSOLE EDGES
G1 X 0126.71 Y 0179.02 E 0175.48
 G1 X 0122.16 Y 0205.47 E 0176.54
G1 X 0171.03 Y 0196.75 E 0185.02
 G1 X 0126.71 Y 0179.02 E 0186.08
G1 X 0091.02 Y 0156.10 E 0192.75
 G1 X 0071.49 Y 0189.44 E 0193.81
G1 X 0086.27 Y 0143.55 E 0202.30
 G1 X 0039.09 Y 0136.24 E 0203.36
G1 X 0086.27 Y 0143.55 E 0204.98
 G1 X 0091.02 Y 0156.10 E 0206.04
G1 X 0104.45 Y 0112.34 E 0212.21
 G1 X 0086.27 Y 0143.55 E 0213.27
G1 X 0135.98 Y 0166.04 E 0220.83
 G1 X 0176.91 Y 0152.60 E 0221.88
G1 X 0135.98 Y 0166.04 E 0230.51
 G1 X 0124.92 Y 0118.87 E 0231.57
G1 X 0126.63 Y 0174.66 E 0231.39
 G1 X 0126.71 Y 0179.02 E 0232.45
G1 X 0126.63 Y 0174.66 E 0239.42
 G1 X 0091.02 Y 0156.10 E 0240.48
G1 X 0126.63 Y 0174.66 E 0241.96
 G1 X 0135.98 Y 0166.04 E 0243.02
;CONTOUR EDGES
G1 X 0012.84 Y 0060.55 E 0241.96
 G1 X 0012.84 Y 0060.55 E 0243.02
G1 X 0012.84 Y 0060.55 E 0244.97
 G1 X 0024.88 Y 0069.56 E 0246.03
G1 X 0024.88 Y 0069.56 E 0256.37
 G1 X 0071.83 Y 0101.91 E 0257.43
G1 X 0071.83 Y 0101.91 E 0267.52
 G1 X 0124.92 Y 0118.87 E 0268.58
G1 X 0124.92 Y 0118.87 E 0276.19
 G1 X 0165.68 Y 0133.63 E 0277.25
G1 X 0165.68 Y 0133.63 E 0283.63
 G1 X 0184.63 Y 0165.64 E 0284.69
G1 X 0184.63 Y 0165.64 E 0287.38
 G1 X 0180.63 Y 0183.97 E 0288.44
G1 X 0180.63 Y 0183.97 E 0292.30
 G1 X 0165.85 Y 0203.64 E 0293.36
G1 X 0165.85 Y 0203.64 E 0299.85
 G1 X 0128.31 Y 0207.40 E 0300.91
G1 X 0128.31 Y 0207.40 E 0308.51
 G1 X 0086.98 Y 0194.40 E 0309.57
G1 X 0086.98 Y 0194.40 E 0315.06
 G1 X 0055.79 Y 0184.41 E 0316.12
G1 X 0055.79 Y 0184.41 E 0315.06
 G1 X 0055.79 Y 0184.41 E 0316.12
G1 X 0055.79 Y 0184.41 E 0341.28
 G1 X 0012.84 Y 0060.55 E 0342.34
G0  F600 Z0.90000004
;INSOLE EDGES
G1 X 0126.71 Y 0179.02 E 0346.65
 G1 X 0122.16 Y 0205.47 E 0347.71
G1 X 0171.03 Y 0196.75 E 0356.19
 G1 X 0126.71 Y 0179.02 E 0357.25
G1 X 0091.02 Y 0156.10 E 0363.92
 G1 X 0071.49 Y 0189.44 E 0364.98
G1 X 0086.27 Y 0143.55 E 0373.47
 G1 X 0039.09 Y 0136.24 E 0374.53
G1 X 0086.27 Y 0143.55 E 0376.15
 G1 X 0091.02 Y 0156.10 E 0377.21
G1 X 0104.45 Y 0112.34 E 0383.38
 G1 X 0086.27 Y 0143.55 E 0384.44
G1 X 0135.98 Y 0166.04 E 0392.00
 G1 X 0176.91 Y 0152.60 E 0393.05
G1 X 0135.98 Y 0166.04 E 0401.68
 G1 X 0124.92 Y 0118.87 E 0402.74
G1 X 0126.63 Y 0174.66 E 0402.56
 G1 X 0126.71 Y 0179.02 E 0403.62
G1 X 0126.63 Y 0174.66 E 0410.59
 G1 X 0091.02 Y 0156.10 E 0411.65
G1 X 0126.63 Y 0174.66 E 0413.13
 G1 X 0135.98 Y 0166.04 E 0414.19
;CONTOUR EDGES
G1 X 0012.84 Y 0060.55 E 0413.13
 G1 X 0012.84 Y 0060.55 E 0414.19
G1 X 0012.84 Y 0060.55 E 0416.14
 G1 X 0024.88 Y 0069.56 E 0417.20
G1 X 0024.88 Y 0069.56 E 0427.54
 G1 X 0071.83 Y 0101.91 E 0428.60
G1 X 0071.83 Y 0101.91 E 0438.69
 G1 X 0124.92 Y 0118.87 E 0439.75
G1 X 0124.92 Y 0118.87 E 0447.36
 G1 X 0165.68 Y 0133.63 E 0448.42
G1 X 0165.68 Y 0133.63 E 0454.80
 G1 X 0184.63 Y 0165.64 E 0455.86
G1 X 0184.63 Y 0165.64 E 0458.55
 G1 X 0180.63 Y 0183.97 E 0459.61
G1 X 0180.63 Y 0183.97 E 0463.47
 G1 X 0165.85 Y 0203.64 E 0464.53
G1 X 0165.85 Y 0203.64 E 0471.02
 G1 X 0128.31 Y 0207.40 E 0472.08
G1 X 0128.31 Y 0207.40 E 0479.68
 G1 X 0086.98 Y 0194.40 E 0480.74
G1 X 0086.98 Y 0194.40 E 0486.23
 G1 X 0055.79 Y 0184.41 E 0487.29
G1 X 0055.79 Y 0184.41 E 0486.23
 G1 X 0055.79 Y 0184.41 E 0487.29
G1 X 0055.79 Y 0184.41 E 0512.45
 G1 X 0012.84 Y 0060.55 E 0513.51
G0  F600 Z1.2
;INSOLE EDGES
G1 X 0126.71 Y 0179.02 E 0517.82
 G1 X 0122.16 Y 0205.47 E 0518.88
G1 X 0171.03 Y 0196.75 E 0527.36
 G1 X 0126.71 Y 0179.02 E 0528.42
G1 X 0091.02 Y 0156.10 E 0535.09
 G1 X 0071.49 Y 0189.44 E 0536.15
G1 X 0086.27 Y 0143.55 E 0544.64
 G1 X 0039.09 Y 0136.24 E 0545.70
G1 X 0086.27 Y 0143.55 E 0547.32
 G1 X 0091.02 Y 0156.10 E 0548.38
G1 X 0104.45 Y 0112.34 E 0554.55
 G1 X 0086.27 Y 0143.55 E 0555.61
G1 X 0135.98 Y 0166.04 E 0563.17
 G1 X 0176.91 Y 0152.60 E 0564.22
G1 X 0135.98 Y 0166.04 E 0572.85
 G1 X 0124.92 Y 0118.87 E 0573.91
G1 X 0126.63 Y 0174.66 E 0573.73
 G1 X 0126.71 Y 0179.02 E 0574.79
G1 X 0126.63 Y 0174.66 E 0581.76
 G1 X 0091.02 Y 0156.10 E 0582.82
G1 X 0126.63 Y 0174.66 E 0584.30
 G1 X 0135.98 Y 0166.04 E 0585.36
;CONTOUR EDGES
G1 X 0012.84 Y 0060.55 E 0584.30
 G1 X 0012.84 Y 0060.55 E 0585.36
G1 X 0012.84 Y 0060.55 E 0587.31
 G1 X 0024.88 Y 0069.56 E 0588.37
G1 X 0024.88 Y 0069.56 E 0598.71
 G1 X 0071.83 Y 0101.91 E 0599.77
G1 X 0071.83 Y 0101.91 E 0609.86
 G1 X 0124.92 Y 0118.87 E 0610.92
G1 X 0124.92 Y 0118.87 E 0618.53
 G1 X 0165.68 Y 0133.63 E 0619.59
G1 X 0165.68 Y 0133.63 E 0625.97
 G1 X 0184.63 Y 0165.64 E 0627.03
G1 X 0184.63 Y 0165.64 E 0629.72
 G1 X 0180.63 Y 0183.97 E 0630.78
G1 X 0180.63 Y 0183.97 E 0634.64
 G1 X 0165.85 Y 0203.64 E 0635.70
G1 X 0165.85 Y 0203.64 E 0642.19
 G1 X 0128.31 Y 0207.40 E 0643.25
G1 X 0128.31 Y 0207.40 E 0650.85
 G1 X 0086.98 Y 0194.40 E 0651.91
G1 X 0086.98 Y 0194.40 E 0657.40
 G1 X 0055.79 Y 0184.41 E 0658.46
G1 X 0055.79 Y 0184.41 E 0657.40
 G1 X 0055.79 Y 0184.41 E 0658.46
G1 X 0055.79 Y 0184.41 E 0683.62
 G1 X 0012.84 Y 0060.55 E 0684.68
G0  F600 Z1.5
;INSOLE EDGES
G1 X 0126.71 Y 0179.02 E 0688.99
 G1 X 0122.16 Y 0205.47 E 0690.05
G1 X 0171.03 Y 0196.75 E 0698.53
 G1 X 0126.71 Y 0179.02 E 0699.59
G1 X 0091.02 Y 0156.10 E 0706.26
 G1 X 0071.49 Y 0189.44 E 0707.32
G1 X 0086.27 Y 0143.55 E 0715.81
 G1 X 0039.09 Y 0136.24 E 0716.87
G1 X 0086.27 Y 0143.55 E 0718.49
 G1 X 0091.02 Y 0156.10 E 0719.55
G1 X 0104.45 Y 0112.34 E 0725.72
 G1 X 0086.27 Y 0143.55 E 0726.78
G1 X 0135.98 Y 0166.04 E 0734.34
 G1 X 0176.91 Y 0152.60 E 0735.39
G1 X 0135.98 Y 0166.04 E 0744.02
 G1 X 0124.92 Y 0118.87 E 0745.08
G1 X 0126.63 Y 0174.66 E 0744.90
 G1 X 0126.71 Y 0179.02 E 0745.96
G1 X 0126.63 Y 0174.66 E 0752.93
 G1 X 0091.02 Y 0156.10 E 0753.99
G1 X 0126.63 Y 0174.66 E 0755.47
 G1 X 0135.98 Y 0166.04 E 0756.53
;CONTOUR EDGES
G1 X 0012.84 Y 0060.55 E 0755.47
 G1 X 0012.84 Y 0060.55 E 0756.53
G1 X 0012.84 Y 0060.55 E 0758.48
 G1 X 0024.88 Y 0069.56 E 0759.54
G1 X 0024.88 Y 0069.56 E 0769.88
 G1 X 0071.83 Y 0101.91 E 0770.94
G1 X 0071.83 Y 0101.91 E 0781.03
 G1 X 0124.92 Y 0118.87 E 0782.09
G1 X 0124.92 Y 0118.87 E 0789.70
 G1 X 0165.68 Y 0133.63 E 0790.76
G1 X 0165.68 Y 0133.63 E 0797.14
 G1 X 0184.63 Y 0165.64 E 0798.20
G1 X 0184.63 Y 0165.64 E 0800.89
 G1 X 0180.63 Y 0183.97 E 0801.95
G1 X 0180.63 Y 0183.97 E 0805.81
 G1 X 0165.85 Y 0203.64 E 0806.87
G1 X 0165.85 Y 0203.64 E 0813.36
 G1 X 0128.31 Y 0207.40 E 0814.42
G1 X 0128.31 Y 0207.40 E 0822.02
 G1 X 0086.98 Y 0194.40 E 0823.08
G1 X 0086.98 Y 0194.40 E 0828.57
 G1 X 0055.79 Y 0184.41 E 0829.63
G1 X 0055.79 Y 0184.41 E 0828.57
 G1 X 0055.79 Y 0184.41 E 0829.63
G1 X 0055.79 Y 0184.41 E 0854.79
 G1 X 0012.84 Y 0060.55 E 0855.85
G0  F600 Z1.8
M107
G10
G0 F9000 X110.000 Y126.900 Z15.000
M25 ;Stop reading from this point on.
;CURA_PROFILE_STRING:eNrtWt1v2zYQfxWC/RF8bLHGk2S7aWvoYe2SvqRDgXhYmxeBlmiLi0QKJBXHCfy/746iFNlRunQN1o/JDw70093xePe7j6LO6YapOGN8lZnIHwXemuZ5bDKeXAimNUATTzGjaGK4FDETdJGzaK4q5mmZ8zTOrYGuwnNvycFGyoTmZhOFvlcqLkysS8bSaNo8GlaUTFFTKRaFQQ8aRj3guA+c9IHTFlywdOe0I9/TVVlKZaK5rJKMixVZVDxPy5wa5uH3UqoipmnGNNw6+l0K1qjEaUXzmF0ZVdl3r6XJvDUvWWzkmqnohOaadYD4UuZVwaJg6kl5zWKdcZanTgwCRQsGLqYc/hpQD0cvpndhDMUdcNwHTvrAaRdc5nIdBb4/8j0hr69zcIlfs/1E18maoFQHpYWshIkmo2kXtRFxr4Lnu+8KLmJ4uGR5FOy+SWSxgMhHv+b5ngIvdiIMPoRdiUyWiHkLaYwsdqg39iwd/XjNU5PFS9CQCi/rycVfLAEOcnEBwZCXTOW0tJ4j66de7aO7djDt2K8JXr8ALnNh2V0/o5gtA6oY7WBcaGb8feCqAyRS5jY4rn44UAQST5sSS12NXXCgXM4Fg3jZ+DpoRctojKfbpyZoORMrkzn/0diyAl9ddU8d5u7od57igl5ZpHVrCSiUC/DWgRmjUOx8aRx16+o3kIvucx2zW3bnsQs18h8KkFs+QkVCgbG4jmVjwNWX2ZQsOoUb6xaiYgVN53lbtrG1XLs3bcGrDRBeGyoSZPNRi193YZQvuaI5ct4dzIsSqqCQqWtsC3CzG3PIuqJLiDJVKy5sHO2zFdElTZDG4wZdUM32SHmLo4rlJlSDk4cOxRQwdVcpPNp/e6tqSxVfUq6ABzF0bMupDoYWwhrQldNHouloD+07s9XYOXHJr6D0lOLAzrgSth3gqIB0xbQO3KdEFi0pujIQElkyES+40X0C0AVwjFxCnA03tlU7sTKvIBmQIeDQKmrqO2EYr/gqOgz2oA1APwENlBmtEkz17CznCUsJNa/ITUo3W/w2DP5gMW4PZq+p5gmBujVwqn5FTjGApC4mUMk7k3NL/oSLgszN7vjckhNgKsDdiQim3+NcIngOvHOTqz70xLVpAqFJa8W6bdf9dVt0oHV99qqjlUhtulr4DFbfBS99cnbTOw63ZPaHgGZs9Y0kNE3JRlaKyLUgIEs6sgQpgeb8l625h5q6Y+ZtGBD3mUFbUBDsS5pXTB+8BW+bN3QBnaUyjJQSggeUgmQcvHsRtgKQIGKHRQrZwUMbBSzoA3D1qJXE7JM1NxkxGSPQ/YhcLsGPF+SDTz766Ae0K/Lhl49oCNogYSLV0OO0FTr3nbModH5XJCDnATQHcnLTnSZbp4BHNqsFSTEiwbQo4K4hOW6ve/uZXTMlrZK7XErq7o7nnIS+T47HexpOkIyLAi5GsIUTcC25+PxDCF1RLuxRu5cB7laG2Mzj2lQAyemKESnI6ZvfiE4UYwKCHhyR905mNBp5EKOm6o5FSt6+camZkLMerzp3wXqDolQ2Ue+CiX+vgpVLLWFvVcgTvkQGkgyuQLh5CpEIyAM+M8UgVdB3dmgH4Tg+hJCMff8flO2yUrOsKU1KoMmRevIRHKQYP5Sot7BnyCc4lcGYIFoWDFNoOaMgxlA0ll8/+6Mp+DAlHw5DoCx+9bPtnFSlO5JCxBuPWm/YJRNQIWj2lv6fvNR9pfEMvLWO4oZAuCYSCOJ8X9MN1OrkfqPasBK6gq4L8eX9PvT3gRn0IAl3wvEAdFttPVvj4dDiH6HFT768xdeTYh70WQr/lSn/686db32azO/pbrOzNa5PeApqhtASmg77JRMo8PsnUOA/6giyZx3e9P+Tc3sw9x906SVX2nxP136kyRveM3rn/mdOX9QJhok9TOzHn9jjYWIPE/v/ObHDBw2vsfqhJvawpgxryt6aMv6aawrqhMNqM6w2j7/aTIbV5ptabcLHW22GLek/25LGD5qdE3D6B1oYhtVwWA2H1VCkk+9tNUSd8bBODuvk466T7gct3V8xtODtf7HWv9fZEbJIR0IxmLEJGyX6MvIgCXWbOXa8bBfWuvksmFlDZdpLJ5VSNsQNhTEBNtGAtOgzss5Aoa10u0wUVW54mbftQunRwWyeQVDxNAwurDeW5ZZFaHT+RDz1ICbmW/KPLrEAG/f+BnWV/Wo=
