;FLAVOR:UltiGCode
; TIME:400
;MATERIAL:160
; MATERIAL2: 0
;NOZZLE_DIAMETER:0.400000
;NOZZLE_DIAMETER2:  0.400000
;Layer count: 98
;LAYER: 0
M107
G0  F600 Z0.3
;INSOLE EDGES
G1 X 0094.64 Y 0154.87 E 0007.64
 G1 X 0107.98 Y 0113.46 E 0008.70
G1 X 0094.64 Y 0154.87 E 0021.00
 G1 X 0035.08 Y 0124.68 E 0022.06
G1 X 0095.10 Y 0161.03 E 0038.69
 G1 X 0181.09 Y 0181.86 E 0039.75
G1 X 0095.10 Y 0161.03 E 0045.74
 G1 X 0076.70 Y 0191.10 E 0046.80
G1 X 0095.10 Y 0161.03 E 0046.98
 G1 X 0094.64 Y 0154.87 E 0048.04
;CONTOUR EDGES
G1 X 0012.84 Y 0060.55 E 0046.98
 G1 X 0012.84 Y 0060.55 E 0048.04
G1 X 0012.84 Y 0060.55 E 0049.99
 G1 X 0024.88 Y 0069.56 E 0051.05
G1 X 0024.88 Y 0069.56 E 0061.39
 G1 X 0071.83 Y 0101.91 E 0062.45
G1 X 0071.83 Y 0101.91 E 0072.54
 G1 X 0124.92 Y 0118.87 E 0073.60
G1 X 0124.92 Y 0118.87 E 0081.21
 G1 X 0165.68 Y 0133.63 E 0082.27
G1 X 0165.68 Y 0133.63 E 0088.65
 G1 X 0184.63 Y 0165.64 E 0089.71
G1 X 0184.63 Y 0165.64 E 0092.40
 G1 X 0180.63 Y 0183.97 E 0093.46
G1 X 0180.63 Y 0183.97 E 0097.32
 G1 X 0165.85 Y 0203.64 E 0098.38
G1 X 0165.85 Y 0203.64 E 0104.87
 G1 X 0128.31 Y 0207.40 E 0105.92
G1 X 0128.31 Y 0207.40 E 0113.53
 G1 X 0086.98 Y 0194.40 E 0114.59
G1 X 0086.98 Y 0194.40 E 0120.08
 G1 X 0055.79 Y 0184.41 E 0121.14
G1 X 0055.79 Y 0184.41 E 0120.08
 G1 X 0055.79 Y 0184.41 E 0121.14
G1 X 0055.79 Y 0184.41 E 0146.30
 G1 X 0012.84 Y 0060.55 E 0147.36
G0  F600 Z0.6
;INSOLE EDGES
G1 X 0094.64 Y 0154.87 E 0155.00
 G1 X 0107.98 Y 0113.46 E 0156.06
G1 X 0094.64 Y 0154.87 E 0168.36
 G1 X 0035.08 Y 0124.68 E 0169.41
G1 X 0095.10 Y 0161.03 E 0186.05
 G1 X 0181.09 Y 0181.86 E 0187.11
G1 X 0095.10 Y 0161.03 E 0193.10
 G1 X 0076.70 Y 0191.10 E 0194.16
G1 X 0095.10 Y 0161.03 E 0194.34
 G1 X 0094.64 Y 0154.87 E 0195.40
;CONTOUR EDGES
G1 X 0012.84 Y 0060.55 E 0194.34
 G1 X 0012.84 Y 0060.55 E 0195.40
G1 X 0012.84 Y 0060.55 E 0197.35
 G1 X 0024.88 Y 0069.56 E 0198.40
G1 X 0024.88 Y 0069.56 E 0208.75
 G1 X 0071.83 Y 0101.91 E 0209.81
G1 X 0071.83 Y 0101.91 E 0219.90
 G1 X 0124.92 Y 0118.87 E 0220.95
G1 X 0124.92 Y 0118.87 E 0228.57
 G1 X 0165.68 Y 0133.63 E 0229.62
G1 X 0165.68 Y 0133.63 E 0236.01
 G1 X 0184.63 Y 0165.64 E 0237.06
G1 X 0184.63 Y 0165.64 E 0239.76
 G1 X 0180.63 Y 0183.97 E 0240.82
G1 X 0180.63 Y 0183.97 E 0244.68
 G1 X 0165.85 Y 0203.64 E 0245.74
G1 X 0165.85 Y 0203.64 E 0252.22
 G1 X 0128.31 Y 0207.40 E 0253.28
G1 X 0128.31 Y 0207.40 E 0260.89
 G1 X 0086.98 Y 0194.40 E 0261.95
G1 X 0086.98 Y 0194.40 E 0267.44
 G1 X 0055.79 Y 0184.41 E 0268.50
G1 X 0055.79 Y 0184.41 E 0267.44
 G1 X 0055.79 Y 0184.41 E 0268.50
G1 X 0055.79 Y 0184.41 E 0293.66
 G1 X 0012.84 Y 0060.55 E 0294.72
G0  F600 Z0.90000004
;INSOLE EDGES
G1 X 0094.64 Y 0154.87 E 0302.36
 G1 X 0107.98 Y 0113.46 E 0303.42
G1 X 0094.64 Y 0154.87 E 0315.71
 G1 X 0035.08 Y 0124.68 E 0316.77
G1 X 0095.10 Y 0161.03 E 0333.41
 G1 X 0181.09 Y 0181.86 E 0334.47
G1 X 0095.10 Y 0161.03 E 0340.46
 G1 X 0076.70 Y 0191.10 E 0341.52
G1 X 0095.10 Y 0161.03 E 0341.70
 G1 X 0094.64 Y 0154.87 E 0342.75
;CONTOUR EDGES
G1 X 0012.84 Y 0060.55 E 0341.70
 G1 X 0012.84 Y 0060.55 E 0342.75
G1 X 0012.84 Y 0060.55 E 0344.70
 G1 X 0024.88 Y 0069.56 E 0345.76
G1 X 0024.88 Y 0069.56 E 0356.11
 G1 X 0071.83 Y 0101.91 E 0357.17
G1 X 0071.83 Y 0101.91 E 0367.25
 G1 X 0124.92 Y 0118.87 E 0368.31
G1 X 0124.92 Y 0118.87 E 0375.92
 G1 X 0165.68 Y 0133.63 E 0376.98
G1 X 0165.68 Y 0133.63 E 0383.36
 G1 X 0184.63 Y 0165.64 E 0384.42
G1 X 0184.63 Y 0165.64 E 0387.12
 G1 X 0180.63 Y 0183.97 E 0388.18
G1 X 0180.63 Y 0183.97 E 0392.04
 G1 X 0165.85 Y 0203.64 E 0393.10
G1 X 0165.85 Y 0203.64 E 0399.58
 G1 X 0128.31 Y 0207.40 E 0400.64
G1 X 0128.31 Y 0207.40 E 0408.25
 G1 X 0086.98 Y 0194.40 E 0409.31
G1 X 0086.98 Y 0194.40 E 0414.80
 G1 X 0055.79 Y 0184.41 E 0415.86
G1 X 0055.79 Y 0184.41 E 0414.80
 G1 X 0055.79 Y 0184.41 E 0415.86
G1 X 0055.79 Y 0184.41 E 0441.02
 G1 X 0012.84 Y 0060.55 E 0442.08
G0  F600 Z1.2
;INSOLE EDGES
G1 X 0094.64 Y 0154.87 E 0449.72
 G1 X 0107.98 Y 0113.46 E 0450.78
G1 X 0094.64 Y 0154.87 E 0463.07
 G1 X 0035.08 Y 0124.68 E 0464.13
G1 X 0095.10 Y 0161.03 E 0480.77
 G1 X 0181.09 Y 0181.86 E 0481.83
G1 X 0095.10 Y 0161.03 E 0487.82
 G1 X 0076.70 Y 0191.10 E 0488.88
G1 X 0095.10 Y 0161.03 E 0489.05
 G1 X 0094.64 Y 0154.87 E 0490.11
;CONTOUR EDGES
G1 X 0012.84 Y 0060.55 E 0489.05
 G1 X 0012.84 Y 0060.55 E 0490.11
G1 X 0012.84 Y 0060.55 E 0492.06
 G1 X 0024.88 Y 0069.56 E 0493.12
G1 X 0024.88 Y 0069.56 E 0503.47
 G1 X 0071.83 Y 0101.91 E 0504.52
G1 X 0071.83 Y 0101.91 E 0514.61
 G1 X 0124.92 Y 0118.87 E 0515.67
G1 X 0124.92 Y 0118.87 E 0523.28
 G1 X 0165.68 Y 0133.63 E 0524.34
G1 X 0165.68 Y 0133.63 E 0530.72
 G1 X 0184.63 Y 0165.64 E 0531.78
G1 X 0184.63 Y 0165.64 E 0534.48
 G1 X 0180.63 Y 0183.97 E 0535.53
G1 X 0180.63 Y 0183.97 E 0539.40
 G1 X 0165.85 Y 0203.64 E 0540.45
G1 X 0165.85 Y 0203.64 E 0546.94
 G1 X 0128.31 Y 0207.40 E 0548.00
G1 X 0128.31 Y 0207.40 E 0555.61
 G1 X 0086.98 Y 0194.40 E 0556.66
G1 X 0086.98 Y 0194.40 E 0562.16
 G1 X 0055.79 Y 0184.41 E 0563.21
G1 X 0055.79 Y 0184.41 E 0562.16
 G1 X 0055.79 Y 0184.41 E 0563.21
G1 X 0055.79 Y 0184.41 E 0588.37
 G1 X 0012.84 Y 0060.55 E 0589.43
G0  F600 Z1.5
;INSOLE EDGES
G1 X 0094.64 Y 0154.87 E 0597.08
 G1 X 0107.98 Y 0113.46 E 0598.13
G1 X 0094.64 Y 0154.87 E 0610.43
 G1 X 0035.08 Y 0124.68 E 0611.49
G1 X 0095.10 Y 0161.03 E 0628.13
 G1 X 0181.09 Y 0181.86 E 0629.18
G1 X 0095.10 Y 0161.03 E 0635.18
 G1 X 0076.70 Y 0191.10 E 0636.24
G1 X 0095.10 Y 0161.03 E 0636.41
 G1 X 0094.64 Y 0154.87 E 0637.47
;CONTOUR EDGES
G1 X 0012.84 Y 0060.55 E 0636.41
 G1 X 0012.84 Y 0060.55 E 0637.47
G1 X 0012.84 Y 0060.55 E 0639.42
 G1 X 0024.88 Y 0069.56 E 0640.48
G1 X 0024.88 Y 0069.56 E 0650.82
 G1 X 0071.83 Y 0101.91 E 0651.88
G1 X 0071.83 Y 0101.91 E 0661.97
 G1 X 0124.92 Y 0118.87 E 0663.03
G1 X 0124.92 Y 0118.87 E 0670.64
 G1 X 0165.68 Y 0133.63 E 0671.70
G1 X 0165.68 Y 0133.63 E 0678.08
 G1 X 0184.63 Y 0165.64 E 0679.14
G1 X 0184.63 Y 0165.64 E 0681.83
 G1 X 0180.63 Y 0183.97 E 0682.89
G1 X 0180.63 Y 0183.97 E 0686.75
 G1 X 0165.85 Y 0203.64 E 0687.81
G1 X 0165.85 Y 0203.64 E 0694.30
 G1 X 0128.31 Y 0207.40 E 0695.36
G1 X 0128.31 Y 0207.40 E 0702.96
 G1 X 0086.98 Y 0194.40 E 0704.02
G1 X 0086.98 Y 0194.40 E 0709.51
 G1 X 0055.79 Y 0184.41 E 0710.57
G1 X 0055.79 Y 0184.41 E 0709.51
 G1 X 0055.79 Y 0184.41 E 0710.57
G1 X 0055.79 Y 0184.41 E 0735.73
 G1 X 0012.84 Y 0060.55 E 0736.79
G0  F600 Z1.8
M107
G10
G0 F9000 X110.000 Y126.900 Z15.000
M25 ;Stop reading from this point on.
;CURA_PROFILE_STRING:eNrtWt1v2zYQfxWC/RF8bLHGk2S7aWvoYe2SvqRDgXhYmxeBlmiLi0QKJBXHCfy/746iFNlRunQN1o/JDw70093xePe7j6LO6YapOGN8lZnIHwXemuZ5bDKeXAimNUATTzGjaGK4FDETdJGzaK4q5mmZ8zTOrYGuwnNvycFGyoTmZhOFvlcqLkysS8bSaNo8GlaUTFFTKRaFQQ8aRj3guA+c9IHTFlywdOe0I9/TVVlKZaK5rJKMixVZVDxPy5wa5uH3UqoipmnGNNw6+l0K1qjEaUXzmF0ZVdl3r6XJvDUvWWzkmqnohOaadYD4UuZVwaJg6kl5zWKdcZanTgwCRQsGLqYc/hpQD0cvpndhDMUdcNwHTvrAaRdc5nIdBb4/8j0hr69zcIlfs/1E18maoFQHpYWshIkmo2kXtRFxr4Lnu+8KLmJ4uGR5FOy+SWSxgMhHv+b5ngIvdiIMPoRdiUyWiHkLaYwsdqg39iwd/XjNU5PFS9CQCi/rycVfLAEOcnEBwZCXTOW0tJ4j66de7aO7djDt2K8JXr8ALnNh2V0/o5gtA6oY7WBcaGb8feCqAyRS5jY4rn44UAQST5sSS12NXXCgXM4Fg3jZ+DpoRctojKfbpyZoORMrkzn/0diyAl9ddU8d5u7od57igl5ZpHVrCSiUC/DWgRmjUOx8aRx16+o3kIvucx2zW3bnsQs18h8KkFs+QkVCgbG4jmVjwNWX2ZQsOoUb6xaiYgVN53lbtrG1XLs3bcGrDRBeGyoSZPNRi193YZQvuaI5ct4dzIsSqqCQqWtsC3CzG3PIuqJLiDJVKy5sHO2zFdElTZDG4wZdUM32SHmLo4rlJlSDk4cOxRQwdVcpPNp/e6tqSxVfUq6ABzF0bMupDoYWwhrQldNHouloD+07s9XYOXHJr6D0lOLAzrgSth3gqIB0xbQO3KdEFi0pujIQElkyES+40X0C0AVwjFxCnA03tlU7sTKvIBmQIeDQKmrqO2EYr/gqOgz2oA1APwENlBmtEkz17CznCUsJNa/ITUo3W/w2DP5gMW4PZq+p5gmBujVwqn5FTjGApC4mUMk7k3NL/oSLgszN7vjckhNgKsDdiQim3+NcIngOvHOTqz70xLVpAqFJa8W6bdf9dVt0oHV99qqjlUhtulr4DFbfBS99cnbTOw63ZPaHgGZs9Y0kNE3JRlaKyLUgIEs6sgQpgeb8l625h5q6Y+ZtGBD3mUFbUBDsS5pXTB+8BW+bN3QBnaUyjJQSggeUgmQcvHsRtgKQIGKHRQrZwUMbBSzoA3D1qJXE7JM1NxkxGSPQ/YhcLsGPF+SDTz766Ae0K/Lhl49oCNogYSLV0OO0FTr3nbModH5XJCDnATQHcnLTnSZbp4BHNqsFSTEiwbQo4K4hOW6ve/uZXTMlrZK7XErq7o7nnIS+T47HexpOkIyLAi5GsIUTcC25+PxDCF1RLuxRu5cB7laG2Mzj2lQAyemKESnI6ZvfiE4UYwKCHhyR905mNBp5EKOm6o5FSt6+camZkLMerzp3wXqDolQ2Ue+CiX+vgpVLLWFvVcgTvkQGkgyuQLh5CpEIyAM+M8UgVdB3dmgH4Tg+hJCMff8flO2yUrOsKU1KoMmRevIRHKQYP5Sot7BnyCc4lcGYIFoWDFNoOaMgxlA0ll8/+6Mp+DAlHw5DoCx+9bPtnFSlO5JCxBuPWm/YJRNQIWj2lv6fvNR9pfEMvLWO4oZAuCYSCOJ8X9MN1OrkfqPasBK6gq4L8eX9PvT3gRn0IAl3wvEAdFttPVvj4dDiH6HFT768xdeTYh70WQr/lSn/686db32azO/pbrOzNa5PeApqhtASmg77JRMo8PsnUOA/6giyZx3e9P+Tc3sw9x906SVX2nxP136kyRveM3rn/mdOX9QJhok9TOzHn9jjYWIPE/v/ObHDBw2vsfqhJvawpgxryt6aMv6aawrqhMNqM6w2j7/aTIbV5ptabcLHW22GLek/25LGD5qdE3D6B1oYhtVwWA2H1VCkk+9tNUSd8bBODuvk466T7gct3V8xtODtf7HWv9fZEbJIR0IxmLEJGyX6MvIgCXWbOXa8bBfWuvksmFlDZdpLJ5VSNsQNhTEBNtGAtOgzss5Aoa10u0wUVW54mbftQunRwWyeQVDxNAwurDeW5ZZFaHT+RDz1ICbmW/KPLrEAG/f+BnWV/Wo=
