;FLAVOR:UltiGCode
; TIME:400
;MATERIAL:160
; MATERIAL2: 0
;NOZZLE_DIAMETER:0.400000
;NOZZLE_DIAMETER2:  0.400000
;Layer count: 98
;LAYER: 0
M107
G0  F600 Z0.3
;INSOLE EDGES
G1 X 0149.92 Y 0085.87 E 0495.91
 G1 X 0148.08 Y 0085.73 E 0496.97
G1 X 0132.42 Y 0069.73 E 0500.27
 G1 X 0146.68 Y 0053.28 E 0501.33
G1 X 0131.53 Y 0079.73 E 0503.79
 G1 X 0148.08 Y 0085.73 E 0504.85
G1 X 0131.53 Y 0079.73 E 0505.80
 G1 X 0132.42 Y 0069.73 E 0506.86
G1 X 0126.70 Y 0117.17 E 0513.40
 G1 X 0148.08 Y 0085.73 E 0514.46
G1 X 0133.49 Y 0122.98 E 0514.63
 G1 X 0138.88 Y 0125.92 E 0515.69
G1 X 0133.49 Y 0122.98 E 0516.42
 G1 X 0126.70 Y 0117.17 E 0517.48
G1 X 0110.33 Y 0146.14 E 0521.38
 G1 X 0134.65 Y 0141.27 E 0522.44
G1 X 0110.33 Y 0146.14 E 0527.93
 G1 X 0133.49 Y 0122.98 E 0528.99
G1 X 0105.76 Y 0148.73 E 0528.98
 G1 X 0110.33 Y 0146.14 E 0530.04
G1 X 0116.18 Y 0039.69 E 0535.81
 G1 X 0132.42 Y 0069.73 E 0536.87
G1 X 0060.27 Y 0069.08 E 0538.86
 G1 X 0046.00 Y 0063.65 E 0539.92
G1 X 0060.27 Y 0069.08 E 0548.19
 G1 X 0092.38 Y 0035.28 E 0549.25
G1 X 0074.39 Y 0078.55 E 0551.59
 G1 X 0060.27 Y 0069.08 E 0552.64
G1 X 0097.30 Y 0074.96 E 0559.50
 G1 X 0103.75 Y 0035.91 E 0560.56
G1 X 0097.30 Y 0074.96 E 0564.14
 G1 X 0074.39 Y 0078.55 E 0565.20
G1 X 0108.98 Y 0087.63 E 0568.92
 G1 X 0131.53 Y 0079.73 E 0569.97
G1 X 0108.98 Y 0087.63 E 0572.36
 G1 X 0097.30 Y 0074.96 E 0573.42
G1 X 0065.19 Y 0114.03 E 0579.69
 G1 X 0074.39 Y 0078.55 E 0580.75
G1 X 0108.88 Y 0094.62 E 0581.09
 G1 X 0108.98 Y 0087.63 E 0582.15
G1 X 0108.88 Y 0094.62 E 0590.09
 G1 X 0077.35 Y 0126.68 E 0591.14
G1 X 0125.75 Y 0116.73 E 0590.29
 G1 X 0126.70 Y 0117.17 E 0591.35
G1 X 0125.75 Y 0116.73 E 0598.39
 G1 X 0092.20 Y 0139.35 E 0599.45
G1 X 0125.75 Y 0116.73 E 0603.95
 G1 X 0108.88 Y 0094.62 E 0605.01
;CONTOUR EDGES
G1 X 0128.99 Y 0161.79 E 0603.95
 G1 X 0128.99 Y 0161.79 E 0605.01
G1 X 0128.99 Y 0161.79 E 0607.24
 G1 X 0114.50 Y 0153.99 E 0608.30
G1 X 0114.50 Y 0153.99 E 0611.16
 G1 X 0097.70 Y 0143.88 E 0612.22
G1 X 0097.70 Y 0143.88 E 0615.86
 G1 X 0079.58 Y 0128.97 E 0616.92
G1 X 0079.58 Y 0128.97 E 0619.94
 G1 X 0065.38 Y 0114.30 E 0621.00
G1 X 0065.38 Y 0114.30 E 0623.57
 G1 X 0054.80 Y 0099.56 E 0624.63
G1 X 0054.80 Y 0099.56 E 0628.05
 G1 X 0045.46 Y 0079.22 E 0629.10
G1 X 0045.46 Y 0079.22 E 0632.69
 G1 X 0046.27 Y 0056.03 E 0633.75
G1 X 0046.27 Y 0056.03 E 0635.84
 G1 X 0055.47 Y 0043.23 E 0636.90
G1 X 0055.47 Y 0043.23 E 0639.83
 G1 X 0073.58 Y 0034.80 E 0640.89
G1 X 0073.58 Y 0034.80 E 0645.62
 G1 X 0102.52 Y 0035.54 E 0646.68
G1 X 0102.52 Y 0035.54 E 0650.57
 G1 X 0126.16 Y 0042.71 E 0651.62
G1 X 0126.16 Y 0042.71 E 0651.25
 G1 X 0129.29 Y 0044.04 E 0652.30
G1 X 0129.29 Y 0044.04 E 0654.55
 G1 X 0144.08 Y 0051.43 E 0655.61
G1 X 0144.08 Y 0051.43 E 0657.70
 G1 X 0156.90 Y 0060.55 E 0658.76
G1 X 0156.90 Y 0060.55 E 0657.70
 G1 X 0156.90 Y 0060.55 E 0658.76
G1 X 0156.90 Y 0060.55 E 0678.70
 G1 X 0128.99 Y 0161.79 E 0679.76
G0  F600 Z0.6
;INSOLE EDGES
G1 X 0149.92 Y 0085.87 E 0679.07
 G1 X 0148.08 Y 0085.73 E 0680.13
G1 X 0132.42 Y 0069.73 E 0683.43
 G1 X 0146.68 Y 0053.28 E 0684.49
G1 X 0131.53 Y 0079.73 E 0686.95
 G1 X 0148.08 Y 0085.73 E 0688.01
G1 X 0131.53 Y 0079.73 E 0688.96
 G1 X 0132.42 Y 0069.73 E 0690.02
G1 X 0126.70 Y 0117.17 E 0696.56
 G1 X 0148.08 Y 0085.73 E 0697.62
G1 X 0133.49 Y 0122.98 E 0697.79
 G1 X 0138.88 Y 0125.92 E 0698.85
G1 X 0133.49 Y 0122.98 E 0699.58
 G1 X 0126.70 Y 0117.17 E 0700.64
G1 X 0110.33 Y 0146.14 E 0704.54
 G1 X 0134.65 Y 0141.27 E 0705.60
G1 X 0110.33 Y 0146.14 E 0711.09
 G1 X 0133.49 Y 0122.98 E 0712.14
G1 X 0105.76 Y 0148.73 E 0712.14
 G1 X 0110.33 Y 0146.14 E 0713.20
G1 X 0116.18 Y 0039.69 E 0718.97
 G1 X 0132.42 Y 0069.73 E 0720.03
G1 X 0060.27 Y 0069.08 E 0722.02
 G1 X 0046.00 Y 0063.65 E 0723.08
G1 X 0060.27 Y 0069.08 E 0731.34
 G1 X 0092.38 Y 0035.28 E 0732.40
G1 X 0074.39 Y 0078.55 E 0734.74
 G1 X 0060.27 Y 0069.08 E 0735.80
G1 X 0097.30 Y 0074.96 E 0742.66
 G1 X 0103.75 Y 0035.91 E 0743.72
G1 X 0097.30 Y 0074.96 E 0747.30
 G1 X 0074.39 Y 0078.55 E 0748.36
G1 X 0108.98 Y 0087.63 E 0752.07
 G1 X 0131.53 Y 0079.73 E 0753.13
G1 X 0108.98 Y 0087.63 E 0755.52
 G1 X 0097.30 Y 0074.96 E 0756.58
G1 X 0065.19 Y 0114.03 E 0762.85
 G1 X 0074.39 Y 0078.55 E 0763.91
G1 X 0108.88 Y 0094.62 E 0764.25
 G1 X 0108.98 Y 0087.63 E 0765.31
G1 X 0108.88 Y 0094.62 E 0773.24
 G1 X 0077.35 Y 0126.68 E 0774.30
G1 X 0125.75 Y 0116.73 E 0773.45
 G1 X 0126.70 Y 0117.17 E 0774.51
G1 X 0125.75 Y 0116.73 E 0781.55
 G1 X 0092.20 Y 0139.35 E 0782.61
G1 X 0125.75 Y 0116.73 E 0787.11
 G1 X 0108.88 Y 0094.62 E 0788.17
;CONTOUR EDGES
G1 X 0128.99 Y 0161.79 E 0787.11
 G1 X 0128.99 Y 0161.79 E 0788.17
G1 X 0128.99 Y 0161.79 E 0790.40
 G1 X 0114.50 Y 0153.99 E 0791.46
G1 X 0114.50 Y 0153.99 E 0794.32
 G1 X 0097.70 Y 0143.88 E 0795.38
G1 X 0097.70 Y 0143.88 E 0799.02
 G1 X 0079.58 Y 0128.97 E 0800.07
G1 X 0079.58 Y 0128.97 E 0803.10
 G1 X 0065.38 Y 0114.30 E 0804.16
G1 X 0065.38 Y 0114.30 E 0806.73
 G1 X 0054.80 Y 0099.56 E 0807.78
G1 X 0054.80 Y 0099.56 E 0811.20
 G1 X 0045.46 Y 0079.22 E 0812.26
G1 X 0045.46 Y 0079.22 E 0815.84
 G1 X 0046.27 Y 0056.03 E 0816.90
G1 X 0046.27 Y 0056.03 E 0819.00
 G1 X 0055.47 Y 0043.23 E 0820.05
G1 X 0055.47 Y 0043.23 E 0822.99
 G1 X 0073.58 Y 0034.80 E 0824.05
G1 X 0073.58 Y 0034.80 E 0828.78
 G1 X 0102.52 Y 0035.54 E 0829.84
G1 X 0102.52 Y 0035.54 E 0833.72
 G1 X 0126.16 Y 0042.71 E 0834.78
G1 X 0126.16 Y 0042.71 E 0834.40
 G1 X 0129.29 Y 0044.04 E 0835.46
G1 X 0129.29 Y 0044.04 E 0837.71
 G1 X 0144.08 Y 0051.43 E 0838.77
G1 X 0144.08 Y 0051.43 E 0840.86
 G1 X 0156.90 Y 0060.55 E 0841.92
G1 X 0156.90 Y 0060.55 E 0840.86
 G1 X 0156.90 Y 0060.55 E 0841.92
G1 X 0156.90 Y 0060.55 E 0861.86
 G1 X 0128.99 Y 0161.79 E 0862.92
G0  F600 Z0.90000004
;INSOLE EDGES
G1 X 0149.92 Y 0085.87 E 0862.23
 G1 X 0148.08 Y 0085.73 E 0863.29
G1 X 0132.42 Y 0069.73 E 0866.59
 G1 X 0146.68 Y 0053.28 E 0867.64
G1 X 0131.53 Y 0079.73 E 0870.11
 G1 X 0148.08 Y 0085.73 E 0871.17
G1 X 0131.53 Y 0079.73 E 0872.12
 G1 X 0132.42 Y 0069.73 E 0873.17
G1 X 0126.70 Y 0117.17 E 0879.72
 G1 X 0148.08 Y 0085.73 E 0880.78
G1 X 0133.49 Y 0122.98 E 0880.95
 G1 X 0138.88 Y 0125.92 E 0882.01
G1 X 0133.49 Y 0122.98 E 0882.73
 G1 X 0126.70 Y 0117.17 E 0883.79
G1 X 0110.33 Y 0146.14 E 0887.70
 G1 X 0134.65 Y 0141.27 E 0888.75
G1 X 0110.33 Y 0146.14 E 0894.24
 G1 X 0133.49 Y 0122.98 E 0895.30
G1 X 0105.76 Y 0148.73 E 0895.29
 G1 X 0110.33 Y 0146.14 E 0896.35
G1 X 0116.18 Y 0039.69 E 0902.13
 G1 X 0132.42 Y 0069.73 E 0903.18
G1 X 0060.27 Y 0069.08 E 0905.18
 G1 X 0046.00 Y 0063.65 E 0906.24
G1 X 0060.27 Y 0069.08 E 0914.50
 G1 X 0092.38 Y 0035.28 E 0915.56
G1 X 0074.39 Y 0078.55 E 0917.90
 G1 X 0060.27 Y 0069.08 E 0918.96
G1 X 0097.30 Y 0074.96 E 0925.82
 G1 X 0103.75 Y 0035.91 E 0926.88
G1 X 0097.30 Y 0074.96 E 0930.46
 G1 X 0074.39 Y 0078.55 E 0931.51
G1 X 0108.98 Y 0087.63 E 0935.23
 G1 X 0131.53 Y 0079.73 E 0936.29
G1 X 0108.98 Y 0087.63 E 0938.68
 G1 X 0097.30 Y 0074.96 E 0939.74
G1 X 0065.19 Y 0114.03 E 0946.01
 G1 X 0074.39 Y 0078.55 E 0947.07
G1 X 0108.88 Y 0094.62 E 0947.41
 G1 X 0108.98 Y 0087.63 E 0948.47
G1 X 0108.88 Y 0094.62 E 0956.40
 G1 X 0077.35 Y 0126.68 E 0957.46
G1 X 0125.75 Y 0116.73 E 0956.61
 G1 X 0126.70 Y 0117.17 E 0957.67
G1 X 0125.75 Y 0116.73 E 0964.70
 G1 X 0092.20 Y 0139.35 E 0965.76
G1 X 0125.75 Y 0116.73 E 0970.27
 G1 X 0108.88 Y 0094.62 E 0971.32
;CONTOUR EDGES
G1 X 0128.99 Y 0161.79 E 0970.27
 G1 X 0128.99 Y 0161.79 E 0971.32
G1 X 0128.99 Y 0161.79 E 0973.56
 G1 X 0114.50 Y 0153.99 E 0974.62
G1 X 0114.50 Y 0153.99 E 0977.48
 G1 X 0097.70 Y 0143.88 E 0978.54
G1 X 0097.70 Y 0143.88 E 0982.17
 G1 X 0079.58 Y 0128.97 E 0983.23
G1 X 0079.58 Y 0128.97 E 0986.26
 G1 X 0065.38 Y 0114.30 E 0987.31
G1 X 0065.38 Y 0114.30 E 0989.88
 G1 X 0054.80 Y 0099.56 E 0990.94
G1 X 0054.80 Y 0099.56 E 0994.36
 G1 X 0045.46 Y 0079.22 E 0995.42
G1 X 0045.46 Y 0079.22 E 0999.00
 G1 X 0046.27 Y 0056.03 E 1000.06
G1 X 0046.27 Y 0056.03 E 1002.15
 G1 X 0055.47 Y 0043.23 E 1003.21
G1 X 0055.47 Y 0043.23 E 1006.15
 G1 X 0073.58 Y 0034.80 E 1007.21
G1 X 0073.58 Y 0034.80 E 1011.94
 G1 X 0102.52 Y 0035.54 E 1013.00
G1 X 0102.52 Y 0035.54 E 1016.88
 G1 X 0126.16 Y 0042.71 E 1017.94
G1 X 0126.16 Y 0042.71 E 1017.56
 G1 X 0129.29 Y 0044.04 E 1018.62
G1 X 0129.29 Y 0044.04 E 1020.87
 G1 X 0144.08 Y 0051.43 E 1021.93
G1 X 0144.08 Y 0051.43 E 1024.02
 G1 X 0156.90 Y 0060.55 E 1025.07
G1 X 0156.90 Y 0060.55 E 1024.02
 G1 X 0156.90 Y 0060.55 E 1025.07
G1 X 0156.90 Y 0060.55 E 1045.02
 G1 X 0128.99 Y 0161.79 E 1046.08
G0  F600 Z1.2
;INSOLE EDGES
G1 X 0149.92 Y 0085.87 E 1045.39
 G1 X 0148.08 Y 0085.73 E 1046.45
G1 X 0132.42 Y 0069.73 E 1049.74
 G1 X 0146.68 Y 0053.28 E 1050.80
G1 X 0131.53 Y 0079.73 E 1053.26
 G1 X 0148.08 Y 0085.73 E 1054.32
G1 X 0131.53 Y 0079.73 E 1055.27
 G1 X 0132.42 Y 0069.73 E 1056.33
G1 X 0126.70 Y 0117.17 E 1062.88
 G1 X 0148.08 Y 0085.73 E 1063.93
G1 X 0133.49 Y 0122.98 E 1064.11
 G1 X 0138.88 Y 0125.92 E 1065.16
G1 X 0133.49 Y 0122.98 E 1065.89
 G1 X 0126.70 Y 0117.17 E 1066.95
G1 X 0110.33 Y 0146.14 E 1070.85
 G1 X 0134.65 Y 0141.27 E 1071.91
G1 X 0110.33 Y 0146.14 E 1077.40
 G1 X 0133.49 Y 0122.98 E 1078.46
G1 X 0105.76 Y 0148.73 E 1078.45
 G1 X 0110.33 Y 0146.14 E 1079.51
G1 X 0116.18 Y 0039.69 E 1085.28
 G1 X 0132.42 Y 0069.73 E 1086.34
G1 X 0060.27 Y 0069.08 E 1088.34
 G1 X 0046.00 Y 0063.65 E 1089.39
G1 X 0060.27 Y 0069.08 E 1097.66
 G1 X 0092.38 Y 0035.28 E 1098.72
G1 X 0074.39 Y 0078.55 E 1101.06
 G1 X 0060.27 Y 0069.08 E 1102.12
G1 X 0097.30 Y 0074.96 E 1108.98
 G1 X 0103.75 Y 0035.91 E 1110.03
G1 X 0097.30 Y 0074.96 E 1113.61
 G1 X 0074.39 Y 0078.55 E 1114.67
G1 X 0108.98 Y 0087.63 E 1118.39
 G1 X 0131.53 Y 0079.73 E 1119.45
G1 X 0108.98 Y 0087.63 E 1121.84
 G1 X 0097.30 Y 0074.96 E 1122.90
G1 X 0065.19 Y 0114.03 E 1129.17
 G1 X 0074.39 Y 0078.55 E 1130.23
G1 X 0108.88 Y 0094.62 E 1130.57
 G1 X 0108.98 Y 0087.63 E 1131.63
G1 X 0108.88 Y 0094.62 E 1139.56
 G1 X 0077.35 Y 0126.68 E 1140.62
G1 X 0125.75 Y 0116.73 E 1139.77
 G1 X 0126.70 Y 0117.17 E 1140.83
G1 X 0125.75 Y 0116.73 E 1147.86
 G1 X 0092.20 Y 0139.35 E 1148.92
G1 X 0125.75 Y 0116.73 E 1153.42
 G1 X 0108.88 Y 0094.62 E 1154.48
;CONTOUR EDGES
G1 X 0128.99 Y 0161.79 E 1153.42
 G1 X 0128.99 Y 0161.79 E 1154.48
G1 X 0128.99 Y 0161.79 E 1156.72
 G1 X 0114.50 Y 0153.99 E 1157.78
G1 X 0114.50 Y 0153.99 E 1160.64
 G1 X 0097.70 Y 0143.88 E 1161.70
G1 X 0097.70 Y 0143.88 E 1165.33
 G1 X 0079.58 Y 0128.97 E 1166.39
G1 X 0079.58 Y 0128.97 E 1169.41
 G1 X 0065.38 Y 0114.30 E 1170.47
G1 X 0065.38 Y 0114.30 E 1173.04
 G1 X 0054.80 Y 0099.56 E 1174.10
G1 X 0054.80 Y 0099.56 E 1177.52
 G1 X 0045.46 Y 0079.22 E 1178.58
G1 X 0045.46 Y 0079.22 E 1182.16
 G1 X 0046.27 Y 0056.03 E 1183.22
G1 X 0046.27 Y 0056.03 E 1185.31
 G1 X 0055.47 Y 0043.23 E 1186.37
G1 X 0055.47 Y 0043.23 E 1189.31
 G1 X 0073.58 Y 0034.80 E 1190.37
G1 X 0073.58 Y 0034.80 E 1195.10
 G1 X 0102.52 Y 0035.54 E 1196.16
G1 X 0102.52 Y 0035.54 E 1200.04
 G1 X 0126.16 Y 0042.71 E 1201.10
G1 X 0126.16 Y 0042.71 E 1200.72
 G1 X 0129.29 Y 0044.04 E 1201.78
G1 X 0129.29 Y 0044.04 E 1204.03
 G1 X 0144.08 Y 0051.43 E 1205.08
G1 X 0144.08 Y 0051.43 E 1207.17
 G1 X 0156.90 Y 0060.55 E 1208.23
G1 X 0156.90 Y 0060.55 E 1207.17
 G1 X 0156.90 Y 0060.55 E 1208.23
G1 X 0156.90 Y 0060.55 E 1228.18
 G1 X 0128.99 Y 0161.79 E 1229.23
G0  F600 Z1.5
;INSOLE EDGES
G1 X 0149.92 Y 0085.87 E 1228.55
 G1 X 0148.08 Y 0085.73 E 1229.60
G1 X 0132.42 Y 0069.73 E 1232.90
 G1 X 0146.68 Y 0053.28 E 1233.96
G1 X 0131.53 Y 0079.73 E 1236.42
 G1 X 0148.08 Y 0085.73 E 1237.48
G1 X 0131.53 Y 0079.73 E 1238.43
 G1 X 0132.42 Y 0069.73 E 1239.49
G1 X 0126.70 Y 0117.17 E 1246.03
 G1 X 0148.08 Y 0085.73 E 1247.09
G1 X 0133.49 Y 0122.98 E 1247.26
 G1 X 0138.88 Y 0125.92 E 1248.32
G1 X 0133.49 Y 0122.98 E 1249.05
 G1 X 0126.70 Y 0117.17 E 1250.11
G1 X 0110.33 Y 0146.14 E 1254.01
 G1 X 0134.65 Y 0141.27 E 1255.07
G1 X 0110.33 Y 0146.14 E 1260.56
 G1 X 0133.49 Y 0122.98 E 1261.62
G1 X 0105.76 Y 0148.73 E 1261.61
 G1 X 0110.33 Y 0146.14 E 1262.67
G1 X 0116.18 Y 0039.69 E 1268.44
 G1 X 0132.42 Y 0069.73 E 1269.50
G1 X 0060.27 Y 0069.08 E 1271.49
 G1 X 0046.00 Y 0063.65 E 1272.55
G1 X 0060.27 Y 0069.08 E 1280.82
 G1 X 0092.38 Y 0035.28 E 1281.88
G1 X 0074.39 Y 0078.55 E 1284.22
 G1 X 0060.27 Y 0069.08 E 1285.28
G1 X 0097.30 Y 0074.96 E 1292.13
 G1 X 0103.75 Y 0035.91 E 1293.19
G1 X 0097.30 Y 0074.96 E 1296.77
 G1 X 0074.39 Y 0078.55 E 1297.83
G1 X 0108.98 Y 0087.63 E 1301.55
 G1 X 0131.53 Y 0079.73 E 1302.61
G1 X 0108.98 Y 0087.63 E 1305.00
 G1 X 0097.30 Y 0074.96 E 1306.05
G1 X 0065.19 Y 0114.03 E 1312.33
 G1 X 0074.39 Y 0078.55 E 1313.38
G1 X 0108.88 Y 0094.62 E 1313.72
 G1 X 0108.98 Y 0087.63 E 1314.78
G1 X 0108.88 Y 0094.62 E 1322.72
 G1 X 0077.35 Y 0126.68 E 1323.77
G1 X 0125.75 Y 0116.73 E 1322.93
 G1 X 0126.70 Y 0117.17 E 1323.98
G1 X 0125.75 Y 0116.73 E 1331.02
 G1 X 0092.20 Y 0139.35 E 1332.08
G1 X 0125.75 Y 0116.73 E 1336.58
 G1 X 0108.88 Y 0094.62 E 1337.64
;CONTOUR EDGES
G1 X 0128.99 Y 0161.79 E 1336.58
 G1 X 0128.99 Y 0161.79 E 1337.64
G1 X 0128.99 Y 0161.79 E 1339.87
 G1 X 0114.50 Y 0153.99 E 1340.93
G1 X 0114.50 Y 0153.99 E 1343.80
 G1 X 0097.70 Y 0143.88 E 1344.85
G1 X 0097.70 Y 0143.88 E 1348.49
 G1 X 0079.58 Y 0128.97 E 1349.55
G1 X 0079.58 Y 0128.97 E 1352.57
 G1 X 0065.38 Y 0114.30 E 1353.63
G1 X 0065.38 Y 0114.30 E 1356.20
 G1 X 0054.80 Y 0099.56 E 1357.26
G1 X 0054.80 Y 0099.56 E 1360.68
 G1 X 0045.46 Y 0079.22 E 1361.74
G1 X 0045.46 Y 0079.22 E 1365.32
 G1 X 0046.27 Y 0056.03 E 1366.38
G1 X 0046.27 Y 0056.03 E 1368.47
 G1 X 0055.47 Y 0043.23 E 1369.53
G1 X 0055.47 Y 0043.23 E 1372.47
 G1 X 0073.58 Y 0034.80 E 1373.52
G1 X 0073.58 Y 0034.80 E 1378.26
 G1 X 0102.52 Y 0035.54 E 1379.31
G1 X 0102.52 Y 0035.54 E 1383.20
 G1 X 0126.16 Y 0042.71 E 1384.26
G1 X 0126.16 Y 0042.71 E 1383.88
 G1 X 0129.29 Y 0044.04 E 1384.93
G1 X 0129.29 Y 0044.04 E 1387.18
 G1 X 0144.08 Y 0051.43 E 1388.24
G1 X 0144.08 Y 0051.43 E 1390.33
 G1 X 0156.90 Y 0060.55 E 1391.39
G1 X 0156.90 Y 0060.55 E 1390.33
 G1 X 0156.90 Y 0060.55 E 1391.39
G1 X 0156.90 Y 0060.55 E 1411.33
 G1 X 0128.99 Y 0161.79 E 1412.39
G0  F600 Z1.8
M107
G10
G0 F9000 X110.000 Y126.900 Z15.000
M25 ;Stop reading from this point on.
