;FLAVOR:UltiGCode
; TIME:400
;MATERIAL:160
; MATERIAL2: 0
;NOZZLE_DIAMETER:0.400000
;NOZZLE_DIAMETER2:  0.400000
;Layer count: 98
;LAYER: 0
M107
G0  F600 Z0.3
;INSOLE EDGES
;CONTOUR EDGES
G1 X 0012.84 Y 0060.55 E -0001.06
 G1 X 0012.84 Y 0060.55 E 0000.00
G1 X 0012.84 Y 0060.55 E 0001.95
 G1 X 0024.88 Y 0069.56 E 0003.01
G1 X 0024.88 Y 0069.56 E 0013.35
 G1 X 0071.83 Y 0101.91 E 0014.41
G1 X 0071.83 Y 0101.91 E 0024.50
 G1 X 0124.92 Y 0118.87 E 0025.56
G1 X 0124.92 Y 0118.87 E 0033.17
 G1 X 0165.68 Y 0133.63 E 0034.23
G1 X 0165.68 Y 0133.63 E 0040.61
 G1 X 0184.63 Y 0165.64 E 0041.67
G1 X 0184.63 Y 0165.64 E 0044.36
 G1 X 0180.63 Y 0183.97 E 0045.42
G1 X 0180.63 Y 0183.97 E 0049.28
 G1 X 0165.85 Y 0203.64 E 0050.34
G1 X 0165.85 Y 0203.64 E 0056.83
 G1 X 0128.31 Y 0207.40 E 0057.89
G1 X 0128.31 Y 0207.40 E 0065.49
 G1 X 0086.98 Y 0194.40 E 0066.55
G1 X 0086.98 Y 0194.40 E 0072.04
 G1 X 0055.79 Y 0184.41 E 0073.10
G1 X 0055.79 Y 0184.41 E 0072.04
 G1 X 0055.79 Y 0184.41 E 0073.10
G1 X 0055.79 Y 0184.41 E 0098.26
 G1 X 0012.84 Y 0060.55 E 0099.32
G0  F600 Z0.6
;INSOLE EDGES
;CONTOUR EDGES
G1 X 0012.84 Y 0060.55 E 0098.26
 G1 X 0012.84 Y 0060.55 E 0099.32
G1 X 0012.84 Y 0060.55 E 0101.27
 G1 X 0024.88 Y 0069.56 E 0102.33
G1 X 0024.88 Y 0069.56 E 0112.67
 G1 X 0071.83 Y 0101.91 E 0113.73
G1 X 0071.83 Y 0101.91 E 0123.82
 G1 X 0124.92 Y 0118.87 E 0124.88
G1 X 0124.92 Y 0118.87 E 0132.49
 G1 X 0165.68 Y 0133.63 E 0133.55
G1 X 0165.68 Y 0133.63 E 0139.93
 G1 X 0184.63 Y 0165.64 E 0140.99
G1 X 0184.63 Y 0165.64 E 0143.68
 G1 X 0180.63 Y 0183.97 E 0144.74
G1 X 0180.63 Y 0183.97 E 0148.60
 G1 X 0165.85 Y 0203.64 E 0149.66
G1 X 0165.85 Y 0203.64 E 0156.15
 G1 X 0128.31 Y 0207.40 E 0157.21
G1 X 0128.31 Y 0207.40 E 0164.81
 G1 X 0086.98 Y 0194.40 E 0165.87
G1 X 0086.98 Y 0194.40 E 0171.36
 G1 X 0055.79 Y 0184.41 E 0172.42
G1 X 0055.79 Y 0184.41 E 0171.36
 G1 X 0055.79 Y 0184.41 E 0172.42
G1 X 0055.79 Y 0184.41 E 0197.58
 G1 X 0012.84 Y 0060.55 E 0198.64
G0  F600 Z0.90000004
;INSOLE EDGES
;CONTOUR EDGES
G1 X 0012.84 Y 0060.55 E 0197.58
 G1 X 0012.84 Y 0060.55 E 0198.64
G1 X 0012.84 Y 0060.55 E 0200.59
 G1 X 0024.88 Y 0069.56 E 0201.65
G1 X 0024.88 Y 0069.56 E 0211.99
 G1 X 0071.83 Y 0101.91 E 0213.05
G1 X 0071.83 Y 0101.91 E 0223.14
 G1 X 0124.92 Y 0118.87 E 0224.20
G1 X 0124.92 Y 0118.87 E 0231.81
 G1 X 0165.68 Y 0133.63 E 0232.87
G1 X 0165.68 Y 0133.63 E 0239.25
 G1 X 0184.63 Y 0165.64 E 0240.31
G1 X 0184.63 Y 0165.64 E 0243.00
 G1 X 0180.63 Y 0183.97 E 0244.06
G1 X 0180.63 Y 0183.97 E 0247.92
 G1 X 0165.85 Y 0203.64 E 0248.98
G1 X 0165.85 Y 0203.64 E 0255.47
 G1 X 0128.31 Y 0207.40 E 0256.53
G1 X 0128.31 Y 0207.40 E 0264.13
 G1 X 0086.98 Y 0194.40 E 0265.19
G1 X 0086.98 Y 0194.40 E 0270.68
 G1 X 0055.79 Y 0184.41 E 0271.74
G1 X 0055.79 Y 0184.41 E 0270.68
 G1 X 0055.79 Y 0184.41 E 0271.74
G1 X 0055.79 Y 0184.41 E 0296.90
 G1 X 0012.84 Y 0060.55 E 0297.96
G0  F600 Z1.2
;INSOLE EDGES
;CONTOUR EDGES
G1 X 0012.84 Y 0060.55 E 0296.90
 G1 X 0012.84 Y 0060.55 E 0297.96
G1 X 0012.84 Y 0060.55 E 0299.91
 G1 X 0024.88 Y 0069.56 E 0300.97
G1 X 0024.88 Y 0069.56 E 0311.31
 G1 X 0071.83 Y 0101.91 E 0312.37
G1 X 0071.83 Y 0101.91 E 0322.46
 G1 X 0124.92 Y 0118.87 E 0323.52
G1 X 0124.92 Y 0118.87 E 0331.13
 G1 X 0165.68 Y 0133.63 E 0332.19
G1 X 0165.68 Y 0133.63 E 0338.57
 G1 X 0184.63 Y 0165.64 E 0339.63
G1 X 0184.63 Y 0165.64 E 0342.32
 G1 X 0180.63 Y 0183.97 E 0343.38
G1 X 0180.63 Y 0183.97 E 0347.25
 G1 X 0165.85 Y 0203.64 E 0348.30
G1 X 0165.85 Y 0203.64 E 0354.79
 G1 X 0128.31 Y 0207.40 E 0355.85
G1 X 0128.31 Y 0207.40 E 0363.45
 G1 X 0086.98 Y 0194.40 E 0364.51
G1 X 0086.98 Y 0194.40 E 0370.00
 G1 X 0055.79 Y 0184.41 E 0371.06
G1 X 0055.79 Y 0184.41 E 0370.00
 G1 X 0055.79 Y 0184.41 E 0371.06
G1 X 0055.79 Y 0184.41 E 0396.22
 G1 X 0012.84 Y 0060.55 E 0397.28
G0  F600 Z1.5
;INSOLE EDGES
;CONTOUR EDGES
G1 X 0012.84 Y 0060.55 E 0396.22
 G1 X 0012.84 Y 0060.55 E 0397.28
G1 X 0012.84 Y 0060.55 E 0399.23
 G1 X 0024.88 Y 0069.56 E 0400.29
G1 X 0024.88 Y 0069.56 E 0410.64
 G1 X 0071.83 Y 0101.91 E 0411.69
G1 X 0071.83 Y 0101.91 E 0421.78
 G1 X 0124.92 Y 0118.87 E 0422.84
G1 X 0124.92 Y 0118.87 E 0430.45
 G1 X 0165.68 Y 0133.63 E 0431.51
G1 X 0165.68 Y 0133.63 E 0437.89
 G1 X 0184.63 Y 0165.64 E 0438.95
G1 X 0184.63 Y 0165.64 E 0441.64
 G1 X 0180.63 Y 0183.97 E 0442.70
G1 X 0180.63 Y 0183.97 E 0446.57
 G1 X 0165.85 Y 0203.64 E 0447.62
G1 X 0165.85 Y 0203.64 E 0454.11
 G1 X 0128.31 Y 0207.40 E 0455.17
G1 X 0128.31 Y 0207.40 E 0462.78
 G1 X 0086.98 Y 0194.40 E 0463.83
G1 X 0086.98 Y 0194.40 E 0469.33
 G1 X 0055.79 Y 0184.41 E 0470.38
G1 X 0055.79 Y 0184.41 E 0469.33
 G1 X 0055.79 Y 0184.41 E 0470.38
G1 X 0055.79 Y 0184.41 E 0495.54
 G1 X 0012.84 Y 0060.55 E 0496.60
G0  F600 Z1.8
M107
G10
G0 F9000 X110.000 Y126.900 Z15.000
M25 ;Stop reading from this point on.
;CURA_PROFILE_STRING:eNrtWt1v2zYQfxWC/RF8bLHGk2S7aWvoYe2SvqRDgXhYmxeBlmiLi0QKJBXHCfy/746iFNlRunQN1o/JDw70093xePe7j6LO6YapOGN8lZnIHwXemuZ5bDKeXAimNUATTzGjaGK4FDETdJGzaK4q5mmZ8zTOrYGuwnNvycFGyoTmZhOFvlcqLkysS8bSaNo8GlaUTFFTKRaFQQ8aRj3guA+c9IHTFlywdOe0I9/TVVlKZaK5rJKMixVZVDxPy5wa5uH3UqoipmnGNNw6+l0K1qjEaUXzmF0ZVdl3r6XJvDUvWWzkmqnohOaadYD4UuZVwaJg6kl5zWKdcZanTgwCRQsGLqYc/hpQD0cvpndhDMUdcNwHTvrAaRdc5nIdBb4/8j0hr69zcIlfs/1E18maoFQHpYWshIkmo2kXtRFxr4Lnu+8KLmJ4uGR5FOy+SWSxgMhHv+b5ngIvdiIMPoRdiUyWiHkLaYwsdqg39iwd/XjNU5PFS9CQCi/rycVfLAEOcnEBwZCXTOW0tJ4j66de7aO7djDt2K8JXr8ALnNh2V0/o5gtA6oY7WBcaGb8feCqAyRS5jY4rn44UAQST5sSS12NXXCgXM4Fg3jZ+DpoRctojKfbpyZoORMrkzn/0diyAl9ddU8d5u7od57igl5ZpHVrCSiUC/DWgRmjUOx8aRx16+o3kIvucx2zW3bnsQs18h8KkFs+QkVCgbG4jmVjwNWX2ZQsOoUb6xaiYgVN53lbtrG1XLs3bcGrDRBeGyoSZPNRi193YZQvuaI5ct4dzIsSqqCQqWtsC3CzG3PIuqJLiDJVKy5sHO2zFdElTZDG4wZdUM32SHmLo4rlJlSDk4cOxRQwdVcpPNp/e6tqSxVfUq6ABzF0bMupDoYWwhrQldNHouloD+07s9XYOXHJr6D0lOLAzrgSth3gqIB0xbQO3KdEFi0pujIQElkyES+40X0C0AVwjFxCnA03tlU7sTKvIBmQIeDQKmrqO2EYr/gqOgz2oA1APwENlBmtEkz17CznCUsJNa/ITUo3W/w2DP5gMW4PZq+p5gmBujVwqn5FTjGApC4mUMk7k3NL/oSLgszN7vjckhNgKsDdiQim3+NcIngOvHOTqz70xLVpAqFJa8W6bdf9dVt0oHV99qqjlUhtulr4DFbfBS99cnbTOw63ZPaHgGZs9Y0kNE3JRlaKyLUgIEs6sgQpgeb8l625h5q6Y+ZtGBD3mUFbUBDsS5pXTB+8BW+bN3QBnaUyjJQSggeUgmQcvHsRtgKQIGKHRQrZwUMbBSzoA3D1qJXE7JM1NxkxGSPQ/YhcLsGPF+SDTz766Ae0K/Lhl49oCNogYSLV0OO0FTr3nbModH5XJCDnATQHcnLTnSZbp4BHNqsFSTEiwbQo4K4hOW6ve/uZXTMlrZK7XErq7o7nnIS+T47HexpOkIyLAi5GsIUTcC25+PxDCF1RLuxRu5cB7laG2Mzj2lQAyemKESnI6ZvfiE4UYwKCHhyR905mNBp5EKOm6o5FSt6+camZkLMerzp3wXqDolQ2Ue+CiX+vgpVLLWFvVcgTvkQGkgyuQLh5CpEIyAM+M8UgVdB3dmgH4Tg+hJCMff8flO2yUrOsKU1KoMmRevIRHKQYP5Sot7BnyCc4lcGYIFoWDFNoOaMgxlA0ll8/+6Mp+DAlHw5DoCx+9bPtnFSlO5JCxBuPWm/YJRNQIWj2lv6fvNR9pfEMvLWO4oZAuCYSCOJ8X9MN1OrkfqPasBK6gq4L8eX9PvT3gRn0IAl3wvEAdFttPVvj4dDiH6HFT768xdeTYh70WQr/lSn/686db32azO/pbrOzNa5PeApqhtASmg77JRMo8PsnUOA/6giyZx3e9P+Tc3sw9x906SVX2nxP136kyRveM3rn/mdOX9QJhok9TOzHn9jjYWIPE/v/ObHDBw2vsfqhJvawpgxryt6aMv6aawrqhMNqM6w2j7/aTIbV5ptabcLHW22GLek/25LGD5qdE3D6B1oYhtVwWA2H1VCkk+9tNUSd8bBODuvk466T7gct3V8xtODtf7HWv9fZEbJIR0IxmLEJGyX6MvIgCXWbOXa8bBfWuvksmFlDZdpLJ5VSNsQNhTEBNtGAtOgzss5Aoa10u0wUVW54mbftQunRwWyeQVDxNAwurDeW5ZZFaHT+RDz1ICbmW/KPLrEAG/f+BnWV/Wo=
