;FLAVOR:UltiGCode
; TIME:400
;MATERIAL:160
; MATERIAL2: 0
;NOZZLE_DIAMETER:0.400000
;NOZZLE_DIAMETER2:  0.400000
;Layer count: 98
;LAYER: 0
M107
G0  F600 Z0.3
;INSOLE EDGES
G1 X 0099.37 Y 0105.71 E 1033.67
 G1 X 0117.47 Y 0151.43 E 1034.73
G1 X 0080.54 Y 0106.76 E 1036.61
 G1 X 0070.81 Y 0117.81 E 1037.67
G1 X 0080.54 Y 0106.76 E 1040.38
 G1 X 0099.37 Y 0105.71 E 1041.44
G1 X 0107.35 Y 0101.61 E 1048.66
 G1 X 0127.87 Y 0137.52 E 1049.72
G1 X 0107.35 Y 0101.61 E 1050.45
 G1 X 0099.37 Y 0105.71 E 1051.51
G1 X 0075.32 Y 0081.78 E 1055.55
 G1 X 0080.54 Y 0106.76 E 1056.61
G1 X 0075.32 Y 0081.78 E 1057.30
 G1 X 0076.59 Y 0073.13 E 1058.36
G1 X 0048.10 Y 0085.86 E 1062.81
 G1 X 0075.32 Y 0081.78 E 1063.87
G1 X 0044.36 Y 0053.26 E 1070.38
 G1 X 0076.59 Y 0073.13 E 1071.44
G1 X 0082.31 Y 0068.62 E 1071.84
 G1 X 0076.59 Y 0073.13 E 1072.90
G1 X 0084.78 Y 0033.61 E 1078.86
 G1 X 0082.31 Y 0068.62 E 1079.92
G1 X 0096.66 Y 0068.62 E 1081.73
 G1 X 0082.31 Y 0068.62 E 1082.79
G1 X 0115.75 Y 0054.55 E 1084.64
 G1 X 0120.47 Y 0040.79 E 1085.70
G1 X 0115.75 Y 0054.55 E 1089.38
 G1 X 0096.66 Y 0068.62 E 1090.44
G1 X 0129.87 Y 0093.08 E 1091.36
 G1 X 0139.53 Y 0095.22 E 1092.42
G1 X 0129.87 Y 0093.08 E 1099.57
 G1 X 0115.75 Y 0054.55 E 1100.62
G1 X 0115.07 Y 0096.23 E 1101.45
 G1 X 0107.35 Y 0101.61 E 1102.51
G1 X 0115.07 Y 0096.23 E 1108.09
 G1 X 0096.66 Y 0068.62 E 1109.14
G1 X 0115.07 Y 0096.23 E 1111.11
 G1 X 0129.87 Y 0093.08 E 1112.17
;CONTOUR EDGES
G1 X 0123.19 Y 0154.51 E 1111.11
 G1 X 0123.19 Y 0154.51 E 1112.17
G1 X 0123.19 Y 0154.51 E 1114.26
 G1 X 0109.34 Y 0147.06 E 1115.32
G1 X 0109.34 Y 0147.06 E 1118.00
 G1 X 0093.30 Y 0137.40 E 1119.06
G1 X 0093.30 Y 0137.40 E 1122.48
 G1 X 0076.00 Y 0123.17 E 1123.54
G1 X 0076.00 Y 0123.17 E 1126.38
 G1 X 0062.44 Y 0109.15 E 1127.44
G1 X 0062.44 Y 0109.15 E 1129.85
 G1 X 0052.34 Y 0095.08 E 1130.91
G1 X 0052.34 Y 0095.08 E 1134.12
 G1 X 0043.41 Y 0075.65 E 1135.18
G1 X 0043.41 Y 0075.65 E 1138.56
 G1 X 0044.19 Y 0053.51 E 1139.61
G1 X 0044.19 Y 0053.51 E 1141.57
 G1 X 0052.97 Y 0041.29 E 1142.62
G1 X 0052.97 Y 0041.29 E 1145.38
 G1 X 0070.27 Y 0033.24 E 1146.44
G1 X 0070.27 Y 0033.24 E 1150.91
 G1 X 0097.91 Y 0033.94 E 1151.97
G1 X 0097.91 Y 0033.94 E 1155.63
 G1 X 0120.48 Y 0040.79 E 1156.69
G1 X 0120.48 Y 0040.79 E 1156.28
 G1 X 0123.47 Y 0042.06 E 1157.34
G1 X 0123.47 Y 0042.06 E 1159.44
 G1 X 0137.60 Y 0049.11 E 1160.50
G1 X 0137.60 Y 0049.11 E 1162.44
 G1 X 0149.84 Y 0057.83 E 1163.50
G1 X 0149.84 Y 0057.83 E 1162.44
 G1 X 0149.84 Y 0057.83 E 1163.50
G1 X 0149.84 Y 0057.83 E 1182.50
 G1 X 0123.19 Y 0154.51 E 1183.56
G0  F600 Z0.6
;INSOLE EDGES
G1 X 0099.37 Y 0105.71 E 1192.34
 G1 X 0117.47 Y 0151.43 E 1193.39
G1 X 0080.54 Y 0106.76 E 1195.28
 G1 X 0070.81 Y 0117.81 E 1196.34
G1 X 0080.54 Y 0106.76 E 1199.05
 G1 X 0099.37 Y 0105.71 E 1200.11
G1 X 0107.35 Y 0101.61 E 1207.33
 G1 X 0127.87 Y 0137.52 E 1208.38
G1 X 0107.35 Y 0101.61 E 1209.12
 G1 X 0099.37 Y 0105.71 E 1210.18
G1 X 0075.32 Y 0081.78 E 1214.22
 G1 X 0080.54 Y 0106.76 E 1215.28
G1 X 0075.32 Y 0081.78 E 1215.97
 G1 X 0076.59 Y 0073.13 E 1217.03
G1 X 0048.10 Y 0085.86 E 1221.48
 G1 X 0075.32 Y 0081.78 E 1222.53
G1 X 0044.36 Y 0053.26 E 1229.05
 G1 X 0076.59 Y 0073.13 E 1230.11
G1 X 0082.31 Y 0068.62 E 1230.51
 G1 X 0076.59 Y 0073.13 E 1231.56
G1 X 0084.78 Y 0033.61 E 1237.53
 G1 X 0082.31 Y 0068.62 E 1238.58
G1 X 0096.66 Y 0068.62 E 1240.40
 G1 X 0082.31 Y 0068.62 E 1241.45
G1 X 0115.75 Y 0054.55 E 1243.31
 G1 X 0120.47 Y 0040.79 E 1244.36
G1 X 0115.75 Y 0054.55 E 1248.05
 G1 X 0096.66 Y 0068.62 E 1249.11
G1 X 0129.87 Y 0093.08 E 1250.03
 G1 X 0139.53 Y 0095.22 E 1251.08
G1 X 0129.87 Y 0093.08 E 1258.23
 G1 X 0115.75 Y 0054.55 E 1259.29
G1 X 0115.07 Y 0096.23 E 1260.12
 G1 X 0107.35 Y 0101.61 E 1261.17
G1 X 0115.07 Y 0096.23 E 1266.75
 G1 X 0096.66 Y 0068.62 E 1267.81
G1 X 0115.07 Y 0096.23 E 1269.78
 G1 X 0129.87 Y 0093.08 E 1270.84
;CONTOUR EDGES
G1 X 0123.19 Y 0154.51 E 1269.78
 G1 X 0123.19 Y 0154.51 E 1270.84
G1 X 0123.19 Y 0154.51 E 1272.93
 G1 X 0109.34 Y 0147.06 E 1273.98
G1 X 0109.34 Y 0147.06 E 1276.67
 G1 X 0093.30 Y 0137.40 E 1277.73
G1 X 0093.30 Y 0137.40 E 1281.15
 G1 X 0076.00 Y 0123.17 E 1282.21
G1 X 0076.00 Y 0123.17 E 1285.05
 G1 X 0062.44 Y 0109.15 E 1286.11
G1 X 0062.44 Y 0109.15 E 1288.52
 G1 X 0052.34 Y 0095.08 E 1289.57
G1 X 0052.34 Y 0095.08 E 1292.79
 G1 X 0043.41 Y 0075.65 E 1293.85
G1 X 0043.41 Y 0075.65 E 1297.22
 G1 X 0044.19 Y 0053.51 E 1298.28
G1 X 0044.19 Y 0053.51 E 1300.23
 G1 X 0052.97 Y 0041.29 E 1301.29
G1 X 0052.97 Y 0041.29 E 1304.05
 G1 X 0070.27 Y 0033.24 E 1305.11
G1 X 0070.27 Y 0033.24 E 1309.58
 G1 X 0097.91 Y 0033.94 E 1310.64
G1 X 0097.91 Y 0033.94 E 1314.30
 G1 X 0120.48 Y 0040.79 E 1315.36
G1 X 0120.48 Y 0040.79 E 1314.95
 G1 X 0123.47 Y 0042.06 E 1316.01
G1 X 0123.47 Y 0042.06 E 1318.11
 G1 X 0137.60 Y 0049.11 E 1319.16
G1 X 0137.60 Y 0049.11 E 1321.11
 G1 X 0149.84 Y 0057.83 E 1322.17
G1 X 0149.84 Y 0057.83 E 1321.11
 G1 X 0149.84 Y 0057.83 E 1322.17
G1 X 0149.84 Y 0057.83 E 1341.17
 G1 X 0123.19 Y 0154.51 E 1342.23
G0  F600 Z0.90000004
;INSOLE EDGES
G1 X 0099.37 Y 0105.71 E 1351.00
 G1 X 0117.47 Y 0151.43 E 1352.06
G1 X 0080.54 Y 0106.76 E 1353.95
 G1 X 0070.81 Y 0117.81 E 1355.01
G1 X 0080.54 Y 0106.76 E 1357.72
 G1 X 0099.37 Y 0105.71 E 1358.78
G1 X 0107.35 Y 0101.61 E 1365.99
 G1 X 0127.87 Y 0137.52 E 1367.05
G1 X 0107.35 Y 0101.61 E 1367.79
 G1 X 0099.37 Y 0105.71 E 1368.85
G1 X 0075.32 Y 0081.78 E 1372.89
 G1 X 0080.54 Y 0106.76 E 1373.95
G1 X 0075.32 Y 0081.78 E 1374.64
 G1 X 0076.59 Y 0073.13 E 1375.70
G1 X 0048.10 Y 0085.86 E 1380.14
 G1 X 0075.32 Y 0081.78 E 1381.20
G1 X 0044.36 Y 0053.26 E 1387.72
 G1 X 0076.59 Y 0073.13 E 1388.77
G1 X 0082.31 Y 0068.62 E 1389.17
 G1 X 0076.59 Y 0073.13 E 1390.23
G1 X 0084.78 Y 0033.61 E 1396.19
 G1 X 0082.31 Y 0068.62 E 1397.25
G1 X 0096.66 Y 0068.62 E 1399.06
 G1 X 0082.31 Y 0068.62 E 1400.12
G1 X 0115.75 Y 0054.55 E 1401.97
 G1 X 0120.47 Y 0040.79 E 1403.03
G1 X 0115.75 Y 0054.55 E 1406.72
 G1 X 0096.66 Y 0068.62 E 1407.77
G1 X 0129.87 Y 0093.08 E 1408.69
 G1 X 0139.53 Y 0095.22 E 1409.75
G1 X 0129.87 Y 0093.08 E 1416.90
 G1 X 0115.75 Y 0054.55 E 1417.96
G1 X 0115.07 Y 0096.23 E 1418.78
 G1 X 0107.35 Y 0101.61 E 1419.84
G1 X 0115.07 Y 0096.23 E 1425.42
 G1 X 0096.66 Y 0068.62 E 1426.48
G1 X 0115.07 Y 0096.23 E 1428.45
 G1 X 0129.87 Y 0093.08 E 1429.51
;CONTOUR EDGES
G1 X 0123.19 Y 0154.51 E 1428.45
 G1 X 0123.19 Y 0154.51 E 1429.51
G1 X 0123.19 Y 0154.51 E 1431.59
 G1 X 0109.34 Y 0147.06 E 1432.65
G1 X 0109.34 Y 0147.06 E 1435.34
 G1 X 0093.30 Y 0137.40 E 1436.40
G1 X 0093.30 Y 0137.40 E 1439.82
 G1 X 0076.00 Y 0123.17 E 1440.88
G1 X 0076.00 Y 0123.17 E 1443.72
 G1 X 0062.44 Y 0109.15 E 1444.78
G1 X 0062.44 Y 0109.15 E 1447.18
 G1 X 0052.34 Y 0095.08 E 1448.24
G1 X 0052.34 Y 0095.08 E 1451.46
 G1 X 0043.41 Y 0075.65 E 1452.52
G1 X 0043.41 Y 0075.65 E 1455.89
 G1 X 0044.19 Y 0053.51 E 1456.95
G1 X 0044.19 Y 0053.51 E 1458.90
 G1 X 0052.97 Y 0041.29 E 1459.96
G1 X 0052.97 Y 0041.29 E 1462.72
 G1 X 0070.27 Y 0033.24 E 1463.78
G1 X 0070.27 Y 0033.24 E 1468.25
 G1 X 0097.91 Y 0033.94 E 1469.31
G1 X 0097.91 Y 0033.94 E 1472.97
 G1 X 0120.48 Y 0040.79 E 1474.02
G1 X 0120.48 Y 0040.79 E 1473.62
 G1 X 0123.47 Y 0042.06 E 1474.67
G1 X 0123.47 Y 0042.06 E 1476.77
 G1 X 0137.60 Y 0049.11 E 1477.83
G1 X 0137.60 Y 0049.11 E 1479.78
 G1 X 0149.84 Y 0057.83 E 1480.84
G1 X 0149.84 Y 0057.83 E 1479.78
 G1 X 0149.84 Y 0057.83 E 1480.84
G1 X 0149.84 Y 0057.83 E 1499.84
 G1 X 0123.19 Y 0154.51 E 1500.90
G0  F600 Z1.2
;INSOLE EDGES
G1 X 0099.37 Y 0105.71 E 1509.67
 G1 X 0117.47 Y 0151.43 E 1510.73
G1 X 0080.54 Y 0106.76 E 1512.62
 G1 X 0070.81 Y 0117.81 E 1513.68
G1 X 0080.54 Y 0106.76 E 1516.39
 G1 X 0099.37 Y 0105.71 E 1517.45
G1 X 0107.35 Y 0101.61 E 1524.66
 G1 X 0127.87 Y 0137.52 E 1525.72
G1 X 0107.35 Y 0101.61 E 1526.46
 G1 X 0099.37 Y 0105.71 E 1527.51
G1 X 0075.32 Y 0081.78 E 1531.56
 G1 X 0080.54 Y 0106.76 E 1532.62
G1 X 0075.32 Y 0081.78 E 1533.31
 G1 X 0076.59 Y 0073.13 E 1534.37
G1 X 0048.10 Y 0085.86 E 1538.81
 G1 X 0075.32 Y 0081.78 E 1539.87
G1 X 0044.36 Y 0053.26 E 1546.38
 G1 X 0076.59 Y 0073.13 E 1547.44
G1 X 0082.31 Y 0068.62 E 1547.84
 G1 X 0076.59 Y 0073.13 E 1548.90
G1 X 0084.78 Y 0033.61 E 1554.86
 G1 X 0082.31 Y 0068.62 E 1555.92
G1 X 0096.66 Y 0068.62 E 1557.73
 G1 X 0082.31 Y 0068.62 E 1558.79
G1 X 0115.75 Y 0054.55 E 1560.64
 G1 X 0120.47 Y 0040.79 E 1561.70
G1 X 0115.75 Y 0054.55 E 1565.38
 G1 X 0096.66 Y 0068.62 E 1566.44
G1 X 0129.87 Y 0093.08 E 1567.36
 G1 X 0139.53 Y 0095.22 E 1568.42
G1 X 0129.87 Y 0093.08 E 1575.57
 G1 X 0115.75 Y 0054.55 E 1576.63
G1 X 0115.07 Y 0096.23 E 1577.45
 G1 X 0107.35 Y 0101.61 E 1578.51
G1 X 0115.07 Y 0096.23 E 1584.09
 G1 X 0096.66 Y 0068.62 E 1585.15
G1 X 0115.07 Y 0096.23 E 1587.12
 G1 X 0129.87 Y 0093.08 E 1588.17
;CONTOUR EDGES
G1 X 0123.19 Y 0154.51 E 1587.12
 G1 X 0123.19 Y 0154.51 E 1588.17
G1 X 0123.19 Y 0154.51 E 1590.26
 G1 X 0109.34 Y 0147.06 E 1591.32
G1 X 0109.34 Y 0147.06 E 1594.01
 G1 X 0093.30 Y 0137.40 E 1595.06
G1 X 0093.30 Y 0137.40 E 1598.49
 G1 X 0076.00 Y 0123.17 E 1599.55
G1 X 0076.00 Y 0123.17 E 1602.39
 G1 X 0062.44 Y 0109.15 E 1603.45
G1 X 0062.44 Y 0109.15 E 1605.85
 G1 X 0052.34 Y 0095.08 E 1606.91
G1 X 0052.34 Y 0095.08 E 1610.13
 G1 X 0043.41 Y 0075.65 E 1611.19
G1 X 0043.41 Y 0075.65 E 1614.56
 G1 X 0044.19 Y 0053.51 E 1615.62
G1 X 0044.19 Y 0053.51 E 1617.57
 G1 X 0052.97 Y 0041.29 E 1618.63
G1 X 0052.97 Y 0041.29 E 1621.39
 G1 X 0070.27 Y 0033.24 E 1622.44
G1 X 0070.27 Y 0033.24 E 1626.92
 G1 X 0097.91 Y 0033.94 E 1627.97
G1 X 0097.91 Y 0033.94 E 1631.63
 G1 X 0120.48 Y 0040.79 E 1632.69
G1 X 0120.48 Y 0040.79 E 1632.28
 G1 X 0123.47 Y 0042.06 E 1633.34
G1 X 0123.47 Y 0042.06 E 1635.44
 G1 X 0137.60 Y 0049.11 E 1636.50
G1 X 0137.60 Y 0049.11 E 1638.45
 G1 X 0149.84 Y 0057.83 E 1639.50
G1 X 0149.84 Y 0057.83 E 1638.45
 G1 X 0149.84 Y 0057.83 E 1639.50
G1 X 0149.84 Y 0057.83 E 1658.51
 G1 X 0123.19 Y 0154.51 E 1659.56
G0  F600 Z1.5
;INSOLE EDGES
G1 X 0099.37 Y 0105.71 E 1668.34
 G1 X 0117.47 Y 0151.43 E 1669.40
G1 X 0080.54 Y 0106.76 E 1671.29
 G1 X 0070.81 Y 0117.81 E 1672.34
G1 X 0080.54 Y 0106.76 E 1675.06
 G1 X 0099.37 Y 0105.71 E 1676.11
G1 X 0107.35 Y 0101.61 E 1683.33
 G1 X 0127.87 Y 0137.52 E 1684.39
G1 X 0107.35 Y 0101.61 E 1685.12
 G1 X 0099.37 Y 0105.71 E 1686.18
G1 X 0075.32 Y 0081.78 E 1690.23
 G1 X 0080.54 Y 0106.76 E 1691.28
G1 X 0075.32 Y 0081.78 E 1691.98
 G1 X 0076.59 Y 0073.13 E 1693.03
G1 X 0048.10 Y 0085.86 E 1697.48
 G1 X 0075.32 Y 0081.78 E 1698.54
G1 X 0044.36 Y 0053.26 E 1705.05
 G1 X 0076.59 Y 0073.13 E 1706.11
G1 X 0082.31 Y 0068.62 E 1706.51
 G1 X 0076.59 Y 0073.13 E 1707.57
G1 X 0084.78 Y 0033.61 E 1713.53
 G1 X 0082.31 Y 0068.62 E 1714.59
G1 X 0096.66 Y 0068.62 E 1716.40
 G1 X 0082.31 Y 0068.62 E 1717.46
G1 X 0115.75 Y 0054.55 E 1719.31
 G1 X 0120.47 Y 0040.79 E 1720.37
G1 X 0115.75 Y 0054.55 E 1724.05
 G1 X 0096.66 Y 0068.62 E 1725.11
G1 X 0129.87 Y 0093.08 E 1726.03
 G1 X 0139.53 Y 0095.22 E 1727.09
G1 X 0129.87 Y 0093.08 E 1734.24
 G1 X 0115.75 Y 0054.55 E 1735.30
G1 X 0115.07 Y 0096.23 E 1736.12
 G1 X 0107.35 Y 0101.61 E 1737.18
G1 X 0115.07 Y 0096.23 E 1742.76
 G1 X 0096.66 Y 0068.62 E 1743.82
G1 X 0115.07 Y 0096.23 E 1745.78
 G1 X 0129.87 Y 0093.08 E 1746.84
;CONTOUR EDGES
G1 X 0123.19 Y 0154.51 E 1745.78
 G1 X 0123.19 Y 0154.51 E 1746.84
G1 X 0123.19 Y 0154.51 E 1748.93
 G1 X 0109.34 Y 0147.06 E 1749.99
G1 X 0109.34 Y 0147.06 E 1752.67
 G1 X 0093.30 Y 0137.40 E 1753.73
G1 X 0093.30 Y 0137.40 E 1757.16
 G1 X 0076.00 Y 0123.17 E 1758.21
G1 X 0076.00 Y 0123.17 E 1761.05
 G1 X 0062.44 Y 0109.15 E 1762.11
G1 X 0062.44 Y 0109.15 E 1764.52
 G1 X 0052.34 Y 0095.08 E 1765.58
G1 X 0052.34 Y 0095.08 E 1768.80
 G1 X 0043.41 Y 0075.65 E 1769.85
G1 X 0043.41 Y 0075.65 E 1773.23
 G1 X 0044.19 Y 0053.51 E 1774.29
G1 X 0044.19 Y 0053.51 E 1776.24
 G1 X 0052.97 Y 0041.29 E 1777.30
G1 X 0052.97 Y 0041.29 E 1780.05
 G1 X 0070.27 Y 0033.24 E 1781.11
G1 X 0070.27 Y 0033.24 E 1785.58
 G1 X 0097.91 Y 0033.94 E 1786.64
G1 X 0097.91 Y 0033.94 E 1790.30
 G1 X 0120.48 Y 0040.79 E 1791.36
G1 X 0120.48 Y 0040.79 E 1790.95
 G1 X 0123.47 Y 0042.06 E 1792.01
G1 X 0123.47 Y 0042.06 E 1794.11
 G1 X 0137.60 Y 0049.11 E 1795.17
G1 X 0137.60 Y 0049.11 E 1797.11
 G1 X 0149.84 Y 0057.83 E 1798.17
G1 X 0149.84 Y 0057.83 E 1797.11
 G1 X 0149.84 Y 0057.83 E 1798.17
G1 X 0149.84 Y 0057.83 E 1817.17
 G1 X 0123.19 Y 0154.51 E 1818.23
G0  F600 Z1.8
M107
G10
G0 F9000 X110.000 Y126.900 Z15.000
M25 ;Stop reading from this point on.
;CURA_PROFILE_STRING:eNrtWt1v2zYQfxWC/RF8bLHGk2S7aWvoYe2SvqRDgXhYmxeBlmiLi0QKJBXHCfy/746iFNlRunQN1o/JDw70093xePe7j6LO6YapOGN8lZnIHwXemuZ5bDKeXAimNUATTzGjaGK4FDETdJGzaK4q5mmZ8zTOrYGuwnNvycFGyoTmZhOFvlcqLkysS8bSaNo8GlaUTFFTKRaFQQ8aRj3guA+c9IHTFlywdOe0I9/TVVlKZaK5rJKMixVZVDxPy5wa5uH3UqoipmnGNNw6+l0K1qjEaUXzmF0ZVdl3r6XJvDUvWWzkmqnohOaadYD4UuZVwaJg6kl5zWKdcZanTgwCRQsGLqYc/hpQD0cvpndhDMUdcNwHTvrAaRdc5nIdBb4/8j0hr69zcIlfs/1E18maoFQHpYWshIkmo2kXtRFxr4Lnu+8KLmJ4uGR5FOy+SWSxgMhHv+b5ngIvdiIMPoRdiUyWiHkLaYwsdqg39iwd/XjNU5PFS9CQCi/rycVfLAEOcnEBwZCXTOW0tJ4j66de7aO7djDt2K8JXr8ALnNh2V0/o5gtA6oY7WBcaGb8feCqAyRS5jY4rn44UAQST5sSS12NXXCgXM4Fg3jZ+DpoRctojKfbpyZoORMrkzn/0diyAl9ddU8d5u7od57igl5ZpHVrCSiUC/DWgRmjUOx8aRx16+o3kIvucx2zW3bnsQs18h8KkFs+QkVCgbG4jmVjwNWX2ZQsOoUb6xaiYgVN53lbtrG1XLs3bcGrDRBeGyoSZPNRi193YZQvuaI5ct4dzIsSqqCQqWtsC3CzG3PIuqJLiDJVKy5sHO2zFdElTZDG4wZdUM32SHmLo4rlJlSDk4cOxRQwdVcpPNp/e6tqSxVfUq6ABzF0bMupDoYWwhrQldNHouloD+07s9XYOXHJr6D0lOLAzrgSth3gqIB0xbQO3KdEFi0pujIQElkyES+40X0C0AVwjFxCnA03tlU7sTKvIBmQIeDQKmrqO2EYr/gqOgz2oA1APwENlBmtEkz17CznCUsJNa/ITUo3W/w2DP5gMW4PZq+p5gmBujVwqn5FTjGApC4mUMk7k3NL/oSLgszN7vjckhNgKsDdiQim3+NcIngOvHOTqz70xLVpAqFJa8W6bdf9dVt0oHV99qqjlUhtulr4DFbfBS99cnbTOw63ZPaHgGZs9Y0kNE3JRlaKyLUgIEs6sgQpgeb8l625h5q6Y+ZtGBD3mUFbUBDsS5pXTB+8BW+bN3QBnaUyjJQSggeUgmQcvHsRtgKQIGKHRQrZwUMbBSzoA3D1qJXE7JM1NxkxGSPQ/YhcLsGPF+SDTz766Ae0K/Lhl49oCNogYSLV0OO0FTr3nbModH5XJCDnATQHcnLTnSZbp4BHNqsFSTEiwbQo4K4hOW6ve/uZXTMlrZK7XErq7o7nnIS+T47HexpOkIyLAi5GsIUTcC25+PxDCF1RLuxRu5cB7laG2Mzj2lQAyemKESnI6ZvfiE4UYwKCHhyR905mNBp5EKOm6o5FSt6+camZkLMerzp3wXqDolQ2Ue+CiX+vgpVLLWFvVcgTvkQGkgyuQLh5CpEIyAM+M8UgVdB3dmgH4Tg+hJCMff8flO2yUrOsKU1KoMmRevIRHKQYP5Sot7BnyCc4lcGYIFoWDFNoOaMgxlA0ll8/+6Mp+DAlHw5DoCx+9bPtnFSlO5JCxBuPWm/YJRNQIWj2lv6fvNR9pfEMvLWO4oZAuCYSCOJ8X9MN1OrkfqPasBK6gq4L8eX9PvT3gRn0IAl3wvEAdFttPVvj4dDiH6HFT768xdeTYh70WQr/lSn/686db32azO/pbrOzNa5PeApqhtASmg77JRMo8PsnUOA/6giyZx3e9P+Tc3sw9x906SVX2nxP136kyRveM3rn/mdOX9QJhok9TOzHn9jjYWIPE/v/ObHDBw2vsfqhJvawpgxryt6aMv6aawrqhMNqM6w2j7/aTIbV5ptabcLHW22GLek/25LGD5qdE3D6B1oYhtVwWA2H1VCkk+9tNUSd8bBODuvk466T7gct3V8xtODtf7HWv9fZEbJIR0IxmLEJGyX6MvIgCXWbOXa8bBfWuvksmFlDZdpLJ5VSNsQNhTEBNtGAtOgzss5Aoa10u0wUVW54mbftQunRwWyeQVDxNAwurDeW5ZZFaHT+RDz1ICbmW/KPLrEAG/f+BnWV/Wo=
