;FLAVOR:UltiGCode
; TIME:400
;MATERIAL:160
; MATERIAL2: 0
;NOZZLE_DIAMETER:0.400000
;NOZZLE_DIAMETER2:  0.400000
;Layer count: 98
;LAYER: 0
M107
G0  F600 Z0.3
;INSOLE EDGES
G1 X 0143.90 Y 0163.17 E 0005.73
 G1 X 0156.50 Y 0194.67 E 0006.78
G1 X 0175.95 Y 0157.56 E 0012.23
 G1 X 0143.90 Y 0163.17 E 0013.29
G1 X 0142.85 Y 0163.06 E 0012.45
 G1 X 0143.90 Y 0163.17 E 0013.50
G1 X 0142.85 Y 0163.06 E 0020.77
 G1 X 0141.28 Y 0121.48 E 0021.83
G1 X 0102.38 Y 0139.59 E 0026.89
 G1 X 0117.42 Y 0112.92 E 0027.95
G1 X 0119.58 Y 0169.93 E 0031.74
 G1 X 0142.85 Y 0163.06 E 0032.80
G1 X 0119.58 Y 0169.93 E 0038.72
 G1 X 0102.38 Y 0139.59 E 0039.78
G1 X 0110.75 Y 0194.36 E 0043.91
 G1 X 0119.58 Y 0169.93 E 0044.97
G1 X 0070.14 Y 0097.82 E 0046.70
 G1 X 0058.88 Y 0106.03 E 0047.76
G1 X 0081.64 Y 0140.44 E 0050.85
 G1 X 0102.38 Y 0139.59 E 0051.91
G1 X 0081.64 Y 0140.44 E 0059.08
 G1 X 0075.95 Y 0099.68 E 0060.14
G1 X 0074.51 Y 0142.92 E 0068.01
 G1 X 0085.09 Y 0186.28 E 0069.07
G1 X 0074.51 Y 0142.92 E 0069.52
 G1 X 0081.64 Y 0140.44 E 0070.58
G1 X 0051.25 Y 0144.15 E 0071.24
 G1 X 0043.54 Y 0148.01 E 0072.30
G1 X 0051.25 Y 0144.15 E 0079.02
 G1 X 0058.88 Y 0106.03 E 0080.08
G1 X 0051.25 Y 0144.15 E 0083.68
 G1 X 0074.51 Y 0142.92 E 0084.74
G1 X 0042.90 Y 0092.86 E 0087.18
 G1 X 0026.74 Y 0099.57 E 0088.24
G1 X 0051.79 Y 0102.93 E 0088.73
 G1 X 0058.88 Y 0106.03 E 0089.78
G1 X 0051.79 Y 0102.93 E 0093.24
 G1 X 0030.81 Y 0111.32 E 0094.30
G1 X 0051.79 Y 0102.93 E 0095.93
 G1 X 0042.90 Y 0092.86 E 0096.99
G1 X 0045.39 Y 0081.34 E 0098.29
 G1 X 0042.90 Y 0092.86 E 0099.35
G1 X 0035.38 Y 0080.94 E 0102.28
 G1 X 0026.46 Y 0098.77 E 0103.33
G1 X 0035.38 Y 0080.94 E 0103.56
 G1 X 0041.31 Y 0078.53 E 0104.62
G1 X 0023.84 Y 0081.38 E 0104.22
 G1 X 0021.08 Y 0083.25 E 0105.28
G1 X 0023.84 Y 0081.38 E 0106.53
 G1 X 0035.38 Y 0080.94 E 0107.59
G1 X 0028.17 Y 0069.47 E 0109.07
 G1 X 0023.84 Y 0081.38 E 0110.13
;CONTOUR EDGES
G1 X 0012.26 Y 0057.83 E 0109.07
 G1 X 0012.26 Y 0057.83 E 0110.13
G1 X 0012.26 Y 0057.83 E 0111.94
 G1 X 0023.76 Y 0066.43 E 0113.00
G1 X 0023.76 Y 0066.43 E 0122.83
 G1 X 0068.59 Y 0097.33 E 0123.89
G1 X 0068.59 Y 0097.33 E 0133.48
 G1 X 0119.30 Y 0113.52 E 0134.54
G1 X 0119.30 Y 0113.52 E 0141.76
 G1 X 0158.23 Y 0127.61 E 0142.82
G1 X 0158.23 Y 0127.61 E 0148.86
 G1 X 0176.32 Y 0158.19 E 0149.92
G1 X 0176.32 Y 0158.19 E 0152.45
 G1 X 0172.50 Y 0175.69 E 0153.50
G1 X 0172.50 Y 0175.69 E 0157.15
 G1 X 0158.38 Y 0194.48 E 0158.20
G1 X 0158.38 Y 0194.48 E 0164.35
 G1 X 0122.53 Y 0198.07 E 0165.41
G1 X 0122.53 Y 0198.07 E 0172.63
 G1 X 0083.07 Y 0185.65 E 0173.68
G1 X 0083.07 Y 0185.65 E 0178.88
 G1 X 0053.28 Y 0176.11 E 0179.94
G1 X 0053.28 Y 0176.11 E 0178.88
 G1 X 0053.28 Y 0176.11 E 0179.94
G1 X 0053.28 Y 0176.11 E 0203.92
 G1 X 0012.26 Y 0057.83 E 0204.98
G0  F600 Z0.6
;INSOLE EDGES
G1 X 0143.90 Y 0163.17 E 0210.70
 G1 X 0156.50 Y 0194.67 E 0211.76
G1 X 0175.95 Y 0157.56 E 0217.21
 G1 X 0143.90 Y 0163.17 E 0218.27
G1 X 0142.85 Y 0163.06 E 0217.42
 G1 X 0143.90 Y 0163.17 E 0218.48
G1 X 0142.85 Y 0163.06 E 0225.75
 G1 X 0141.28 Y 0121.48 E 0226.80
G1 X 0102.38 Y 0139.59 E 0231.87
 G1 X 0117.42 Y 0112.92 E 0232.93
G1 X 0119.58 Y 0169.93 E 0236.72
 G1 X 0142.85 Y 0163.06 E 0237.78
G1 X 0119.58 Y 0169.93 E 0243.70
 G1 X 0102.38 Y 0139.59 E 0244.75
G1 X 0110.75 Y 0194.36 E 0248.89
 G1 X 0119.58 Y 0169.93 E 0249.95
G1 X 0070.14 Y 0097.82 E 0251.68
 G1 X 0058.88 Y 0106.03 E 0252.74
G1 X 0081.64 Y 0140.44 E 0255.83
 G1 X 0102.38 Y 0139.59 E 0256.89
G1 X 0081.64 Y 0140.44 E 0264.06
 G1 X 0075.95 Y 0099.68 E 0265.12
G1 X 0074.51 Y 0142.92 E 0272.99
 G1 X 0085.09 Y 0186.28 E 0274.05
G1 X 0074.51 Y 0142.92 E 0274.50
 G1 X 0081.64 Y 0140.44 E 0275.56
G1 X 0051.25 Y 0144.15 E 0276.22
 G1 X 0043.54 Y 0148.01 E 0277.28
G1 X 0051.25 Y 0144.15 E 0284.00
 G1 X 0058.88 Y 0106.03 E 0285.06
G1 X 0051.25 Y 0144.15 E 0288.66
 G1 X 0074.51 Y 0142.92 E 0289.72
G1 X 0042.90 Y 0092.86 E 0292.16
 G1 X 0026.74 Y 0099.57 E 0293.22
G1 X 0051.79 Y 0102.93 E 0293.70
 G1 X 0058.88 Y 0106.03 E 0294.76
G1 X 0051.79 Y 0102.93 E 0298.22
 G1 X 0030.81 Y 0111.32 E 0299.28
G1 X 0051.79 Y 0102.93 E 0300.91
 G1 X 0042.90 Y 0092.86 E 0301.97
G1 X 0045.39 Y 0081.34 E 0303.27
 G1 X 0042.90 Y 0092.86 E 0304.33
G1 X 0035.38 Y 0080.94 E 0307.25
 G1 X 0026.46 Y 0098.77 E 0308.31
G1 X 0035.38 Y 0080.94 E 0308.54
 G1 X 0041.31 Y 0078.53 E 0309.59
G1 X 0023.84 Y 0081.38 E 0309.20
 G1 X 0021.08 Y 0083.25 E 0310.26
G1 X 0023.84 Y 0081.38 E 0311.51
 G1 X 0035.38 Y 0080.94 E 0312.57
G1 X 0028.17 Y 0069.47 E 0314.05
 G1 X 0023.84 Y 0081.38 E 0315.11
;CONTOUR EDGES
G1 X 0012.26 Y 0057.83 E 0314.05
 G1 X 0012.26 Y 0057.83 E 0315.11
G1 X 0012.26 Y 0057.83 E 0316.92
 G1 X 0023.76 Y 0066.43 E 0317.98
G1 X 0023.76 Y 0066.43 E 0327.81
 G1 X 0068.59 Y 0097.33 E 0328.87
G1 X 0068.59 Y 0097.33 E 0338.46
 G1 X 0119.30 Y 0113.52 E 0339.51
G1 X 0119.30 Y 0113.52 E 0346.74
 G1 X 0158.23 Y 0127.61 E 0347.79
G1 X 0158.23 Y 0127.61 E 0353.84
 G1 X 0176.32 Y 0158.19 E 0354.90
G1 X 0176.32 Y 0158.19 E 0357.42
 G1 X 0172.50 Y 0175.69 E 0358.48
G1 X 0172.50 Y 0175.69 E 0362.12
 G1 X 0158.38 Y 0194.48 E 0363.18
G1 X 0158.38 Y 0194.48 E 0369.33
 G1 X 0122.53 Y 0198.07 E 0370.39
G1 X 0122.53 Y 0198.07 E 0377.60
 G1 X 0083.07 Y 0185.65 E 0378.66
G1 X 0083.07 Y 0185.65 E 0383.86
 G1 X 0053.28 Y 0176.11 E 0384.92
G1 X 0053.28 Y 0176.11 E 0383.86
 G1 X 0053.28 Y 0176.11 E 0384.92
G1 X 0053.28 Y 0176.11 E 0408.90
 G1 X 0012.26 Y 0057.83 E 0409.96
G0  F600 Z0.90000004
;INSOLE EDGES
G1 X 0143.90 Y 0163.17 E 0415.68
 G1 X 0156.50 Y 0194.67 E 0416.74
G1 X 0175.95 Y 0157.56 E 0422.19
 G1 X 0143.90 Y 0163.17 E 0423.25
G1 X 0142.85 Y 0163.06 E 0422.40
 G1 X 0143.90 Y 0163.17 E 0423.46
G1 X 0142.85 Y 0163.06 E 0430.72
 G1 X 0141.28 Y 0121.48 E 0431.78
G1 X 0102.38 Y 0139.59 E 0436.85
 G1 X 0117.42 Y 0112.92 E 0437.91
G1 X 0119.58 Y 0169.93 E 0441.70
 G1 X 0142.85 Y 0163.06 E 0442.76
G1 X 0119.58 Y 0169.93 E 0448.67
 G1 X 0102.38 Y 0139.59 E 0449.73
G1 X 0110.75 Y 0194.36 E 0453.87
 G1 X 0119.58 Y 0169.93 E 0454.93
G1 X 0070.14 Y 0097.82 E 0456.66
 G1 X 0058.88 Y 0106.03 E 0457.71
G1 X 0081.64 Y 0140.44 E 0460.81
 G1 X 0102.38 Y 0139.59 E 0461.87
G1 X 0081.64 Y 0140.44 E 0469.04
 G1 X 0075.95 Y 0099.68 E 0470.10
G1 X 0074.51 Y 0142.92 E 0477.97
 G1 X 0085.09 Y 0186.28 E 0479.03
G1 X 0074.51 Y 0142.92 E 0479.48
 G1 X 0081.64 Y 0140.44 E 0480.53
G1 X 0051.25 Y 0144.15 E 0481.20
 G1 X 0043.54 Y 0148.01 E 0482.26
G1 X 0051.25 Y 0144.15 E 0488.98
 G1 X 0058.88 Y 0106.03 E 0490.04
G1 X 0051.25 Y 0144.15 E 0493.64
 G1 X 0074.51 Y 0142.92 E 0494.69
G1 X 0042.90 Y 0092.86 E 0497.14
 G1 X 0026.74 Y 0099.57 E 0498.19
G1 X 0051.79 Y 0102.93 E 0498.68
 G1 X 0058.88 Y 0106.03 E 0499.74
G1 X 0051.79 Y 0102.93 E 0503.20
 G1 X 0030.81 Y 0111.32 E 0504.26
G1 X 0051.79 Y 0102.93 E 0505.89
 G1 X 0042.90 Y 0092.86 E 0506.95
G1 X 0045.39 Y 0081.34 E 0508.25
 G1 X 0042.90 Y 0092.86 E 0509.30
G1 X 0035.38 Y 0080.94 E 0512.23
 G1 X 0026.46 Y 0098.77 E 0513.29
G1 X 0035.38 Y 0080.94 E 0513.51
 G1 X 0041.31 Y 0078.53 E 0514.57
G1 X 0023.84 Y 0081.38 E 0514.18
 G1 X 0021.08 Y 0083.25 E 0515.24
G1 X 0023.84 Y 0081.38 E 0516.49
 G1 X 0035.38 Y 0080.94 E 0517.55
G1 X 0028.17 Y 0069.47 E 0519.03
 G1 X 0023.84 Y 0081.38 E 0520.08
;CONTOUR EDGES
G1 X 0012.26 Y 0057.83 E 0519.03
 G1 X 0012.26 Y 0057.83 E 0520.08
G1 X 0012.26 Y 0057.83 E 0521.90
 G1 X 0023.76 Y 0066.43 E 0522.96
G1 X 0023.76 Y 0066.43 E 0532.79
 G1 X 0068.59 Y 0097.33 E 0533.85
G1 X 0068.59 Y 0097.33 E 0543.43
 G1 X 0119.30 Y 0113.52 E 0544.49
G1 X 0119.30 Y 0113.52 E 0551.71
 G1 X 0158.23 Y 0127.61 E 0552.77
G1 X 0158.23 Y 0127.61 E 0558.82
 G1 X 0176.32 Y 0158.19 E 0559.88
G1 X 0176.32 Y 0158.19 E 0562.40
 G1 X 0172.50 Y 0175.69 E 0563.46
G1 X 0172.50 Y 0175.69 E 0567.10
 G1 X 0158.38 Y 0194.48 E 0568.16
G1 X 0158.38 Y 0194.48 E 0574.31
 G1 X 0122.53 Y 0198.07 E 0575.37
G1 X 0122.53 Y 0198.07 E 0582.58
 G1 X 0083.07 Y 0185.65 E 0583.64
G1 X 0083.07 Y 0185.65 E 0588.84
 G1 X 0053.28 Y 0176.11 E 0589.90
G1 X 0053.28 Y 0176.11 E 0588.84
 G1 X 0053.28 Y 0176.11 E 0589.90
G1 X 0053.28 Y 0176.11 E 0613.88
 G1 X 0012.26 Y 0057.83 E 0614.93
G0  F600 Z1.2
;INSOLE EDGES
G1 X 0143.90 Y 0163.17 E 0620.66
 G1 X 0156.50 Y 0194.67 E 0621.72
G1 X 0175.95 Y 0157.56 E 0627.17
 G1 X 0143.90 Y 0163.17 E 0628.23
G1 X 0142.85 Y 0163.06 E 0627.38
 G1 X 0143.90 Y 0163.17 E 0628.44
G1 X 0142.85 Y 0163.06 E 0635.70
 G1 X 0141.28 Y 0121.48 E 0636.76
G1 X 0102.38 Y 0139.59 E 0641.83
 G1 X 0117.42 Y 0112.92 E 0642.88
G1 X 0119.58 Y 0169.93 E 0646.68
 G1 X 0142.85 Y 0163.06 E 0647.74
G1 X 0119.58 Y 0169.93 E 0653.65
 G1 X 0102.38 Y 0139.59 E 0654.71
G1 X 0110.75 Y 0194.36 E 0658.85
 G1 X 0119.58 Y 0169.93 E 0659.91
G1 X 0070.14 Y 0097.82 E 0661.63
 G1 X 0058.88 Y 0106.03 E 0662.69
G1 X 0081.64 Y 0140.44 E 0665.79
 G1 X 0102.38 Y 0139.59 E 0666.84
G1 X 0081.64 Y 0140.44 E 0674.02
 G1 X 0075.95 Y 0099.68 E 0675.08
G1 X 0074.51 Y 0142.92 E 0682.95
 G1 X 0085.09 Y 0186.28 E 0684.00
G1 X 0074.51 Y 0142.92 E 0684.45
 G1 X 0081.64 Y 0140.44 E 0685.51
G1 X 0051.25 Y 0144.15 E 0686.18
 G1 X 0043.54 Y 0148.01 E 0687.24
G1 X 0051.25 Y 0144.15 E 0693.96
 G1 X 0058.88 Y 0106.03 E 0695.01
G1 X 0051.25 Y 0144.15 E 0698.61
 G1 X 0074.51 Y 0142.92 E 0699.67
G1 X 0042.90 Y 0092.86 E 0702.11
 G1 X 0026.74 Y 0099.57 E 0703.17
G1 X 0051.79 Y 0102.93 E 0703.66
 G1 X 0058.88 Y 0106.03 E 0704.72
G1 X 0051.79 Y 0102.93 E 0708.18
 G1 X 0030.81 Y 0111.32 E 0709.24
G1 X 0051.79 Y 0102.93 E 0710.87
 G1 X 0042.90 Y 0092.86 E 0711.92
G1 X 0045.39 Y 0081.34 E 0713.22
 G1 X 0042.90 Y 0092.86 E 0714.28
G1 X 0035.38 Y 0080.94 E 0717.21
 G1 X 0026.46 Y 0098.77 E 0718.27
G1 X 0035.38 Y 0080.94 E 0718.49
 G1 X 0041.31 Y 0078.53 E 0719.55
G1 X 0023.84 Y 0081.38 E 0719.16
 G1 X 0021.08 Y 0083.25 E 0720.22
G1 X 0023.84 Y 0081.38 E 0721.47
 G1 X 0035.38 Y 0080.94 E 0722.53
G1 X 0028.17 Y 0069.47 E 0724.00
 G1 X 0023.84 Y 0081.38 E 0725.06
;CONTOUR EDGES
G1 X 0012.26 Y 0057.83 E 0724.00
 G1 X 0012.26 Y 0057.83 E 0725.06
G1 X 0012.26 Y 0057.83 E 0726.88
 G1 X 0023.76 Y 0066.43 E 0727.93
G1 X 0023.76 Y 0066.43 E 0737.77
 G1 X 0068.59 Y 0097.33 E 0738.82
G1 X 0068.59 Y 0097.33 E 0748.41
 G1 X 0119.30 Y 0113.52 E 0749.47
G1 X 0119.30 Y 0113.52 E 0756.69
 G1 X 0158.23 Y 0127.61 E 0757.75
G1 X 0158.23 Y 0127.61 E 0763.80
 G1 X 0176.32 Y 0158.19 E 0764.85
G1 X 0176.32 Y 0158.19 E 0767.38
 G1 X 0172.50 Y 0175.69 E 0768.44
G1 X 0172.50 Y 0175.69 E 0772.08
 G1 X 0158.38 Y 0194.48 E 0773.14
G1 X 0158.38 Y 0194.48 E 0779.29
 G1 X 0122.53 Y 0198.07 E 0780.34
G1 X 0122.53 Y 0198.07 E 0787.56
 G1 X 0083.07 Y 0185.65 E 0788.62
G1 X 0083.07 Y 0185.65 E 0793.82
 G1 X 0053.28 Y 0176.11 E 0794.87
G1 X 0053.28 Y 0176.11 E 0793.82
 G1 X 0053.28 Y 0176.11 E 0794.87
G1 X 0053.28 Y 0176.11 E 0818.85
 G1 X 0012.26 Y 0057.83 E 0819.91
G0  F600 Z1.5
;INSOLE EDGES
G1 X 0143.90 Y 0163.17 E 0825.64
 G1 X 0156.50 Y 0194.67 E 0826.70
G1 X 0175.95 Y 0157.56 E 0832.15
 G1 X 0143.90 Y 0163.17 E 0833.20
G1 X 0142.85 Y 0163.06 E 0832.36
 G1 X 0143.90 Y 0163.17 E 0833.42
G1 X 0142.85 Y 0163.06 E 0840.68
 G1 X 0141.28 Y 0121.48 E 0841.74
G1 X 0102.38 Y 0139.59 E 0846.80
 G1 X 0117.42 Y 0112.92 E 0847.86
G1 X 0119.58 Y 0169.93 E 0851.66
 G1 X 0142.85 Y 0163.06 E 0852.71
G1 X 0119.58 Y 0169.93 E 0858.63
 G1 X 0102.38 Y 0139.59 E 0859.69
G1 X 0110.75 Y 0194.36 E 0863.83
 G1 X 0119.58 Y 0169.93 E 0864.88
G1 X 0070.14 Y 0097.82 E 0866.61
 G1 X 0058.88 Y 0106.03 E 0867.67
G1 X 0081.64 Y 0140.44 E 0870.76
 G1 X 0102.38 Y 0139.59 E 0871.82
G1 X 0081.64 Y 0140.44 E 0879.00
 G1 X 0075.95 Y 0099.68 E 0880.05
G1 X 0074.51 Y 0142.92 E 0887.92
 G1 X 0085.09 Y 0186.28 E 0888.98
G1 X 0074.51 Y 0142.92 E 0889.43
 G1 X 0081.64 Y 0140.44 E 0890.49
G1 X 0051.25 Y 0144.15 E 0891.16
 G1 X 0043.54 Y 0148.01 E 0892.22
G1 X 0051.25 Y 0144.15 E 0898.93
 G1 X 0058.88 Y 0106.03 E 0899.99
G1 X 0051.25 Y 0144.15 E 0903.59
 G1 X 0074.51 Y 0142.92 E 0904.65
G1 X 0042.90 Y 0092.86 E 0907.09
 G1 X 0026.74 Y 0099.57 E 0908.15
G1 X 0051.79 Y 0102.93 E 0908.64
 G1 X 0058.88 Y 0106.03 E 0909.70
G1 X 0051.79 Y 0102.93 E 0913.16
 G1 X 0030.81 Y 0111.32 E 0914.22
G1 X 0051.79 Y 0102.93 E 0915.84
 G1 X 0042.90 Y 0092.86 E 0916.90
G1 X 0045.39 Y 0081.34 E 0918.20
 G1 X 0042.90 Y 0092.86 E 0919.26
G1 X 0035.38 Y 0080.94 E 0922.19
 G1 X 0026.46 Y 0098.77 E 0923.25
G1 X 0035.38 Y 0080.94 E 0923.47
 G1 X 0041.31 Y 0078.53 E 0924.53
G1 X 0023.84 Y 0081.38 E 0924.14
 G1 X 0021.08 Y 0083.25 E 0925.20
G1 X 0023.84 Y 0081.38 E 0926.45
 G1 X 0035.38 Y 0080.94 E 0927.51
G1 X 0028.17 Y 0069.47 E 0928.98
 G1 X 0023.84 Y 0081.38 E 0930.04
;CONTOUR EDGES
G1 X 0012.26 Y 0057.83 E 0928.98
 G1 X 0012.26 Y 0057.83 E 0930.04
G1 X 0012.26 Y 0057.83 E 0931.85
 G1 X 0023.76 Y 0066.43 E 0932.91
G1 X 0023.76 Y 0066.43 E 0942.74
 G1 X 0068.59 Y 0097.33 E 0943.80
G1 X 0068.59 Y 0097.33 E 0953.39
 G1 X 0119.30 Y 0113.52 E 0954.45
G1 X 0119.30 Y 0113.52 E 0961.67
 G1 X 0158.23 Y 0127.61 E 0962.73
G1 X 0158.23 Y 0127.61 E 0968.77
 G1 X 0176.32 Y 0158.19 E 0969.83
G1 X 0176.32 Y 0158.19 E 0972.36
 G1 X 0172.50 Y 0175.69 E 0973.42
G1 X 0172.50 Y 0175.69 E 0977.06
 G1 X 0158.38 Y 0194.48 E 0978.12
G1 X 0158.38 Y 0194.48 E 0984.26
 G1 X 0122.53 Y 0198.07 E 0985.32
G1 X 0122.53 Y 0198.07 E 0992.54
 G1 X 0083.07 Y 0185.65 E 0993.60
G1 X 0083.07 Y 0185.65 E 0998.79
 G1 X 0053.28 Y 0176.11 E 0999.85
G1 X 0053.28 Y 0176.11 E 0998.79
 G1 X 0053.28 Y 0176.11 E 0999.85
G1 X 0053.28 Y 0176.11 E 1023.83
 G1 X 0012.26 Y 0057.83 E 1024.89
G0  F600 Z1.8
M107
G10
G0 F9000 X110.000 Y126.900 Z15.000
M25 ;Stop reading from this point on.
