;FLAVOR:UltiGCode
; TIME:400
;MATERIAL:160
; MATERIAL2: 0
;NOZZLE_DIAMETER:0.400000
;NOZZLE_DIAMETER2:  0.400000
;Layer count: 98
;LAYER: 0
M107
G0  F600 Z0.3
;INSOLE EDGES
G1 X 0209.39 Y 0231.83 E 7575.62
 G1 X 0234.93 Y 0232.67 E 7576.68
G1 X 0206.68 Y 0236.40 E 7581.17
 G1 X 0230.81 Y 0250.09 E 7582.23
G1 X 0206.68 Y 0236.40 E 7582.23
 G1 X 0209.39 Y 0231.83 E 7583.29
G1 X 0205.20 Y 0237.83 E 7587.75
 G1 X 0217.37 Y 0262.61 E 7588.81
G1 X 0205.20 Y 0237.83 E 7588.16
 G1 X 0206.68 Y 0236.40 E 7589.22
G1 X 0198.77 Y 0240.28 E 7593.15
 G1 X 0195.03 Y 0264.93 E 7594.21
G1 X 0198.77 Y 0240.28 E 7594.53
 G1 X 0205.20 Y 0237.83 E 7595.58
G1 X 0168.51 Y 0228.50 E 7598.75
 G1 X 0156.72 Y 0246.02 E 7599.81
G1 X 0186.33 Y 0239.26 E 7601.25
 G1 X 0198.77 Y 0240.28 E 7602.30
G1 X 0186.33 Y 0239.26 E 7605.41
 G1 X 0168.51 Y 0228.50 E 7606.47
G1 X 0174.50 Y 0257.19 E 7609.70
 G1 X 0186.33 Y 0239.26 E 7610.76
G1 X 0141.55 Y 0206.05 E 7613.89
 G1 X 0127.57 Y 0221.63 E 7614.95
G1 X 0158.24 Y 0211.61 E 7617.41
 G1 X 0141.55 Y 0206.05 E 7618.47
G1 X 0158.34 Y 0212.04 E 7621.28
 G1 X 0168.51 Y 0228.50 E 7622.34
G1 X 0158.34 Y 0212.04 E 7621.37
 G1 X 0158.24 Y 0211.61 E 7622.42
G1 X 0141.56 Y 0233.54 E 7626.82
 G1 X 0158.34 Y 0212.04 E 7627.88
G1 X 0131.18 Y 0196.82 E 7629.60
 G1 X 0141.55 Y 0206.05 E 7630.65
G1 X 0123.88 Y 0195.68 E 7633.16
 G1 X 0112.61 Y 0209.46 E 7634.22
G1 X 0123.88 Y 0195.68 E 7634.64
 G1 X 0131.18 Y 0196.82 E 7635.69
G1 X 0210.98 Y 0219.91 E 7637.04
 G1 X 0209.39 Y 0231.83 E 7638.10
G1 X 0205.39 Y 0203.28 E 7640.55
 G1 X 0210.98 Y 0219.91 E 7641.61
G1 X 0222.49 Y 0192.55 E 7644.59
 G1 X 0205.39 Y 0203.28 E 7645.64
G1 X 0231.85 Y 0211.71 E 7649.07
 G1 X 0210.98 Y 0219.91 E 7650.13
G1 X 0192.83 Y 0191.86 E 7652.47
 G1 X 0205.39 Y 0203.28 E 7653.52
G1 X 0192.83 Y 0191.86 E 7657.06
 G1 X 0209.27 Y 0175.81 E 7658.12
G1 X 0178.14 Y 0187.52 E 7663.31
 G1 X 0158.24 Y 0211.61 E 7664.37
G1 X 0178.14 Y 0187.52 E 7666.38
 G1 X 0192.83 Y 0191.86 E 7667.44
G1 X 0175.86 Y 0179.51 E 7668.04
 G1 X 0178.14 Y 0187.52 E 7669.10
G1 X 0178.16 Y 0173.20 E 7671.89
 G1 X 0191.78 Y 0159.59 E 7672.95
G1 X 0178.16 Y 0173.20 E 7673.23
 G1 X 0175.86 Y 0179.51 E 7674.29
G1 X 0026.43 Y 0038.97 E 7676.91
 G1 X 0010.99 Y 0028.98 E 7677.97
G1 X 0031.75 Y 0026.50 E 7679.57
 G1 X 0021.16 Y 0018.48 E 7680.63
G1 X 0031.75 Y 0026.50 E 7682.28
 G1 X 0026.43 Y 0038.97 E 7683.34
G1 X 0037.55 Y 0021.64 E 7685.43
 G1 X 0031.23 Y 0007.22 E 7686.49
G1 X 0037.55 Y 0021.64 E 7686.94
 G1 X 0031.75 Y 0026.50 E 7688.00
G1 X 0045.67 Y 0020.13 E 7689.93
 G1 X 0046.05 Y 0005.20 E 7690.99
G1 X 0045.67 Y 0020.13 E 7691.58
 G1 X 0037.55 Y 0021.64 E 7692.64
G1 X 0052.25 Y 0021.91 E 7694.49
 G1 X 0060.02 Y 0009.60 E 7695.55
G1 X 0052.25 Y 0021.91 E 7695.86
 G1 X 0045.67 Y 0020.13 E 7696.91
G1 X 0175.96 Y 0164.71 E 7697.61
 G1 X 0178.16 Y 0173.20 E 7698.67
G1 X 0175.96 Y 0164.71 E 7701.42
 G1 X 0178.07 Y 0145.77 E 7702.48
G1 X 0139.57 Y 0174.81 E 7706.13
 G1 X 0131.18 Y 0196.82 E 7707.19
G1 X 0135.53 Y 0162.51 E 7708.72
 G1 X 0139.57 Y 0174.81 E 7709.78
G1 X 0144.21 Y 0158.32 E 7710.65
 G1 X 0135.53 Y 0162.51 E 7711.71
G1 X 0154.28 Y 0158.72 E 7712.66
 G1 X 0144.21 Y 0158.32 E 7713.72
G1 X 0172.18 Y 0177.65 E 7713.49
 G1 X 0175.86 Y 0179.51 E 7714.55
G1 X 0172.18 Y 0177.65 E 7720.04
 G1 X 0139.57 Y 0174.81 E 7721.10
G1 X 0172.18 Y 0177.65 E 7725.25
 G1 X 0154.28 Y 0158.72 E 7726.31
G1 X 0096.37 Y 0165.50 E 7725.42
 G1 X 0095.58 Y 0165.18 E 7726.48
G1 X 0103.17 Y 0170.56 E 7727.11
 G1 X 0096.37 Y 0165.50 E 7728.17
G1 X 0108.03 Y 0183.24 E 7731.15
 G1 X 0123.88 Y 0195.68 E 7732.20
G1 X 0108.03 Y 0183.24 E 7733.86
 G1 X 0103.17 Y 0170.56 E 7734.92
G1 X 0097.57 Y 0195.63 E 7737.10
 G1 X 0108.03 Y 0183.24 E 7738.16
G1 X 0091.09 Y 0051.58 E 7739.41
 G1 X 0098.80 Y 0042.99 E 7740.47
G1 X 0060.43 Y 0030.09 E 7741.73
 G1 X 0052.25 Y 0021.91 E 7742.79
G1 X 0072.28 Y 0019.35 E 7744.93
 G1 X 0060.43 Y 0030.09 E 7745.98
G1 X 0146.48 Y 0145.18 E 7747.59
 G1 X 0144.21 Y 0158.32 E 7748.65
G1 X 0091.90 Y 0161.30 E 7748.66
 G1 X 0095.58 Y 0165.18 E 7749.72
G1 X 0100.93 Y 0135.78 E 7754.08
 G1 X 0091.90 Y 0161.30 E 7755.14
G1 X 0100.93 Y 0135.78 E 7755.85
 G1 X 0096.69 Y 0127.98 E 7756.91
G1 X 0076.67 Y 0078.45 E 7759.77
 G1 X 0060.06 Y 0088.76 E 7760.82
G1 X 0076.87 Y 0077.92 E 7759.88
 G1 X 0076.67 Y 0078.45 E 7760.94
G1 X 0102.38 Y 0121.72 E 7761.57
 G1 X 0096.69 Y 0127.98 E 7762.63
G1 X 0077.17 Y 0077.68 E 7761.65
 G1 X 0076.87 Y 0077.92 E 7762.70
G1 X 0077.17 Y 0077.68 E 7763.00
 G1 X 0083.94 Y 0077.80 E 7764.06
G1 X 0082.29 Y 0063.38 E 7766.04
 G1 X 0077.17 Y 0077.68 E 7767.10
G1 X 0091.23 Y 0052.98 E 7766.32
 G1 X 0091.09 Y 0051.58 E 7767.38
G1 X 0091.23 Y 0052.98 E 7769.06
 G1 X 0082.29 Y 0063.38 E 7770.12
G1 X 0083.25 Y 0032.59 E 7769.42
 G1 X 0084.33 Y 0031.14 E 7770.48
G1 X 0087.09 Y 0047.58 E 7770.56
 G1 X 0091.09 Y 0051.58 E 7771.61
G1 X 0087.09 Y 0047.58 E 7773.65
 G1 X 0083.25 Y 0032.59 E 7774.71
G1 X 0083.08 Y 0047.10 E 7774.46
 G1 X 0087.09 Y 0047.58 E 7775.52
G1 X 0026.18 Y 0047.50 E 7778.48
 G1 X 0006.49 Y 0043.56 E 7779.53
G1 X 0026.18 Y 0047.50 E 7780.82
 G1 X 0023.34 Y 0058.87 E 7781.88
G1 X 0026.35 Y 0047.27 E 7782.48
 G1 X 0026.43 Y 0038.97 E 7783.54
G1 X 0026.35 Y 0047.27 E 7785.05
 G1 X 0039.17 Y 0048.17 E 7786.11
G1 X 0026.35 Y 0047.27 E 7785.11
 G1 X 0026.18 Y 0047.50 E 7786.16
G1 X 0044.47 Y 0110.01 E 7790.83
 G1 X 0017.55 Y 0119.67 E 7791.88
G1 X 0048.99 Y 0118.11 E 7796.90
 G1 X 0022.76 Y 0133.41 E 7797.96
G1 X 0048.99 Y 0118.11 E 7798.75
 G1 X 0044.47 Y 0110.01 E 7799.81
G1 X 0055.91 Y 0092.77 E 7799.91
 G1 X 0060.06 Y 0088.76 E 7800.96
G1 X 0044.30 Y 0109.38 E 7800.04
 G1 X 0044.47 Y 0110.01 E 7801.09
G1 X 0044.30 Y 0109.38 E 7804.09
 G1 X 0055.91 Y 0092.77 E 7805.15
G1 X 0030.65 Y 0096.60 E 7808.55
 G1 X 0010.68 Y 0106.58 E 7809.61
G1 X 0030.65 Y 0096.60 E 7812.29
 G1 X 0044.30 Y 0109.38 E 7813.35
G1 X 0165.35 Y 0133.35 E 7812.50
 G1 X 0165.78 Y 0132.41 E 7813.56
G1 X 0133.77 Y 0161.61 E 7812.90
 G1 X 0135.53 Y 0162.51 E 7813.96
G1 X 0128.06 Y 0161.04 E 7818.23
 G1 X 0103.17 Y 0170.56 E 7819.28
G1 X 0128.06 Y 0161.04 E 7819.37
 G1 X 0133.77 Y 0161.61 E 7820.43
G1 X 0078.58 Y 0155.12 E 7822.31
 G1 X 0091.90 Y 0161.30 E 7823.37
G1 X 0078.58 Y 0155.12 E 7826.08
 G1 X 0065.89 Y 0141.19 E 7827.14
G1 X 0080.47 Y 0183.47 E 7830.82
 G1 X 0095.58 Y 0165.18 E 7831.88
G1 X 0066.34 Y 0170.63 E 7834.78
 G1 X 0078.58 Y 0155.12 E 7835.83
G1 X 0051.73 Y 0159.52 E 7839.41
 G1 X 0065.89 Y 0141.19 E 7840.47
G1 X 0090.12 Y 0111.80 E 7841.84
 G1 X 0080.64 Y 0104.16 E 7842.90
G1 X 0087.40 Y 0125.78 E 7843.75
 G1 X 0096.69 Y 0127.98 E 7844.81
G1 X 0087.40 Y 0125.78 E 7846.60
 G1 X 0090.12 Y 0111.80 E 7847.66
G1 X 0063.54 Y 0134.63 E 7848.00
 G1 X 0065.89 Y 0141.19 E 7849.05
G1 X 0063.54 Y 0134.63 E 7853.08
 G1 X 0087.40 Y 0125.78 E 7854.14
G1 X 0054.15 Y 0125.15 E 7859.12
 G1 X 0034.32 Y 0147.88 E 7860.18
G1 X 0054.15 Y 0125.15 E 7861.79
 G1 X 0063.54 Y 0134.63 E 7862.85
G1 X 0052.89 Y 0122.27 E 7862.93
 G1 X 0048.99 Y 0118.11 E 7863.99
G1 X 0052.89 Y 0122.27 E 7869.56
 G1 X 0080.64 Y 0104.16 E 7870.62
G1 X 0052.89 Y 0122.27 E 7870.18
 G1 X 0054.15 Y 0125.15 E 7871.24
G1 X 0096.64 Y 0101.61 E 7871.86
 G1 X 0097.04 Y 0093.24 E 7872.92
G1 X 0082.39 Y 0098.61 E 7873.02
 G1 X 0080.64 Y 0104.16 E 7874.08
G1 X 0082.39 Y 0098.61 E 7875.94
 G1 X 0096.64 Y 0101.61 E 7877.00
G1 X 0082.28 Y 0092.06 E 7878.88
 G1 X 0076.67 Y 0078.45 E 7879.94
G1 X 0082.28 Y 0092.06 E 7881.84
 G1 X 0097.04 Y 0093.24 E 7882.90
G1 X 0082.28 Y 0092.06 E 7883.15
 G1 X 0082.39 Y 0098.61 E 7884.21
G1 X 0102.78 Y 0089.05 E 7884.57
 G1 X 0097.04 Y 0093.24 E 7885.63
G1 X 0101.77 Y 0087.07 E 7888.59
 G1 X 0083.94 Y 0077.80 E 7889.65
G1 X 0101.77 Y 0087.07 E 7889.04
 G1 X 0102.78 Y 0089.05 E 7890.10
G1 X 0128.02 Y 0083.43 E 7890.45
 G1 X 0120.95 Y 0083.43 E 7891.51
G1 X 0109.45 Y 0122.60 E 7891.88
 G1 X 0102.38 Y 0121.72 E 7892.94
G1 X 0061.48 Y 0033.36 E 7892.57
 G1 X 0060.43 Y 0030.09 E 7893.62
G1 X 0064.24 Y 0034.40 E 7896.39
 G1 X 0083.25 Y 0032.59 E 7897.44
G1 X 0064.24 Y 0034.40 E 7896.98
 G1 X 0061.48 Y 0033.36 E 7898.03
G1 X 0068.86 Y 0039.99 E 7900.15
 G1 X 0083.08 Y 0047.10 E 7901.21
G1 X 0068.86 Y 0039.99 E 7901.60
 G1 X 0064.24 Y 0034.40 E 7902.66
G1 X 0072.09 Y 0050.76 E 7903.92
 G1 X 0083.08 Y 0047.10 E 7904.98
G1 X 0072.09 Y 0050.76 E 7906.17
 G1 X 0068.86 Y 0039.99 E 7907.23
G1 X 0057.48 Y 0040.38 E 7910.15
 G1 X 0039.17 Y 0048.17 E 7911.21
G1 X 0057.48 Y 0040.38 E 7911.77
 G1 X 0061.48 Y 0033.36 E 7912.82
G1 X 0004.54 Y 0073.74 E 7915.06
 G1 X 0020.93 Y 0072.10 E 7916.12
G1 X 0022.47 Y 0060.35 E 7915.40
 G1 X 0023.34 Y 0058.87 E 7916.46
G1 X 0022.47 Y 0060.35 E 7917.77
 G1 X 0020.93 Y 0072.10 E 7918.83
G1 X 0022.47 Y 0060.35 E 7921.28
 G1 X 0004.97 Y 0059.13 E 7922.34
G1 X 0158.63 Y 0136.17 E 7922.74
 G1 X 0165.35 Y 0133.35 E 7923.80
G1 X 0170.13 Y 0155.45 E 7924.93
 G1 X 0175.96 Y 0164.71 E 7925.99
G1 X 0168.27 Y 0143.10 E 7926.97
 G1 X 0165.35 Y 0133.35 E 7928.02
G1 X 0168.84 Y 0143.26 E 7928.16
 G1 X 0174.68 Y 0142.00 E 7929.22
G1 X 0168.84 Y 0143.26 E 7930.61
 G1 X 0170.13 Y 0155.45 E 7931.67
G1 X 0168.84 Y 0143.26 E 7930.73
 G1 X 0168.27 Y 0143.10 E 7931.79
G1 X 0156.69 Y 0133.68 E 7931.36
 G1 X 0158.63 Y 0136.17 E 7932.42
G1 X 0150.64 Y 0134.08 E 7932.58
 G1 X 0156.69 Y 0133.68 E 7933.63
G1 X 0157.02 Y 0127.33 E 7933.24
 G1 X 0160.19 Y 0126.40 E 7934.29
G1 X 0157.02 Y 0127.33 E 7934.51
 G1 X 0156.69 Y 0133.68 E 7935.56
G1 X 0121.74 Y 0144.53 E 7938.04
 G1 X 0128.06 Y 0161.04 E 7939.10
G1 X 0116.18 Y 0143.21 E 7944.01
 G1 X 0096.37 Y 0165.50 E 7945.07
G1 X 0116.18 Y 0143.21 E 7945.15
 G1 X 0121.74 Y 0144.53 E 7946.21
G1 X 0135.52 Y 0142.94 E 7948.90
 G1 X 0133.77 Y 0161.61 E 7949.96
G1 X 0128.71 Y 0138.77 E 7950.71
 G1 X 0121.74 Y 0144.53 E 7951.77
G1 X 0128.71 Y 0138.77 E 7952.31
 G1 X 0135.52 Y 0142.94 E 7953.36
G1 X 0128.48 Y 0133.88 E 7953.28
 G1 X 0128.71 Y 0138.77 E 7954.34
G1 X 0100.90 Y 0059.05 E 7955.57
 G1 X 0091.23 Y 0052.98 E 7956.62
G1 X 0105.06 Y 0059.27 E 7956.70
 G1 X 0109.77 Y 0056.17 E 7957.75
G1 X 0105.06 Y 0059.27 E 7957.53
 G1 X 0100.90 Y 0059.05 E 7958.59
G1 X 0103.93 Y 0075.85 E 7959.81
 G1 X 0101.77 Y 0087.07 E 7960.87
G1 X 0098.53 Y 0072.79 E 7962.90
 G1 X 0083.94 Y 0077.80 E 7963.96
G1 X 0098.53 Y 0072.79 E 7965.69
 G1 X 0100.90 Y 0059.05 E 7966.75
G1 X 0098.53 Y 0072.79 E 7966.93
 G1 X 0103.93 Y 0075.85 E 7967.99
G1 X 0058.33 Y 0044.21 E 7967.71
 G1 X 0057.48 Y 0040.38 E 7968.77
G1 X 0053.59 Y 0073.99 E 7970.94
 G1 X 0060.06 Y 0088.76 E 7972.00
G1 X 0048.29 Y 0077.52 E 7974.35
 G1 X 0055.91 Y 0092.77 E 7975.41
G1 X 0048.29 Y 0077.52 E 7974.67
 G1 X 0047.05 Y 0076.46 E 7975.73
G1 X 0048.29 Y 0077.52 E 7975.95
 G1 X 0053.59 Y 0073.99 E 7977.01
G1 X 0044.90 Y 0076.24 E 7976.38
 G1 X 0047.05 Y 0076.46 E 7977.44
G1 X 0044.90 Y 0076.24 E 7977.27
 G1 X 0042.62 Y 0072.44 E 7978.33
G1 X 0030.07 Y 0095.50 E 7977.51
 G1 X 0030.65 Y 0096.60 E 7978.57
G1 X 0030.07 Y 0095.50 E 7982.38
 G1 X 0044.90 Y 0076.24 E 7983.43
G1 X 0024.43 Y 0087.46 E 7986.31
 G1 X 0004.97 Y 0090.40 E 7987.37
G1 X 0024.43 Y 0087.46 E 7988.28
 G1 X 0030.07 Y 0095.50 E 7989.34
G1 X 0023.72 Y 0081.89 E 7990.31
 G1 X 0020.93 Y 0072.10 E 7991.37
G1 X 0023.72 Y 0081.89 E 7994.54
 G1 X 0042.62 Y 0072.44 E 7995.60
G1 X 0023.72 Y 0081.89 E 7995.66
 G1 X 0024.43 Y 0087.46 E 7996.72
G1 X 0043.29 Y 0069.49 E 7996.27
 G1 X 0042.62 Y 0072.44 E 7997.33
G1 X 0041.36 Y 0066.33 E 8000.17
 G1 X 0023.34 Y 0058.87 E 8001.23
G1 X 0041.36 Y 0066.33 E 8000.91
 G1 X 0043.29 Y 0069.49 E 8001.97
G1 X 0149.85 Y 0134.97 E 8001.15
 G1 X 0150.64 Y 0134.08 E 8002.21
G1 X 0150.09 Y 0140.17 E 8002.19
 G1 X 0149.85 Y 0134.97 E 8003.25
G1 X 0146.07 Y 0143.64 E 8002.51
 G1 X 0146.48 Y 0145.18 E 8003.57
G1 X 0146.07 Y 0143.64 E 8003.57
 G1 X 0150.09 Y 0140.17 E 8004.63
G1 X 0140.61 Y 0141.00 E 8004.66
 G1 X 0135.52 Y 0142.94 E 8005.72
G1 X 0140.61 Y 0141.00 E 8005.87
 G1 X 0146.07 Y 0143.64 E 8006.93
G1 X 0141.54 Y 0132.37 E 8007.61
 G1 X 0149.85 Y 0134.97 E 8008.67
G1 X 0141.54 Y 0132.37 E 8009.35
 G1 X 0140.61 Y 0141.00 E 8010.41
G1 X 0168.13 Y 0143.14 E 8009.38
 G1 X 0168.27 Y 0143.10 E 8010.44
G1 X 0160.47 Y 0150.29 E 8011.57
 G1 X 0170.13 Y 0155.45 E 8012.63
G1 X 0160.47 Y 0150.29 E 8013.66
 G1 X 0168.13 Y 0143.14 E 8014.72
G1 X 0157.89 Y 0150.81 E 8015.40
 G1 X 0154.28 Y 0158.72 E 8016.46
G1 X 0157.89 Y 0150.81 E 8015.93
 G1 X 0160.47 Y 0150.29 E 8016.99
G1 X 0156.99 Y 0148.94 E 8018.16
 G1 X 0146.48 Y 0145.18 E 8019.22
G1 X 0156.99 Y 0148.94 E 8018.58
 G1 X 0157.89 Y 0150.81 E 8019.63
G1 X 0137.51 Y 0104.45 E 8019.76
 G1 X 0139.88 Y 0099.02 E 8020.82
G1 X 0137.51 Y 0104.45 E 8020.28
 G1 X 0135.06 Y 0105.26 E 8021.33
G1 X 0129.70 Y 0112.53 E 8021.53
 G1 X 0124.46 Y 0109.11 E 8022.59
G1 X 0129.70 Y 0112.53 E 8023.33
 G1 X 0135.06 Y 0105.26 E 8024.39
G1 X 0153.32 Y 0125.77 E 8024.14
 G1 X 0157.02 Y 0127.33 E 8025.20
G1 X 0150.64 Y 0126.51 E 8025.65
 G1 X 0150.64 Y 0134.08 E 8026.71
G1 X 0150.64 Y 0126.51 E 8026.21
 G1 X 0153.32 Y 0125.77 E 8027.27
G1 X 0154.43 Y 0118.73 E 8027.64
 G1 X 0153.32 Y 0125.77 E 8028.69
G1 X 0101.96 Y 0113.95 E 8029.19
 G1 X 0102.38 Y 0121.72 E 8030.25
G1 X 0097.26 Y 0109.73 E 8030.68
 G1 X 0090.12 Y 0111.80 E 8031.74
G1 X 0097.26 Y 0109.73 E 8031.94
 G1 X 0101.96 Y 0113.95 E 8033.00
G1 X 0098.58 Y 0104.29 E 8032.60
 G1 X 0096.64 Y 0101.61 E 8033.66
G1 X 0098.58 Y 0104.29 E 8033.72
 G1 X 0097.26 Y 0109.73 E 8034.78
G1 X 0108.33 Y 0099.96 E 8035.86
 G1 X 0098.58 Y 0104.29 E 8036.92
G1 X 0108.33 Y 0099.96 E 8036.72
 G1 X 0111.71 Y 0102.67 E 8037.78
G1 X 0106.46 Y 0090.65 E 8037.53
 G1 X 0102.78 Y 0089.05 E 8038.58
G1 X 0106.46 Y 0090.65 E 8039.42
 G1 X 0108.33 Y 0099.96 E 8040.48
G1 X 0107.77 Y 0089.96 E 8039.72
 G1 X 0106.46 Y 0090.65 E 8040.78
G1 X 0113.06 Y 0116.69 E 8041.11
 G1 X 0109.45 Y 0122.60 E 8042.16
G1 X 0111.10 Y 0110.22 E 8043.08
 G1 X 0101.96 Y 0113.95 E 8044.14
G1 X 0111.10 Y 0110.22 E 8044.43
 G1 X 0113.06 Y 0116.69 E 8045.49
G1 X 0112.13 Y 0108.46 E 8045.59
 G1 X 0111.71 Y 0102.67 E 8046.65
G1 X 0112.13 Y 0108.46 E 8046.00
 G1 X 0111.10 Y 0110.22 E 8047.06
G1 X 0120.50 Y 0111.00 E 8046.88
 G1 X 0124.46 Y 0109.11 E 8047.94
G1 X 0120.50 Y 0111.00 E 8048.63
 G1 X 0112.13 Y 0108.46 E 8049.69
G1 X 0119.71 Y 0118.54 E 8049.28
 G1 X 0121.50 Y 0121.22 E 8050.33
G1 X 0119.71 Y 0118.54 E 8050.66
 G1 X 0113.06 Y 0116.69 E 8051.71
G1 X 0119.71 Y 0118.54 E 8052.17
 G1 X 0120.50 Y 0111.00 E 8053.23
G1 X 0112.58 Y 0125.88 E 8053.08
 G1 X 0109.45 Y 0122.60 E 8054.14
G1 X 0119.04 Y 0124.92 E 8053.97
 G1 X 0121.50 Y 0121.22 E 8055.02
G1 X 0119.04 Y 0124.92 E 8055.27
 G1 X 0112.58 Y 0125.88 E 8056.33
G1 X 0121.54 Y 0131.31 E 8056.75
 G1 X 0128.48 Y 0133.88 E 8057.81
G1 X 0121.54 Y 0131.31 E 8058.12
 G1 X 0119.04 Y 0124.92 E 8059.18
G1 X 0113.29 Y 0137.26 E 8059.45
 G1 X 0116.18 Y 0143.21 E 8060.50
G1 X 0113.29 Y 0137.26 E 8061.48
 G1 X 0121.54 Y 0131.31 E 8062.54
G1 X 0110.40 Y 0135.33 E 8063.38
 G1 X 0100.93 Y 0135.78 E 8064.43
G1 X 0110.40 Y 0135.33 E 8065.32
 G1 X 0112.58 Y 0125.88 E 8066.37
G1 X 0110.40 Y 0135.33 E 8066.01
 G1 X 0113.29 Y 0137.26 E 8067.07
G1 X 0106.82 Y 0075.11 E 8066.61
 G1 X 0103.93 Y 0075.85 E 8067.67
G1 X 0111.02 Y 0068.55 E 8068.82
 G1 X 0105.06 Y 0059.27 E 8069.87
G1 X 0111.02 Y 0068.55 E 8070.37
 G1 X 0106.82 Y 0075.11 E 8071.43
G1 X 0118.42 Y 0069.20 E 8071.86
 G1 X 0111.02 Y 0068.55 E 8072.92
G1 X 0117.68 Y 0079.39 E 8072.90
 G1 X 0120.95 Y 0083.43 E 8073.96
G1 X 0117.68 Y 0079.39 E 8074.59
 G1 X 0119.87 Y 0071.21 E 8075.65
G1 X 0112.72 Y 0080.07 E 8076.80
 G1 X 0107.77 Y 0089.96 E 8077.86
G1 X 0112.72 Y 0080.07 E 8078.34
 G1 X 0106.82 Y 0075.11 E 8079.40
G1 X 0112.72 Y 0080.07 E 8079.35
 G1 X 0117.68 Y 0079.39 E 8080.41
G1 X 0063.73 Y 0057.81 E 8080.02
 G1 X 0065.89 Y 0060.41 E 8081.08
G1 X 0065.04 Y 0052.25 E 8082.12
 G1 X 0058.33 Y 0044.21 E 8083.17
G1 X 0065.04 Y 0052.25 E 8083.26
 G1 X 0063.73 Y 0057.81 E 8084.32
G1 X 0071.43 Y 0052.59 E 8083.65
 G1 X 0072.09 Y 0050.76 E 8084.71
G1 X 0071.43 Y 0052.59 E 8084.93
 G1 X 0065.04 Y 0052.25 E 8085.99
