;FLAVOR:UltiGCode
; TIME:400
;MATERIAL:160
; MATERIAL2: 0
;NOZZLE_DIAMETER:0.400000
;NOZZLE_DIAMETER2:  0.400000
;Layer count: 98
;LAYER: 0
M107
G0  F600 Z0.3
;INSOLE EDGES
G1 X 0194.55 Y 0217.54 E 0002.02
 G1 X 0202.80 Y 0230.56 E 0003.08
G1 X 0211.38 Y 0219.37 E 0005.41
 G1 X 0194.55 Y 0217.54 E 0006.47
G1 X 0190.07 Y 0215.36 E 0006.41
 G1 X 0194.55 Y 0217.54 E 0007.47
G1 X 0188.38 Y 0216.53 E 0010.41
 G1 X 0188.38 Y 0236.56 E 0011.47
G1 X 0188.38 Y 0216.53 E 0010.82
 G1 X 0190.07 Y 0215.36 E 0011.88
G1 X 0171.43 Y 0218.57 E 0013.71
 G1 X 0166.43 Y 0232.13 E 0014.77
G1 X 0171.43 Y 0218.57 E 0017.13
 G1 X 0188.38 Y 0216.53 E 0018.19
G1 X 0171.60 Y 0177.49 E 0017.76
 G1 X 0168.49 Y 0176.91 E 0018.82
G1 X 0188.91 Y 0165.13 E 0022.02
 G1 X 0171.60 Y 0177.49 E 0023.07
G1 X 0150.92 Y 0196.10 E 0027.22
 G1 X 0168.49 Y 0176.91 E 0028.28
G1 X 0153.24 Y 0205.88 E 0031.66
 G1 X 0171.43 Y 0218.57 E 0032.72
G1 X 0153.24 Y 0205.88 E 0034.78
 G1 X 0143.96 Y 0218.44 E 0035.84
G1 X 0153.24 Y 0205.88 E 0036.79
 G1 X 0150.92 Y 0196.10 E 0037.85
G1 X 0192.24 Y 0206.50 E 0038.61
 G1 X 0190.07 Y 0215.36 E 0039.67
G1 X 0188.62 Y 0190.83 E 0042.94
 G1 X 0171.60 Y 0177.49 E 0044.00
G1 X 0188.62 Y 0190.83 E 0046.16
 G1 X 0192.24 Y 0206.50 E 0047.21
G1 X 0200.46 Y 0183.46 E 0048.94
 G1 X 0188.62 Y 0190.83 E 0050.00
G1 X 0209.07 Y 0201.13 E 0052.48
 G1 X 0192.24 Y 0206.50 E 0053.54
G1 X 0081.52 Y 0049.05 E 0056.04
 G1 X 0095.48 Y 0060.10 E 0057.10
G1 X 0099.08 Y 0055.92 E 0057.14
 G1 X 0095.48 Y 0060.10 E 0058.20
G1 X 0086.56 Y 0044.16 E 0058.55
 G1 X 0081.52 Y 0049.05 E 0059.61
G1 X 0056.12 Y 0039.50 E 0061.74
 G1 X 0056.48 Y 0023.56 E 0062.80
G1 X 0064.09 Y 0041.82 E 0064.57
 G1 X 0072.95 Y 0030.75 E 0065.63
G1 X 0064.09 Y 0041.82 E 0066.23
 G1 X 0056.12 Y 0039.50 E 0067.29
G1 X 0068.09 Y 0047.42 E 0067.61
 G1 X 0064.09 Y 0041.82 E 0068.67
G1 X 0065.56 Y 0057.73 E 0069.73
 G1 X 0068.09 Y 0047.42 E 0070.79
G1 X 0158.95 Y 0144.57 E 0072.64
 G1 X 0169.06 Y 0155.04 E 0073.70
G1 X 0166.44 Y 0168.67 E 0075.42
 G1 X 0169.06 Y 0155.04 E 0076.48
G1 X 0167.23 Y 0174.06 E 0076.04
 G1 X 0168.49 Y 0176.91 E 0077.10
G1 X 0167.23 Y 0174.06 E 0077.13
 G1 X 0166.44 Y 0168.67 E 0078.19
G1 X 0132.00 Y 0189.73 E 0081.12
 G1 X 0150.92 Y 0196.10 E 0082.18
G1 X 0122.92 Y 0201.77 E 0084.14
 G1 X 0132.00 Y 0189.73 E 0085.20
G1 X 0094.61 Y 0066.92 E 0085.51
 G1 X 0095.48 Y 0060.10 E 0086.57
G1 X 0063.38 Y 0061.67 E 0086.42
 G1 X 0065.56 Y 0057.73 E 0087.47
G1 X 0022.08 Y 0057.47 E 0089.62
 G1 X 0037.71 Y 0061.08 E 0090.68
G1 X 0023.63 Y 0102.39 E 0091.79
 G1 X 0034.03 Y 0099.29 E 0092.85
G1 X 0038.66 Y 0064.15 E 0092.44
 G1 X 0037.71 Y 0061.08 E 0093.49
G1 X 0091.82 Y 0154.00 E 0095.74
 G1 X 0081.34 Y 0166.75 E 0096.80
G1 X 0046.44 Y 0113.00 E 0099.04
 G1 X 0032.33 Y 0121.58 E 0100.10
G1 X 0044.50 Y 0109.77 E 0102.00
 G1 X 0034.03 Y 0099.29 E 0103.06
G1 X 0044.50 Y 0109.77 E 0102.76
 G1 X 0046.44 Y 0113.00 E 0103.81
G1 X 0040.77 Y 0048.24 E 0105.39
 G1 X 0037.71 Y 0061.08 E 0106.45
G1 X 0026.82 Y 0040.07 E 0108.63
 G1 X 0040.77 Y 0048.24 E 0109.69
G1 X 0047.39 Y 0041.41 E 0110.42
 G1 X 0056.12 Y 0039.50 E 0111.47
G1 X 0047.39 Y 0041.41 E 0112.32
 G1 X 0040.77 Y 0048.24 E 0113.38
G1 X 0047.39 Y 0041.41 E 0115.66
 G1 X 0039.28 Y 0026.82 E 0116.71
G1 X 0050.88 Y 0067.38 E 0118.18
 G1 X 0038.66 Y 0064.15 E 0119.24
G1 X 0051.15 Y 0067.38 E 0120.88
 G1 X 0063.38 Y 0061.67 E 0121.94
G1 X 0051.15 Y 0067.38 E 0123.14
 G1 X 0059.13 Y 0075.35 E 0124.20
G1 X 0051.15 Y 0067.38 E 0123.19
 G1 X 0050.88 Y 0067.38 E 0124.25
G1 X 0029.99 Y 0078.87 E 0125.11
 G1 X 0020.44 Y 0079.40 E 0126.17
G1 X 0036.66 Y 0068.57 E 0126.08
 G1 X 0038.66 Y 0064.15 E 0127.13
G1 X 0036.66 Y 0068.57 E 0128.53
 G1 X 0029.99 Y 0078.87 E 0129.59
G1 X 0034.29 Y 0089.94 E 0130.40
 G1 X 0034.03 Y 0099.29 E 0131.46
G1 X 0034.29 Y 0089.94 E 0132.78
 G1 X 0029.99 Y 0078.87 E 0133.84
G1 X 0162.06 Y 0137.90 E 0134.25
 G1 X 0158.95 Y 0144.57 E 0135.31
G1 X 0097.33 Y 0082.05 E 0134.74
 G1 X 0095.43 Y 0083.57 E 0135.80
G1 X 0098.34 Y 0076.98 E 0136.88
 G1 X 0094.61 Y 0066.92 E 0137.94
G1 X 0098.34 Y 0076.98 E 0139.61
 G1 X 0109.59 Y 0069.29 E 0140.67
G1 X 0098.34 Y 0076.98 E 0140.64
 G1 X 0097.33 Y 0082.05 E 0141.70
G1 X 0139.48 Y 0165.65 E 0146.44
 G1 X 0167.23 Y 0174.06 E 0147.50
G1 X 0126.84 Y 0181.96 E 0148.31
 G1 X 0132.00 Y 0189.73 E 0149.37
G1 X 0126.84 Y 0181.96 E 0152.43
 G1 X 0139.48 Y 0165.65 E 0153.49
G1 X 0115.03 Y 0175.28 E 0155.60
 G1 X 0104.78 Y 0187.37 E 0156.66
G1 X 0115.03 Y 0175.28 E 0158.32
 G1 X 0126.84 Y 0181.96 E 0159.38
G1 X 0109.47 Y 0165.01 E 0162.48
 G1 X 0091.82 Y 0154.00 E 0163.54
G1 X 0109.47 Y 0165.01 E 0164.81
 G1 X 0115.03 Y 0175.28 E 0165.87
G1 X 0075.17 Y 0067.19 E 0165.10
 G1 X 0074.67 Y 0068.52 E 0166.16
G1 X 0074.51 Y 0063.23 E 0167.20
 G1 X 0065.56 Y 0057.73 E 0168.26
G1 X 0074.51 Y 0063.23 E 0168.00
 G1 X 0075.17 Y 0067.19 E 0169.06
G1 X 0075.98 Y 0070.03 E 0168.40
 G1 X 0074.67 Y 0068.52 E 0169.46
G1 X 0075.98 Y 0070.03 E 0169.43
 G1 X 0075.30 Y 0075.13 E 0170.49
G1 X 0080.08 Y 0070.03 E 0170.25
 G1 X 0075.98 Y 0070.03 E 0171.31
G1 X 0083.30 Y 0075.66 E 0173.15
 G1 X 0095.43 Y 0083.57 E 0174.21
G1 X 0083.30 Y 0075.66 E 0174.75
 G1 X 0075.30 Y 0075.13 E 0175.81
G1 X 0083.30 Y 0075.66 E 0176.05
 G1 X 0080.08 Y 0070.03 E 0177.11
G1 X 0074.81 Y 0075.53 E 0176.18
 G1 X 0075.30 Y 0075.13 E 0177.23
G1 X 0075.43 Y 0086.01 E 0178.28
 G1 X 0074.81 Y 0075.53 E 0179.33
G1 X 0059.58 Y 0075.43 E 0178.37
 G1 X 0059.13 Y 0075.35 E 0179.43
G1 X 0059.58 Y 0075.43 E 0178.49
 G1 X 0060.11 Y 0075.77 E 0179.55
G1 X 0058.16 Y 0080.82 E 0179.60
 G1 X 0059.13 Y 0075.35 E 0180.66
G1 X 0099.59 Y 0082.95 E 0180.09
 G1 X 0097.33 Y 0082.05 E 0181.15
G1 X 0118.96 Y 0084.27 E 0183.97
 G1 X 0099.59 Y 0082.95 E 0185.03
G1 X 0119.69 Y 0083.78 E 0184.15
 G1 X 0118.96 Y 0084.27 E 0185.21
G1 X 0174.19 Y 0149.66 E 0185.64
 G1 X 0169.06 Y 0155.04 E 0186.70
G1 X 0078.25 Y 0092.31 E 0187.02
 G1 X 0075.43 Y 0086.01 E 0188.08
G1 X 0089.71 Y 0091.46 E 0188.97
 G1 X 0095.43 Y 0083.57 E 0190.03
G1 X 0089.71 Y 0091.46 E 0191.26
 G1 X 0078.25 Y 0092.31 E 0192.32
G1 X 0092.38 Y 0100.06 E 0194.30
 G1 X 0106.47 Y 0105.70 E 0195.36
G1 X 0092.38 Y 0100.06 E 0196.10
 G1 X 0089.71 Y 0091.46 E 0197.16
G1 X 0089.49 Y 0114.52 E 0199.05
 G1 X 0092.38 Y 0100.06 E 0200.11
G1 X 0078.29 Y 0132.88 E 0201.12
 G1 X 0085.52 Y 0140.26 E 0202.17
G1 X 0078.29 Y 0132.88 E 0205.42
 G1 X 0089.49 Y 0114.52 E 0206.48
G1 X 0074.10 Y 0131.52 E 0210.22
 G1 X 0058.94 Y 0150.17 E 0211.28
G1 X 0074.10 Y 0131.52 E 0211.11
 G1 X 0078.29 Y 0132.88 E 0212.16
G1 X 0062.03 Y 0123.22 E 0215.50
 G1 X 0045.79 Y 0138.01 E 0216.56
G1 X 0062.03 Y 0123.22 E 0218.43
 G1 X 0074.10 Y 0131.52 E 0219.49
G1 X 0059.83 Y 0119.36 E 0221.39
 G1 X 0046.44 Y 0113.00 E 0222.45
G1 X 0059.83 Y 0119.36 E 0222.28
 G1 X 0062.03 Y 0123.22 E 0223.34
G1 X 0104.91 Y 0120.87 E 0227.77
 G1 X 0085.52 Y 0140.26 E 0228.82
G1 X 0085.19 Y 0064.72 E 0229.70
 G1 X 0094.61 Y 0066.92 E 0230.76
G1 X 0082.47 Y 0065.25 E 0230.77
 G1 X 0080.08 Y 0070.03 E 0231.83
G1 X 0082.47 Y 0065.25 E 0231.32
 G1 X 0085.19 Y 0064.72 E 0232.38
G1 X 0080.72 Y 0064.42 E 0232.56
 G1 X 0075.17 Y 0067.19 E 0233.62
G1 X 0080.72 Y 0064.42 E 0232.95
 G1 X 0082.47 Y 0065.25 E 0234.01
G1 X 0078.49 Y 0061.78 E 0233.80
 G1 X 0074.51 Y 0063.23 E 0234.86
G1 X 0078.49 Y 0061.78 E 0234.49
 G1 X 0080.72 Y 0064.42 E 0235.55
G1 X 0078.49 Y 0049.53 E 0236.61
 G1 X 0068.09 Y 0047.42 E 0237.67
G1 X 0078.49 Y 0049.53 E 0239.06
 G1 X 0078.49 Y 0061.78 E 0240.12
G1 X 0080.09 Y 0049.43 E 0239.36
 G1 X 0081.52 Y 0049.05 E 0240.42
G1 X 0080.09 Y 0049.43 E 0242.58
 G1 X 0085.19 Y 0064.72 E 0243.64
G1 X 0080.09 Y 0049.43 E 0242.90
 G1 X 0078.49 Y 0049.53 E 0243.96
G1 X 0071.38 Y 0081.96 E 0244.05
 G1 X 0075.43 Y 0086.01 E 0245.11
G1 X 0065.31 Y 0072.56 E 0245.33
 G1 X 0059.58 Y 0075.43 E 0246.39
G1 X 0067.34 Y 0067.83 E 0246.79
 G1 X 0063.38 Y 0061.67 E 0247.85
G1 X 0067.34 Y 0067.83 E 0247.82
 G1 X 0065.31 Y 0072.56 E 0248.88
G1 X 0069.03 Y 0068.82 E 0248.95
 G1 X 0074.67 Y 0068.52 E 0250.01
G1 X 0069.03 Y 0068.82 E 0249.34
 G1 X 0067.34 Y 0067.83 E 0250.40
G1 X 0050.42 Y 0095.29 E 0252.47
 G1 X 0044.50 Y 0109.77 E 0253.53
G1 X 0059.97 Y 0082.79 E 0253.01
 G1 X 0058.16 Y 0080.82 E 0254.07
G1 X 0063.06 Y 0081.67 E 0254.33
 G1 X 0060.11 Y 0075.77 E 0255.38
G1 X 0063.06 Y 0081.67 E 0254.98
 G1 X 0059.97 Y 0082.79 E 0256.04
G1 X 0139.16 Y 0157.54 E 0256.61
 G1 X 0139.48 Y 0165.65 E 0257.66
G1 X 0123.34 Y 0154.91 E 0260.04
 G1 X 0109.47 Y 0165.01 E 0261.09
G1 X 0123.34 Y 0154.91 E 0263.24
 G1 X 0139.16 Y 0157.54 E 0264.30
G1 X 0111.16 Y 0103.06 E 0264.32
 G1 X 0106.47 Y 0105.70 E 0265.38
G1 X 0112.20 Y 0097.54 E 0268.18
 G1 X 0099.59 Y 0082.95 E 0269.24
G1 X 0112.20 Y 0097.54 E 0269.30
 G1 X 0111.16 Y 0103.06 E 0270.36
G1 X 0119.62 Y 0094.57 E 0271.37
 G1 X 0118.96 Y 0084.27 E 0272.42
G1 X 0119.62 Y 0094.57 E 0272.96
 G1 X 0112.20 Y 0097.54 E 0274.02
G1 X 0123.22 Y 0097.37 E 0273.88
 G1 X 0119.62 Y 0094.57 E 0274.94
G1 X 0117.18 Y 0106.30 E 0275.24
 G1 X 0111.16 Y 0103.06 E 0276.30
G1 X 0123.04 Y 0103.25 E 0276.42
 G1 X 0123.22 Y 0097.37 E 0277.48
G1 X 0123.04 Y 0103.25 E 0277.74
 G1 X 0117.18 Y 0106.30 E 0278.80
G1 X 0127.05 Y 0106.42 E 0278.76
 G1 X 0123.04 Y 0103.25 E 0279.82
G1 X 0117.37 Y 0111.55 E 0279.82
 G1 X 0117.18 Y 0106.30 E 0280.87
G1 X 0106.53 Y 0106.38 E 0279.95
 G1 X 0106.47 Y 0105.70 E 0281.01
G1 X 0110.52 Y 0113.56 E 0281.38
 G1 X 0117.37 Y 0111.55 E 0282.44
G1 X 0110.52 Y 0113.56 E 0283.03
 G1 X 0106.53 Y 0106.38 E 0284.08
G1 X 0110.26 Y 0114.42 E 0284.48
 G1 X 0113.03 Y 0121.13 E 0285.54
G1 X 0110.26 Y 0114.42 E 0284.66
 G1 X 0110.52 Y 0113.56 E 0285.71
G1 X 0104.35 Y 0116.95 E 0285.45
 G1 X 0104.91 Y 0120.87 E 0286.51
G1 X 0104.35 Y 0116.95 E 0286.73
 G1 X 0110.26 Y 0114.42 E 0287.79
G1 X 0102.19 Y 0115.05 E 0289.28
 G1 X 0089.49 Y 0114.52 E 0290.34
G1 X 0102.19 Y 0115.05 E 0291.22
 G1 X 0106.53 Y 0106.38 E 0292.27
G1 X 0102.19 Y 0115.05 E 0291.79
 G1 X 0104.35 Y 0116.95 E 0292.85
G1 X 0062.81 Y 0076.90 E 0292.38
 G1 X 0060.11 Y 0075.77 E 0293.43
G1 X 0064.90 Y 0079.33 E 0293.02
 G1 X 0062.81 Y 0076.90 E 0294.07
G1 X 0066.42 Y 0079.05 E 0293.32
 G1 X 0064.90 Y 0079.33 E 0294.38
G1 X 0067.53 Y 0081.00 E 0294.12
 G1 X 0071.38 Y 0081.96 E 0295.18
G1 X 0067.53 Y 0081.00 E 0294.57
 G1 X 0066.42 Y 0079.05 E 0295.63
G1 X 0065.38 Y 0083.68 E 0295.25
 G1 X 0067.53 Y 0081.00 E 0296.31
G1 X 0063.60 Y 0081.67 E 0295.36
 G1 X 0063.06 Y 0081.67 E 0296.42
G1 X 0063.60 Y 0081.67 E 0295.90
 G1 X 0064.90 Y 0079.33 E 0296.95
G1 X 0063.60 Y 0081.67 E 0296.43
 G1 X 0065.38 Y 0083.68 E 0297.49
G1 X 0069.72 Y 0077.82 E 0297.33
 G1 X 0071.38 Y 0081.96 E 0298.38
G1 X 0067.18 Y 0078.07 E 0297.58
 G1 X 0066.42 Y 0079.05 E 0298.63
G1 X 0067.18 Y 0078.07 E 0298.09
 G1 X 0069.72 Y 0077.82 E 0299.14
G1 X 0066.30 Y 0075.74 E 0298.82
 G1 X 0062.81 Y 0076.90 E 0299.88
G1 X 0066.30 Y 0075.74 E 0299.32
 G1 X 0067.18 Y 0078.07 E 0300.38
G1 X 0066.47 Y 0075.17 E 0299.89
 G1 X 0065.31 Y 0072.56 E 0300.95
G1 X 0066.47 Y 0075.17 E 0300.01
 G1 X 0066.30 Y 0075.74 E 0301.07
G1 X 0070.94 Y 0074.53 E 0301.22
 G1 X 0069.03 Y 0068.82 E 0302.27
G1 X 0070.94 Y 0074.53 E 0302.12
 G1 X 0066.47 Y 0075.17 E 0303.18
G1 X 0071.29 Y 0074.94 E 0302.83
 G1 X 0074.81 Y 0075.53 E 0303.89
G1 X 0071.29 Y 0074.94 E 0303.49
 G1 X 0069.72 Y 0077.82 E 0304.55
G1 X 0071.29 Y 0074.94 E 0303.59
 G1 X 0070.94 Y 0074.53 E 0304.65
G1 X 0048.41 Y 0082.93 E 0307.31
 G1 X 0036.66 Y 0068.57 E 0308.36
G1 X 0052.35 Y 0080.63 E 0309.97
 G1 X 0050.88 Y 0067.38 E 0311.03
G1 X 0052.35 Y 0080.63 E 0310.88
 G1 X 0048.41 Y 0082.93 E 0311.94
G1 X 0048.48 Y 0087.99 E 0312.40
 G1 X 0050.42 Y 0095.29 E 0313.45
G1 X 0047.64 Y 0087.55 E 0315.11
 G1 X 0034.29 Y 0089.94 E 0316.17
G1 X 0047.64 Y 0087.55 E 0316.05
 G1 X 0048.41 Y 0082.93 E 0317.11
G1 X 0047.64 Y 0087.55 E 0316.23
 G1 X 0048.48 Y 0087.99 E 0317.29
G1 X 0054.13 Y 0093.29 E 0317.08
 G1 X 0050.42 Y 0095.29 E 0318.14
G1 X 0065.82 Y 0104.98 E 0320.19
 G1 X 0059.83 Y 0119.36 E 0321.25
G1 X 0065.82 Y 0104.98 E 0323.50
 G1 X 0054.13 Y 0093.29 E 0324.56
G1 X 0149.07 Y 0154.40 E 0327.99
 G1 X 0166.44 Y 0168.67 E 0329.05
G1 X 0139.43 Y 0157.19 E 0328.08
 G1 X 0139.16 Y 0157.54 E 0329.14
G1 X 0139.43 Y 0157.19 E 0330.09
 G1 X 0149.07 Y 0154.40 E 0331.15
G1 X 0138.31 Y 0147.98 E 0331.95
 G1 X 0139.43 Y 0157.19 E 0333.01
G1 X 0147.44 Y 0143.42 E 0333.76
 G1 X 0140.57 Y 0137.47 E 0334.82
G1 X 0147.44 Y 0143.42 E 0335.80
 G1 X 0138.31 Y 0147.98 E 0336.86
G1 X 0151.23 Y 0144.03 E 0336.57
 G1 X 0147.44 Y 0143.42 E 0337.63
G1 X 0151.91 Y 0144.74 E 0337.98
 G1 X 0158.95 Y 0144.57 E 0339.04
G1 X 0151.91 Y 0144.74 E 0339.99
 G1 X 0149.07 Y 0154.40 E 0341.05
G1 X 0151.91 Y 0144.74 E 0340.19
 G1 X 0151.23 Y 0144.03 E 0341.25
G1 X 0134.04 Y 0104.61 E 0341.63
 G1 X 0127.05 Y 0106.42 E 0342.69
G1 X 0127.81 Y 0095.57 E 0342.62
 G1 X 0123.22 Y 0097.37 E 0343.68
G1 X 0140.45 Y 0133.75 E 0343.37
 G1 X 0140.57 Y 0137.47 E 0344.42
G1 X 0139.65 Y 0132.35 E 0343.69
 G1 X 0140.45 Y 0133.75 E 0344.75
G1 X 0146.45 Y 0125.54 E 0344.65
 G1 X 0147.05 Y 0120.77 E 0345.71
G1 X 0146.45 Y 0125.54 E 0346.58
 G1 X 0139.65 Y 0132.35 E 0347.63
G1 X 0152.48 Y 0132.49 E 0347.36
 G1 X 0156.15 Y 0131.15 E 0348.42
G1 X 0152.48 Y 0132.49 E 0349.20
 G1 X 0146.45 Y 0125.54 E 0350.26
G1 X 0150.90 Y 0134.91 E 0351.02
 G1 X 0151.23 Y 0144.03 E 0352.08
G1 X 0150.90 Y 0134.91 E 0353.12
 G1 X 0140.45 Y 0133.75 E 0354.18
G1 X 0150.90 Y 0134.91 E 0353.70
 G1 X 0152.48 Y 0132.49 E 0354.76
G1 X 0090.77 Y 0148.07 E 0354.91
 G1 X 0091.82 Y 0154.00 E 0355.97
G1 X 0090.30 Y 0146.93 E 0356.55
 G1 X 0085.52 Y 0140.26 E 0357.61
G1 X 0090.30 Y 0146.93 E 0356.79
 G1 X 0090.77 Y 0148.07 E 0357.85
G1 X 0125.29 Y 0148.23 E 0358.19
 G1 X 0123.34 Y 0154.91 E 0359.24
G1 X 0125.02 Y 0146.57 E 0358.52
 G1 X 0125.29 Y 0148.23 E 0359.58
G1 X 0130.35 Y 0138.82 E 0359.39
 G1 X 0129.56 Y 0134.54 E 0360.45
G1 X 0130.35 Y 0138.82 E 0361.27
 G1 X 0125.02 Y 0146.57 E 0362.33
G1 X 0136.33 Y 0142.93 E 0362.66
 G1 X 0140.57 Y 0137.47 E 0363.72
G1 X 0136.33 Y 0142.93 E 0364.11
 G1 X 0130.35 Y 0138.82 E 0365.17
G1 X 0136.52 Y 0145.74 E 0364.68
 G1 X 0138.31 Y 0147.98 E 0365.74
G1 X 0136.52 Y 0145.74 E 0366.98
 G1 X 0125.29 Y 0148.23 E 0368.04
G1 X 0136.52 Y 0145.74 E 0367.55
 G1 X 0136.33 Y 0142.93 E 0368.60
G1 X 0053.51 Y 0087.51 E 0368.56
 G1 X 0048.48 Y 0087.99 E 0369.62
G1 X 0053.51 Y 0087.51 E 0368.93
 G1 X 0055.30 Y 0088.08 E 0369.99
G1 X 0052.78 Y 0080.97 E 0369.04
 G1 X 0052.35 Y 0080.63 E 0370.10
G1 X 0052.78 Y 0080.97 E 0370.36
 G1 X 0053.51 Y 0087.51 E 0371.42
G1 X 0056.24 Y 0081.50 E 0370.77
 G1 X 0058.16 Y 0080.82 E 0371.83
G1 X 0056.24 Y 0081.50 E 0372.10
 G1 X 0055.30 Y 0088.08 E 0373.15
G1 X 0056.24 Y 0081.50 E 0372.80
 G1 X 0052.78 Y 0080.97 E 0373.85
G1 X 0059.97 Y 0086.51 E 0373.54
 G1 X 0059.97 Y 0082.79 E 0374.60
G1 X 0067.10 Y 0089.68 E 0374.79
 G1 X 0065.38 Y 0083.68 E 0375.85
G1 X 0067.10 Y 0089.68 E 0376.35
 G1 X 0059.97 Y 0086.51 E 0377.41
G1 X 0072.63 Y 0095.20 E 0377.61
 G1 X 0078.25 Y 0092.31 E 0378.67
G1 X 0072.63 Y 0095.20 E 0379.18
 G1 X 0067.10 Y 0089.68 E 0380.23
G1 X 0068.10 Y 0100.82 E 0380.13
 G1 X 0065.82 Y 0104.98 E 0381.18
G1 X 0068.10 Y 0100.82 E 0381.57
 G1 X 0072.63 Y 0095.20 E 0382.63
G1 X 0055.96 Y 0089.90 E 0382.34
 G1 X 0054.13 Y 0093.29 E 0383.40
G1 X 0055.96 Y 0089.90 E 0385.60
 G1 X 0068.10 Y 0100.82 E 0386.66
G1 X 0055.76 Y 0088.38 E 0385.71
 G1 X 0055.30 Y 0088.08 E 0386.77
G1 X 0055.76 Y 0088.38 E 0386.64
 G1 X 0059.97 Y 0086.51 E 0387.69
G1 X 0055.76 Y 0088.38 E 0386.94
 G1 X 0055.96 Y 0089.90 E 0388.00
G1 X 0133.94 Y 0114.98 E 0388.49
 G1 X 0136.06 Y 0107.54 E 0389.55
G1 X 0103.99 Y 0135.27 E 0392.08
 G1 X 0090.30 Y 0146.93 E 0393.14
G1 X 0110.46 Y 0122.33 E 0393.23
 G1 X 0104.91 Y 0120.87 E 0394.29
G1 X 0110.46 Y 0122.33 E 0396.13
 G1 X 0103.99 Y 0135.27 E 0397.18
G1 X 0112.92 Y 0121.64 E 0396.23
 G1 X 0113.03 Y 0121.13 E 0397.29
G1 X 0112.92 Y 0121.64 E 0396.74
 G1 X 0110.46 Y 0122.33 E 0397.80
G1 X 0112.29 Y 0141.34 E 0401.25
 G1 X 0090.77 Y 0148.07 E 0402.31
