;FLAVOR:UltiGCode
; TIME:400
;MATERIAL:160
; MATERIAL2: 0
;NOZZLE_DIAMETER:0.400000
;NOZZLE_DIAMETER2:  0.400000
;Layer count: 98
;LAYER: 0
M107
G0  F600 Z0.3
;INSOLE EDGES
G1 X 0073.74 Y 0054.93 E 0002.37
 G1 X 0081.99 Y 0039.89 E 0003.43
G1 X 0077.82 Y 0070.57 E 0005.61
 G1 X 0073.74 Y 0054.93 E 0006.66
G1 X 0061.13 Y 0080.35 E 0009.47
 G1 X 0077.82 Y 0070.57 E 0010.53
G1 X 0058.89 Y 0079.68 E 0014.32
 G1 X 0036.19 Y 0088.12 E 0015.38
G1 X 0058.89 Y 0079.68 E 0014.78
 G1 X 0061.13 Y 0080.35 E 0015.84
G1 X 0048.23 Y 0055.69 E 0018.71
 G1 X 0028.87 Y 0052.47 E 0019.77
G1 X 0048.23 Y 0055.69 E 0023.96
 G1 X 0058.89 Y 0079.68 E 0025.02
G1 X 0054.02 Y 0052.27 E 0029.14
 G1 X 0061.55 Y 0027.53 E 0030.19
G1 X 0054.02 Y 0052.27 E 0033.12
 G1 X 0073.74 Y 0054.93 E 0034.17
G1 X 0054.02 Y 0052.27 E 0034.46
 G1 X 0048.23 Y 0055.69 E 0035.52
G1 X 0161.75 Y 0166.97 E 0039.38
 G1 X 0186.01 Y 0162.77 E 0040.44
G1 X 0161.75 Y 0166.97 E 0045.05
 G1 X 0159.48 Y 0195.22 E 0046.11
G1 X 0066.94 Y 0097.05 E 0048.59
 G1 X 0061.13 Y 0080.35 E 0049.64
G1 X 0056.59 Y 0113.12 E 0052.41
 G1 X 0066.94 Y 0097.05 E 0053.47
G1 X 0088.28 Y 0073.90 E 0054.60
 G1 X 0077.82 Y 0070.57 E 0055.66
G1 X 0088.28 Y 0073.90 E 0058.42
 G1 X 0103.49 Y 0062.38 E 0059.48
G1 X 0157.24 Y 0144.78 E 0061.06
 G1 X 0167.56 Y 0136.56 E 0062.12
G1 X 0158.76 Y 0164.88 E 0061.79
 G1 X 0161.75 Y 0166.97 E 0062.85
G1 X 0158.76 Y 0164.88 E 0065.82
 G1 X 0157.24 Y 0144.78 E 0066.88
G1 X 0140.11 Y 0166.01 E 0069.01
 G1 X 0130.27 Y 0178.55 E 0070.07
G1 X 0140.11 Y 0166.01 E 0072.75
 G1 X 0158.76 Y 0164.88 E 0073.80
G1 X 0090.71 Y 0100.88 E 0077.56
 G1 X 0066.94 Y 0097.05 E 0078.62
G1 X 0093.41 Y 0092.10 E 0081.34
 G1 X 0088.28 Y 0073.90 E 0082.40
G1 X 0093.41 Y 0092.10 E 0083.18
 G1 X 0090.71 Y 0100.88 E 0084.24
G1 X 0118.57 Y 0085.56 E 0088.38
 G1 X 0093.41 Y 0092.10 E 0089.44
G1 X 0111.29 Y 0112.75 E 0093.52
 G1 X 0136.87 Y 0110.00 E 0094.58
G1 X 0111.29 Y 0112.75 E 0098.87
 G1 X 0119.75 Y 0087.38 E 0099.93
G1 X 0095.57 Y 0115.32 E 0101.92
 G1 X 0090.71 Y 0100.88 E 0102.98
G1 X 0107.31 Y 0115.20 E 0102.86
 G1 X 0111.29 Y 0112.75 E 0103.91
G1 X 0107.31 Y 0115.20 E 0105.20
 G1 X 0095.57 Y 0115.32 E 0106.26
G1 X 0140.22 Y 0122.46 E 0106.72
 G1 X 0143.22 Y 0115.50 E 0107.78
G1 X 0145.18 Y 0142.70 E 0109.17
 G1 X 0157.24 Y 0144.78 E 0110.23
G1 X 0145.18 Y 0142.70 E 0113.34
 G1 X 0140.22 Y 0122.46 E 0114.39
G1 X 0136.24 Y 0150.28 E 0116.58
 G1 X 0140.11 Y 0166.01 E 0117.63
G1 X 0136.24 Y 0150.28 E 0118.92
 G1 X 0145.18 Y 0142.70 E 0119.98
G1 X 0120.88 Y 0132.07 E 0123.25
 G1 X 0107.31 Y 0115.20 E 0124.31
G1 X 0123.65 Y 0133.26 E 0127.20
 G1 X 0140.22 Y 0122.46 E 0128.26
G1 X 0123.65 Y 0133.26 E 0127.81
 G1 X 0120.88 Y 0132.07 E 0128.87
G1 X 0126.61 Y 0146.80 E 0129.85
 G1 X 0136.24 Y 0150.28 E 0130.91
G1 X 0126.61 Y 0146.80 E 0132.63
 G1 X 0123.65 Y 0133.26 E 0133.68
G1 X 0108.03 Y 0159.32 E 0137.11
 G1 X 0126.61 Y 0146.80 E 0138.17
G1 X 0081.64 Y 0136.53 E 0142.18
 G1 X 0095.57 Y 0115.32 E 0143.24
G1 X 0095.37 Y 0148.39 E 0148.24
 G1 X 0120.88 Y 0132.07 E 0149.30
;CONTOUR EDGES
G1 X 0031.40 Y 0033.51 E 0149.84
 G1 X 0037.39 Y 0028.22 E 0150.90
G1 X 0037.39 Y 0028.22 E 0151.94
 G1 X 0047.27 Y 0024.69 E 0153.00
G1 X 0047.27 Y 0024.69 E 0153.99
 G1 X 0057.50 Y 0025.40 E 0155.05
G1 X 0057.50 Y 0025.40 E 0158.69
 G1 X 0078.32 Y 0036.34 E 0159.75
G1 X 0078.32 Y 0036.34 E 0164.88
 G1 X 0100.54 Y 0057.86 E 0165.94
G1 X 0100.54 Y 0057.86 E 0170.44
 G1 X 0115.71 Y 0081.14 E 0171.49
G1 X 0115.71 Y 0081.14 E 0176.15
 G1 X 0131.23 Y 0105.13 E 0177.21
G1 X 0131.23 Y 0105.13 E 0185.85
 G1 X 0167.92 Y 0136.88 E 0186.91
G1 X 0167.92 Y 0136.88 E 0190.96
 G1 X 0184.50 Y 0156.28 E 0192.02
G1 X 0184.50 Y 0156.28 E 0194.07
 G1 X 0188.03 Y 0171.45 E 0195.13
G1 X 0188.03 Y 0171.45 E 0196.95
 G1 X 0181.33 Y 0184.15 E 0198.00
G1 X 0181.33 Y 0184.15 E 0201.21
 G1 X 0163.69 Y 0196.14 E 0202.27
G1 X 0163.69 Y 0196.14 E 0204.82
 G1 X 0146.05 Y 0192.26 E 0205.88
G1 X 0146.05 Y 0192.26 E 0210.53
 G1 X 0124.53 Y 0173.57 E 0211.58
G1 X 0124.53 Y 0173.57 E 0225.53
 G1 X 0067.73 Y 0124.53 E 0226.59
G1 X 0067.73 Y 0124.53 E 0233.92
 G1 X 0038.45 Y 0094.54 E 0234.97
G1 X 0038.45 Y 0094.54 E 0239.45
 G1 X 0029.28 Y 0068.44 E 0240.51
G1 X 0029.28 Y 0068.44 E 0244.88
 G1 X 0028.57 Y 0041.27 E 0245.94
G1 X 0028.57 Y 0041.27 E 0245.87
 G1 X 0030.34 Y 0036.69 E 0246.93
G1 X 0030.34 Y 0036.69 E 0245.87
 G1 X 0030.34 Y 0036.69 E 0246.93
G1 X 0030.34 Y 0036.69 E 0246.54
 G1 X 0031.40 Y 0033.51 E 0247.59
G0  F600 Z0.6
;INSOLE EDGES
G1 X 0073.74 Y 0054.93 E 0249.97
 G1 X 0081.99 Y 0039.89 E 0251.02
G1 X 0077.82 Y 0070.57 E 0253.20
 G1 X 0073.74 Y 0054.93 E 0254.26
G1 X 0061.13 Y 0080.35 E 0257.07
 G1 X 0077.82 Y 0070.57 E 0258.13
G1 X 0058.89 Y 0079.68 E 0261.91
 G1 X 0036.19 Y 0088.12 E 0262.97
G1 X 0058.89 Y 0079.68 E 0262.38
 G1 X 0061.13 Y 0080.35 E 0263.44
G1 X 0048.23 Y 0055.69 E 0266.31
 G1 X 0028.87 Y 0052.47 E 0267.36
G1 X 0048.23 Y 0055.69 E 0271.56
 G1 X 0058.89 Y 0079.68 E 0272.61
G1 X 0054.02 Y 0052.27 E 0276.73
 G1 X 0061.55 Y 0027.53 E 0277.79
G1 X 0054.02 Y 0052.27 E 0280.71
 G1 X 0073.74 Y 0054.93 E 0281.77
G1 X 0054.02 Y 0052.27 E 0282.05
 G1 X 0048.23 Y 0055.69 E 0283.11
G1 X 0161.75 Y 0166.97 E 0286.98
 G1 X 0186.01 Y 0162.77 E 0288.04
G1 X 0161.75 Y 0166.97 E 0292.65
 G1 X 0159.48 Y 0195.22 E 0293.70
G1 X 0066.94 Y 0097.05 E 0296.18
 G1 X 0061.13 Y 0080.35 E 0297.24
G1 X 0056.59 Y 0113.12 E 0300.00
 G1 X 0066.94 Y 0097.05 E 0301.06
G1 X 0088.28 Y 0073.90 E 0302.20
 G1 X 0077.82 Y 0070.57 E 0303.26
G1 X 0088.28 Y 0073.90 E 0306.01
 G1 X 0103.49 Y 0062.38 E 0307.07
G1 X 0157.24 Y 0144.78 E 0308.65
 G1 X 0167.56 Y 0136.56 E 0309.71
G1 X 0158.76 Y 0164.88 E 0309.38
 G1 X 0161.75 Y 0166.97 E 0310.44
G1 X 0158.76 Y 0164.88 E 0313.42
 G1 X 0157.24 Y 0144.78 E 0314.47
G1 X 0140.11 Y 0166.01 E 0316.60
 G1 X 0130.27 Y 0178.55 E 0317.66
G1 X 0140.11 Y 0166.01 E 0320.34
 G1 X 0158.76 Y 0164.88 E 0321.40
G1 X 0090.71 Y 0100.88 E 0325.16
 G1 X 0066.94 Y 0097.05 E 0326.21
G1 X 0093.41 Y 0092.10 E 0328.94
 G1 X 0088.28 Y 0073.90 E 0330.00
G1 X 0093.41 Y 0092.10 E 0330.77
 G1 X 0090.71 Y 0100.88 E 0331.83
G1 X 0118.57 Y 0085.56 E 0335.97
 G1 X 0093.41 Y 0092.10 E 0337.03
G1 X 0111.29 Y 0112.75 E 0341.12
 G1 X 0136.87 Y 0110.00 E 0342.18
G1 X 0111.29 Y 0112.75 E 0346.47
 G1 X 0119.75 Y 0087.38 E 0347.53
G1 X 0095.57 Y 0115.32 E 0349.51
 G1 X 0090.71 Y 0100.88 E 0350.57
G1 X 0107.31 Y 0115.20 E 0350.45
 G1 X 0111.29 Y 0112.75 E 0351.51
G1 X 0107.31 Y 0115.20 E 0352.80
 G1 X 0095.57 Y 0115.32 E 0353.86
G1 X 0140.22 Y 0122.46 E 0354.31
 G1 X 0143.22 Y 0115.50 E 0355.37
G1 X 0145.18 Y 0142.70 E 0356.76
 G1 X 0157.24 Y 0144.78 E 0357.82
G1 X 0145.18 Y 0142.70 E 0360.93
 G1 X 0140.22 Y 0122.46 E 0361.99
G1 X 0136.24 Y 0150.28 E 0364.17
 G1 X 0140.11 Y 0166.01 E 0365.23
G1 X 0136.24 Y 0150.28 E 0366.51
 G1 X 0145.18 Y 0142.70 E 0367.57
G1 X 0120.88 Y 0132.07 E 0370.84
 G1 X 0107.31 Y 0115.20 E 0371.90
G1 X 0123.65 Y 0133.26 E 0374.80
 G1 X 0140.22 Y 0122.46 E 0375.86
G1 X 0123.65 Y 0133.26 E 0375.40
 G1 X 0120.88 Y 0132.07 E 0376.46
G1 X 0126.61 Y 0146.80 E 0377.45
 G1 X 0136.24 Y 0150.28 E 0378.51
G1 X 0126.61 Y 0146.80 E 0380.22
 G1 X 0123.65 Y 0133.26 E 0381.28
G1 X 0108.03 Y 0159.32 E 0384.70
 G1 X 0126.61 Y 0146.80 E 0385.76
G1 X 0081.64 Y 0136.53 E 0389.78
 G1 X 0095.57 Y 0115.32 E 0390.84
G1 X 0095.37 Y 0148.39 E 0395.84
 G1 X 0120.88 Y 0132.07 E 0396.89
;CONTOUR EDGES
G1 X 0031.40 Y 0033.51 E 0397.43
 G1 X 0037.39 Y 0028.22 E 0398.49
G1 X 0037.39 Y 0028.22 E 0399.53
 G1 X 0047.27 Y 0024.69 E 0400.59
G1 X 0047.27 Y 0024.69 E 0401.58
 G1 X 0057.50 Y 0025.40 E 0402.64
G1 X 0057.50 Y 0025.40 E 0406.29
 G1 X 0078.32 Y 0036.34 E 0407.34
G1 X 0078.32 Y 0036.34 E 0412.47
 G1 X 0100.54 Y 0057.86 E 0413.53
G1 X 0100.54 Y 0057.86 E 0418.03
 G1 X 0115.71 Y 0081.14 E 0419.09
G1 X 0115.71 Y 0081.14 E 0423.75
 G1 X 0131.23 Y 0105.13 E 0424.80
G1 X 0131.23 Y 0105.13 E 0433.45
 G1 X 0167.92 Y 0136.88 E 0434.51
G1 X 0167.92 Y 0136.88 E 0438.55
 G1 X 0184.50 Y 0156.28 E 0439.61
G1 X 0184.50 Y 0156.28 E 0441.67
 G1 X 0188.03 Y 0171.45 E 0442.73
G1 X 0188.03 Y 0171.45 E 0444.54
 G1 X 0181.33 Y 0184.15 E 0445.60
G1 X 0181.33 Y 0184.15 E 0448.81
 G1 X 0163.69 Y 0196.14 E 0449.87
G1 X 0163.69 Y 0196.14 E 0452.42
 G1 X 0146.05 Y 0192.26 E 0453.48
G1 X 0146.05 Y 0192.26 E 0458.12
 G1 X 0124.53 Y 0173.57 E 0459.18
G1 X 0124.53 Y 0173.57 E 0473.13
 G1 X 0067.73 Y 0124.53 E 0474.19
G1 X 0067.73 Y 0124.53 E 0481.51
 G1 X 0038.45 Y 0094.54 E 0482.57
G1 X 0038.45 Y 0094.54 E 0487.04
 G1 X 0029.28 Y 0068.44 E 0488.10
G1 X 0029.28 Y 0068.44 E 0492.48
 G1 X 0028.57 Y 0041.27 E 0493.54
G1 X 0028.57 Y 0041.27 E 0493.46
 G1 X 0030.34 Y 0036.69 E 0494.52
G1 X 0030.34 Y 0036.69 E 0493.46
 G1 X 0030.34 Y 0036.69 E 0494.52
G1 X 0030.34 Y 0036.69 E 0494.13
 G1 X 0031.40 Y 0033.51 E 0495.19
G0  F600 Z0.90000004
;INSOLE EDGES
G1 X 0073.74 Y 0054.93 E 0497.56
 G1 X 0081.99 Y 0039.89 E 0498.62
G1 X 0077.82 Y 0070.57 E 0500.79
 G1 X 0073.74 Y 0054.93 E 0501.85
G1 X 0061.13 Y 0080.35 E 0504.66
 G1 X 0077.82 Y 0070.57 E 0505.72
G1 X 0058.89 Y 0079.68 E 0509.51
 G1 X 0036.19 Y 0088.12 E 0510.56
G1 X 0058.89 Y 0079.68 E 0509.97
 G1 X 0061.13 Y 0080.35 E 0511.03
G1 X 0048.23 Y 0055.69 E 0513.90
 G1 X 0028.87 Y 0052.47 E 0514.96
G1 X 0048.23 Y 0055.69 E 0519.15
 G1 X 0058.89 Y 0079.68 E 0520.21
G1 X 0054.02 Y 0052.27 E 0524.32
 G1 X 0061.55 Y 0027.53 E 0525.38
G1 X 0054.02 Y 0052.27 E 0528.30
 G1 X 0073.74 Y 0054.93 E 0529.36
G1 X 0054.02 Y 0052.27 E 0529.65
 G1 X 0048.23 Y 0055.69 E 0530.71
G1 X 0161.75 Y 0166.97 E 0534.57
 G1 X 0186.01 Y 0162.77 E 0535.63
G1 X 0161.75 Y 0166.97 E 0540.24
 G1 X 0159.48 Y 0195.22 E 0541.30
G1 X 0066.94 Y 0097.05 E 0543.78
 G1 X 0061.13 Y 0080.35 E 0544.83
G1 X 0056.59 Y 0113.12 E 0547.60
 G1 X 0066.94 Y 0097.05 E 0548.66
G1 X 0088.28 Y 0073.90 E 0549.79
 G1 X 0077.82 Y 0070.57 E 0550.85
G1 X 0088.28 Y 0073.90 E 0553.61
 G1 X 0103.49 Y 0062.38 E 0554.67
G1 X 0157.24 Y 0144.78 E 0556.25
 G1 X 0167.56 Y 0136.56 E 0557.31
G1 X 0158.76 Y 0164.88 E 0556.98
 G1 X 0161.75 Y 0166.97 E 0558.04
G1 X 0158.76 Y 0164.88 E 0561.01
 G1 X 0157.24 Y 0144.78 E 0562.07
G1 X 0140.11 Y 0166.01 E 0564.20
 G1 X 0130.27 Y 0178.55 E 0565.26
G1 X 0140.11 Y 0166.01 E 0567.93
 G1 X 0158.76 Y 0164.88 E 0568.99
G1 X 0090.71 Y 0100.88 E 0572.75
 G1 X 0066.94 Y 0097.05 E 0573.81
G1 X 0093.41 Y 0092.10 E 0576.53
 G1 X 0088.28 Y 0073.90 E 0577.59
G1 X 0093.41 Y 0092.10 E 0578.37
 G1 X 0090.71 Y 0100.88 E 0579.43
G1 X 0118.57 Y 0085.56 E 0583.57
 G1 X 0093.41 Y 0092.10 E 0584.63
G1 X 0111.29 Y 0112.75 E 0588.71
 G1 X 0136.87 Y 0110.00 E 0589.77
G1 X 0111.29 Y 0112.75 E 0594.06
 G1 X 0119.75 Y 0087.38 E 0595.12
G1 X 0095.57 Y 0115.32 E 0597.11
 G1 X 0090.71 Y 0100.88 E 0598.17
G1 X 0107.31 Y 0115.20 E 0598.04
 G1 X 0111.29 Y 0112.75 E 0599.10
G1 X 0107.31 Y 0115.20 E 0600.39
 G1 X 0095.57 Y 0115.32 E 0601.45
G1 X 0140.22 Y 0122.46 E 0601.91
 G1 X 0143.22 Y 0115.50 E 0602.97
G1 X 0145.18 Y 0142.70 E 0604.36
 G1 X 0157.24 Y 0144.78 E 0605.42
G1 X 0145.18 Y 0142.70 E 0608.52
 G1 X 0140.22 Y 0122.46 E 0609.58
G1 X 0136.24 Y 0150.28 E 0611.76
 G1 X 0140.11 Y 0166.01 E 0612.82
G1 X 0136.24 Y 0150.28 E 0614.11
 G1 X 0145.18 Y 0142.70 E 0615.17
G1 X 0120.88 Y 0132.07 E 0618.44
 G1 X 0107.31 Y 0115.20 E 0619.49
G1 X 0123.65 Y 0133.26 E 0622.39
 G1 X 0140.22 Y 0122.46 E 0623.45
G1 X 0123.65 Y 0133.26 E 0623.00
 G1 X 0120.88 Y 0132.07 E 0624.05
G1 X 0126.61 Y 0146.80 E 0625.04
 G1 X 0136.24 Y 0150.28 E 0626.10
G1 X 0126.61 Y 0146.80 E 0627.81
 G1 X 0123.65 Y 0133.26 E 0628.87
G1 X 0108.03 Y 0159.32 E 0632.30
 G1 X 0126.61 Y 0146.80 E 0633.35
G1 X 0081.64 Y 0136.53 E 0637.37
 G1 X 0095.57 Y 0115.32 E 0638.43
G1 X 0095.37 Y 0148.39 E 0643.43
 G1 X 0120.88 Y 0132.07 E 0644.49
;CONTOUR EDGES
G1 X 0031.40 Y 0033.51 E 0645.03
 G1 X 0037.39 Y 0028.22 E 0646.09
G1 X 0037.39 Y 0028.22 E 0647.13
 G1 X 0047.27 Y 0024.69 E 0648.18
G1 X 0047.27 Y 0024.69 E 0649.18
 G1 X 0057.50 Y 0025.40 E 0650.24
G1 X 0057.50 Y 0025.40 E 0653.88
 G1 X 0078.32 Y 0036.34 E 0654.94
G1 X 0078.32 Y 0036.34 E 0660.07
 G1 X 0100.54 Y 0057.86 E 0661.13
G1 X 0100.54 Y 0057.86 E 0665.62
 G1 X 0115.71 Y 0081.14 E 0666.68
G1 X 0115.71 Y 0081.14 E 0671.34
 G1 X 0131.23 Y 0105.13 E 0672.40
G1 X 0131.23 Y 0105.13 E 0681.04
 G1 X 0167.92 Y 0136.88 E 0682.10
G1 X 0167.92 Y 0136.88 E 0686.15
 G1 X 0184.50 Y 0156.28 E 0687.21
G1 X 0184.50 Y 0156.28 E 0689.26
 G1 X 0188.03 Y 0171.45 E 0690.32
G1 X 0188.03 Y 0171.45 E 0692.13
 G1 X 0181.33 Y 0184.15 E 0693.19
G1 X 0181.33 Y 0184.15 E 0696.40
 G1 X 0163.69 Y 0196.14 E 0697.46
G1 X 0163.69 Y 0196.14 E 0700.01
 G1 X 0146.05 Y 0192.26 E 0701.07
G1 X 0146.05 Y 0192.26 E 0705.71
 G1 X 0124.53 Y 0173.57 E 0706.77
G1 X 0124.53 Y 0173.57 E 0720.72
 G1 X 0067.73 Y 0124.53 E 0721.78
G1 X 0067.73 Y 0124.53 E 0729.10
 G1 X 0038.45 Y 0094.54 E 0730.16
G1 X 0038.45 Y 0094.54 E 0734.64
 G1 X 0029.28 Y 0068.44 E 0735.70
G1 X 0029.28 Y 0068.44 E 0740.07
 G1 X 0028.57 Y 0041.27 E 0741.13
G1 X 0028.57 Y 0041.27 E 0741.06
 G1 X 0030.34 Y 0036.69 E 0742.11
G1 X 0030.34 Y 0036.69 E 0741.06
 G1 X 0030.34 Y 0036.69 E 0742.11
G1 X 0030.34 Y 0036.69 E 0741.72
 G1 X 0031.40 Y 0033.51 E 0742.78
G0  F600 Z1.2
;INSOLE EDGES
G1 X 0073.74 Y 0054.93 E 0745.15
 G1 X 0081.99 Y 0039.89 E 0746.21
G1 X 0077.82 Y 0070.57 E 0748.39
 G1 X 0073.74 Y 0054.93 E 0749.45
G1 X 0061.13 Y 0080.35 E 0752.26
 G1 X 0077.82 Y 0070.57 E 0753.32
G1 X 0058.89 Y 0079.68 E 0757.10
 G1 X 0036.19 Y 0088.12 E 0758.16
G1 X 0058.89 Y 0079.68 E 0757.57
 G1 X 0061.13 Y 0080.35 E 0758.63
G1 X 0048.23 Y 0055.69 E 0761.49
 G1 X 0028.87 Y 0052.47 E 0762.55
G1 X 0048.23 Y 0055.69 E 0766.74
 G1 X 0058.89 Y 0079.68 E 0767.80
G1 X 0054.02 Y 0052.27 E 0771.92
 G1 X 0061.55 Y 0027.53 E 0772.98
G1 X 0054.02 Y 0052.27 E 0775.90
 G1 X 0073.74 Y 0054.93 E 0776.96
G1 X 0054.02 Y 0052.27 E 0777.24
 G1 X 0048.23 Y 0055.69 E 0778.30
G1 X 0161.75 Y 0166.97 E 0782.17
 G1 X 0186.01 Y 0162.77 E 0783.23
G1 X 0161.75 Y 0166.97 E 0787.83
 G1 X 0159.48 Y 0195.22 E 0788.89
G1 X 0066.94 Y 0097.05 E 0791.37
 G1 X 0061.13 Y 0080.35 E 0792.43
G1 X 0056.59 Y 0113.12 E 0795.19
 G1 X 0066.94 Y 0097.05 E 0796.25
G1 X 0088.28 Y 0073.90 E 0797.39
 G1 X 0077.82 Y 0070.57 E 0798.45
G1 X 0088.28 Y 0073.90 E 0801.20
 G1 X 0103.49 Y 0062.38 E 0802.26
G1 X 0157.24 Y 0144.78 E 0803.84
 G1 X 0167.56 Y 0136.56 E 0804.90
G1 X 0158.76 Y 0164.88 E 0804.57
 G1 X 0161.75 Y 0166.97 E 0805.63
G1 X 0158.76 Y 0164.88 E 0808.60
 G1 X 0157.24 Y 0144.78 E 0809.66
G1 X 0140.11 Y 0166.01 E 0811.79
 G1 X 0130.27 Y 0178.55 E 0812.85
G1 X 0140.11 Y 0166.01 E 0815.53
 G1 X 0158.76 Y 0164.88 E 0816.59
G1 X 0090.71 Y 0100.88 E 0820.34
 G1 X 0066.94 Y 0097.05 E 0821.40
G1 X 0093.41 Y 0092.10 E 0824.13
 G1 X 0088.28 Y 0073.90 E 0825.18
G1 X 0093.41 Y 0092.10 E 0825.96
 G1 X 0090.71 Y 0100.88 E 0827.02
G1 X 0118.57 Y 0085.56 E 0831.16
 G1 X 0093.41 Y 0092.10 E 0832.22
G1 X 0111.29 Y 0112.75 E 0836.31
 G1 X 0136.87 Y 0110.00 E 0837.37
G1 X 0111.29 Y 0112.75 E 0841.66
 G1 X 0119.75 Y 0087.38 E 0842.71
G1 X 0095.57 Y 0115.32 E 0844.70
 G1 X 0090.71 Y 0100.88 E 0845.76
G1 X 0107.31 Y 0115.20 E 0845.64
 G1 X 0111.29 Y 0112.75 E 0846.70
G1 X 0107.31 Y 0115.20 E 0847.99
 G1 X 0095.57 Y 0115.32 E 0849.05
G1 X 0140.22 Y 0122.46 E 0849.50
 G1 X 0143.22 Y 0115.50 E 0850.56
G1 X 0145.18 Y 0142.70 E 0851.95
 G1 X 0157.24 Y 0144.78 E 0853.01
G1 X 0145.18 Y 0142.70 E 0856.12
 G1 X 0140.22 Y 0122.46 E 0857.18
G1 X 0136.24 Y 0150.28 E 0859.36
 G1 X 0140.11 Y 0166.01 E 0860.42
G1 X 0136.24 Y 0150.28 E 0861.70
 G1 X 0145.18 Y 0142.70 E 0862.76
G1 X 0120.88 Y 0132.07 E 0866.03
 G1 X 0107.31 Y 0115.20 E 0867.09
G1 X 0123.65 Y 0133.26 E 0869.99
 G1 X 0140.22 Y 0122.46 E 0871.04
G1 X 0123.65 Y 0133.26 E 0870.59
 G1 X 0120.88 Y 0132.07 E 0871.65
G1 X 0126.61 Y 0146.80 E 0872.64
 G1 X 0136.24 Y 0150.28 E 0873.70
G1 X 0126.61 Y 0146.80 E 0875.41
 G1 X 0123.65 Y 0133.26 E 0876.47
G1 X 0108.03 Y 0159.32 E 0879.89
 G1 X 0126.61 Y 0146.80 E 0880.95
G1 X 0081.64 Y 0136.53 E 0884.97
 G1 X 0095.57 Y 0115.32 E 0886.02
