;FLAVOR:UltiGCode
; TIME:400
;MATERIAL:160
; MATERIAL2: 0
;NOZZLE_DIAMETER:0.400000
;NOZZLE_DIAMETER2:  0.400000
;Layer count: 98
;LAYER: 0
M107
G0  F600 Z0.3
;INSOLE EDGES
G1 X 0070.89 Y 0096.17 E 0003.17
 G1 X 0052.86 Y 0107.27 E 0004.23
G1 X 0077.52 Y 0113.02 E 0006.22
 G1 X 0065.52 Y 0122.41 E 0007.28
G1 X 0048.78 Y 0076.22 E 0008.58
 G1 X 0037.36 Y 0079.07 E 0009.63
G1 X 0048.78 Y 0076.22 E 0013.92
 G1 X 0054.97 Y 0050.21 E 0014.98
G1 X 0059.38 Y 0044.03 E 0017.32
 G1 X 0057.75 Y 0027.10 E 0018.38
G1 X 0054.90 Y 0049.89 E 0017.39
 G1 X 0054.97 Y 0050.21 E 0018.45
G1 X 0054.90 Y 0049.89 E 0018.86
 G1 X 0059.38 Y 0044.03 E 0019.92
G1 X 0040.86 Y 0049.48 E 0021.90
 G1 X 0028.09 Y 0057.72 E 0022.96
G1 X 0040.86 Y 0049.48 E 0026.96
 G1 X 0051.00 Y 0026.30 E 0028.02
G1 X 0040.86 Y 0049.48 E 0029.77
 G1 X 0054.90 Y 0049.89 E 0030.83
G1 X 0171.03 Y 0177.13 E 0033.18
 G1 X 0165.35 Y 0193.22 E 0034.24
G1 X 0186.97 Y 0169.16 E 0036.75
 G1 X 0171.03 Y 0177.13 E 0037.81
G1 X 0073.11 Y 0052.01 E 0039.92
 G1 X 0059.38 Y 0044.03 E 0040.98
G1 X 0085.56 Y 0043.46 E 0042.94
 G1 X 0073.11 Y 0052.01 E 0044.00
G1 X 0122.80 Y 0100.96 E 0044.13
 G1 X 0126.85 Y 0096.63 E 0045.19
G1 X 0079.18 Y 0103.25 E 0046.11
 G1 X 0077.52 Y 0113.02 E 0047.17
G1 X 0074.30 Y 0097.07 E 0046.82
 G1 X 0070.89 Y 0096.17 E 0047.88
G1 X 0074.30 Y 0097.07 E 0048.39
 G1 X 0079.18 Y 0103.25 E 0049.45
G1 X 0091.47 Y 0121.93 E 0051.70
 G1 X 0077.52 Y 0113.02 E 0052.76
G1 X 0092.66 Y 0134.42 E 0053.35
 G1 X 0087.44 Y 0140.80 E 0054.41
G1 X 0092.66 Y 0134.42 E 0055.86
 G1 X 0091.47 Y 0121.93 E 0056.92
G1 X 0140.41 Y 0147.80 E 0060.45
 G1 X 0121.62 Y 0160.94 E 0061.50
G1 X 0121.00 Y 0147.36 E 0063.16
 G1 X 0121.62 Y 0160.94 E 0064.22
G1 X 0157.53 Y 0149.51 E 0066.61
 G1 X 0140.41 Y 0147.80 E 0067.67
G1 X 0119.75 Y 0168.74 E 0068.21
 G1 X 0121.62 Y 0160.94 E 0069.27
G1 X 0124.70 Y 0171.40 E 0076.10
 G1 X 0157.53 Y 0149.51 E 0077.16
G1 X 0059.72 Y 0078.56 E 0080.27
 G1 X 0070.89 Y 0096.17 E 0081.33
G1 X 0056.17 Y 0075.79 E 0081.75
 G1 X 0048.78 Y 0076.22 E 0082.81
G1 X 0056.17 Y 0075.79 E 0082.65
 G1 X 0059.72 Y 0078.56 E 0083.71
G1 X 0067.75 Y 0063.97 E 0086.41
 G1 X 0054.97 Y 0050.21 E 0087.47
G1 X 0067.75 Y 0063.97 E 0089.72
 G1 X 0056.17 Y 0075.79 E 0090.78
G1 X 0068.83 Y 0063.35 E 0092.14
 G1 X 0073.11 Y 0052.01 E 0093.20
G1 X 0068.83 Y 0063.35 E 0092.39
 G1 X 0067.75 Y 0063.97 E 0093.45
G1 X 0098.62 Y 0091.78 E 0097.57
 G1 X 0122.80 Y 0100.96 E 0098.63
G1 X 0097.66 Y 0088.97 E 0101.34
 G1 X 0113.95 Y 0079.42 E 0102.40
G1 X 0097.66 Y 0088.97 E 0101.94
 G1 X 0098.62 Y 0091.78 E 0102.99
G1 X 0101.70 Y 0133.29 E 0103.76
 G1 X 0092.66 Y 0134.42 E 0104.82
G1 X 0108.71 Y 0126.04 E 0105.78
 G1 X 0101.70 Y 0133.29 E 0106.84
G1 X 0118.89 Y 0144.10 E 0106.55
 G1 X 0121.00 Y 0147.36 E 0107.61
G1 X 0118.89 Y 0144.10 E 0110.62
 G1 X 0101.70 Y 0133.29 E 0111.67
G1 X 0095.62 Y 0116.40 E 0112.00
 G1 X 0091.47 Y 0121.93 E 0113.06
G1 X 0142.39 Y 0127.91 E 0114.03
 G1 X 0152.01 Y 0124.67 E 0115.09
G1 X 0140.41 Y 0129.99 E 0117.59
 G1 X 0140.41 Y 0147.80 E 0118.65
G1 X 0140.41 Y 0129.99 E 0118.17
 G1 X 0142.39 Y 0127.91 E 0119.22
G1 X 0134.24 Y 0133.27 E 0122.03
 G1 X 0121.00 Y 0147.36 E 0123.09
G1 X 0134.24 Y 0133.27 E 0123.43
 G1 X 0140.41 Y 0129.99 E 0124.49
G1 X 0118.89 Y 0125.59 E 0127.13
 G1 X 0118.89 Y 0144.10 E 0128.19
G1 X 0118.89 Y 0125.59 E 0130.57
 G1 X 0134.24 Y 0133.27 E 0131.62
G1 X 0118.34 Y 0124.21 E 0132.52
 G1 X 0108.71 Y 0126.04 E 0133.58
G1 X 0118.34 Y 0124.21 E 0132.82
 G1 X 0118.89 Y 0125.59 E 0133.88
G1 X 0122.58 Y 0114.71 E 0137.58
 G1 X 0142.39 Y 0127.91 E 0138.64
G1 X 0122.58 Y 0114.71 E 0139.66
 G1 X 0118.34 Y 0124.21 E 0140.72
G1 X 0164.26 Y 0164.70 E 0142.50
 G1 X 0171.03 Y 0177.13 E 0143.55
G1 X 0145.00 Y 0182.29 E 0147.71
 G1 X 0164.26 Y 0164.70 E 0148.77
G1 X 0165.37 Y 0147.82 E 0149.31
 G1 X 0157.53 Y 0149.51 E 0150.37
G1 X 0165.37 Y 0147.82 E 0157.53
 G1 X 0138.18 Y 0178.63 E 0158.59
G1 X 0165.84 Y 0147.62 E 0159.10
 G1 X 0170.96 Y 0141.70 E 0160.16
G1 X 0165.84 Y 0147.62 E 0162.53
 G1 X 0164.26 Y 0164.70 E 0163.59
G1 X 0165.84 Y 0147.62 E 0162.63
 G1 X 0165.37 Y 0147.82 E 0163.69
G1 X 0077.12 Y 0092.96 E 0163.63
 G1 X 0074.30 Y 0097.07 E 0164.69
G1 X 0079.53 Y 0079.93 E 0167.60
 G1 X 0059.72 Y 0078.56 E 0168.66
G1 X 0079.53 Y 0079.93 E 0170.25
 G1 X 0077.12 Y 0092.96 E 0171.31
G1 X 0096.22 Y 0087.87 E 0170.61
 G1 X 0097.66 Y 0088.97 E 0171.67
G1 X 0093.33 Y 0087.69 E 0171.19
 G1 X 0096.22 Y 0087.87 E 0172.25
G1 X 0091.25 Y 0087.01 E 0174.26
 G1 X 0077.12 Y 0092.96 E 0175.32
G1 X 0091.25 Y 0087.01 E 0174.70
 G1 X 0093.33 Y 0087.69 E 0175.76
G1 X 0082.20 Y 0077.97 E 0175.36
 G1 X 0079.53 Y 0079.93 E 0176.42
G1 X 0082.20 Y 0077.97 E 0177.92
 G1 X 0091.25 Y 0087.01 E 0178.98
G1 X 0084.40 Y 0070.18 E 0181.32
 G1 X 0068.83 Y 0063.35 E 0182.38
G1 X 0084.40 Y 0070.18 E 0182.94
 G1 X 0082.20 Y 0077.97 E 0183.99
G1 X 0096.96 Y 0063.67 E 0184.04
 G1 X 0100.67 Y 0059.56 E 0185.10
G1 X 0096.96 Y 0063.67 E 0188.89
 G1 X 0096.22 Y 0087.87 E 0189.94
G1 X 0096.96 Y 0063.67 E 0191.71
 G1 X 0084.40 Y 0070.18 E 0192.77
G1 X 0080.64 Y 0103.05 E 0192.01
 G1 X 0079.18 Y 0103.25 E 0193.07
G1 X 0081.84 Y 0102.04 E 0195.69
 G1 X 0093.33 Y 0087.69 E 0196.74
G1 X 0081.84 Y 0102.04 E 0196.00
 G1 X 0080.64 Y 0103.05 E 0197.06
G1 X 0098.05 Y 0093.94 E 0196.45
 G1 X 0098.62 Y 0091.78 E 0197.50
G1 X 0098.05 Y 0093.94 E 0200.07
 G1 X 0081.84 Y 0102.04 E 0201.13
G1 X 0105.67 Y 0117.29 E 0201.92
 G1 X 0108.71 Y 0126.04 E 0202.98
G1 X 0105.30 Y 0117.12 E 0203.86
 G1 X 0095.62 Y 0116.40 E 0204.92
G1 X 0105.30 Y 0117.12 E 0203.94
 G1 X 0105.67 Y 0117.29 E 0205.00
G1 X 0105.30 Y 0106.13 E 0206.14
 G1 X 0105.30 Y 0117.12 E 0207.20
G1 X 0122.17 Y 0102.28 E 0206.43
 G1 X 0122.80 Y 0100.96 E 0207.49
G1 X 0122.17 Y 0102.28 E 0209.89
 G1 X 0105.30 Y 0106.13 E 0210.95
G1 X 0121.58 Y 0108.92 E 0211.07
 G1 X 0122.58 Y 0114.71 E 0212.13
G1 X 0121.58 Y 0108.92 E 0214.66
 G1 X 0105.67 Y 0117.29 E 0215.72
G1 X 0121.58 Y 0108.92 E 0216.00
 G1 X 0122.17 Y 0102.28 E 0217.06
G1 X 0095.71 Y 0115.08 E 0216.26
 G1 X 0095.62 Y 0116.40 E 0217.32
G1 X 0091.92 Y 0105.78 E 0218.58
 G1 X 0080.64 Y 0103.05 E 0219.64
G1 X 0091.92 Y 0105.78 E 0220.59
 G1 X 0095.71 Y 0115.08 E 0221.65
G1 X 0097.87 Y 0100.64 E 0221.93
 G1 X 0098.05 Y 0093.94 E 0222.99
G1 X 0097.87 Y 0100.64 E 0223.51
 G1 X 0091.92 Y 0105.78 E 0224.56
G1 X 0104.15 Y 0106.03 E 0223.74
 G1 X 0105.30 Y 0106.13 E 0224.80
G1 X 0104.15 Y 0106.03 E 0226.21
 G1 X 0095.71 Y 0115.08 E 0227.27
G1 X 0104.15 Y 0106.03 E 0227.87
 G1 X 0097.87 Y 0100.64 E 0228.93
;CONTOUR EDGES
G1 X 0034.57 Y 0031.40 E 0230.00
 G1 X 0043.39 Y 0025.40 E 0231.06
G1 X 0043.39 Y 0025.40 E 0234.19
 G1 X 0064.21 Y 0027.87 E 0235.25
G1 X 0064.21 Y 0027.87 E 0237.85
 G1 X 0079.37 Y 0038.10 E 0238.91
G1 X 0079.37 Y 0038.10 E 0240.65
 G1 X 0089.96 Y 0047.27 E 0241.71
G1 X 0089.96 Y 0047.27 E 0244.30
 G1 X 0101.95 Y 0061.03 E 0245.36
G1 X 0101.95 Y 0061.03 E 0248.08
 G1 X 0112.18 Y 0076.91 E 0249.14
G1 X 0112.18 Y 0076.91 E 0251.53
 G1 X 0122.06 Y 0091.02 E 0252.58
G1 X 0122.06 Y 0091.02 E 0259.13
 G1 X 0146.76 Y 0119.94 E 0260.19
G1 X 0146.76 Y 0119.94 E 0266.63
 G1 X 0174.62 Y 0144.99 E 0267.69
G1 X 0174.62 Y 0144.99 E 0270.32
 G1 X 0186.97 Y 0158.75 E 0271.38
G1 X 0186.97 Y 0158.75 E 0273.71
 G1 X 0186.97 Y 0175.68 E 0274.77
G1 X 0186.97 Y 0175.68 E 0276.05
 G1 X 0181.33 Y 0185.91 E 0277.11
G1 X 0181.33 Y 0185.91 E 0279.36
 G1 X 0166.86 Y 0194.03 E 0280.42
G1 X 0166.86 Y 0194.03 E 0290.25
 G1 X 0118.89 Y 0168.27 E 0291.31
G1 X 0118.89 Y 0168.27 E 0299.16
 G1 X 0085.37 Y 0138.99 E 0300.21
G1 X 0085.37 Y 0138.99 E 0306.42
 G1 X 0057.50 Y 0115.71 E 0307.48
G1 X 0057.50 Y 0115.71 E 0318.58
 G1 X 0028.22 Y 0062.44 E 0319.63
G1 X 0028.22 Y 0062.44 E 0321.19
 G1 X 0027.87 Y 0049.39 E 0322.25
G1 X 0027.87 Y 0049.39 E 0323.55
 G1 X 0029.99 Y 0037.75 E 0324.61
G1 X 0029.99 Y 0037.75 E 0324.36
 G1 X 0032.46 Y 0034.57 E 0325.42
G1 X 0032.46 Y 0034.57 E 0325.12
 G1 X 0034.57 Y 0031.40 E 0326.18
G0  F600 Z0.6
;INSOLE EDGES
G1 X 0070.89 Y 0096.17 E 0329.35
 G1 X 0052.86 Y 0107.27 E 0330.41
G1 X 0077.52 Y 0113.02 E 0332.40
 G1 X 0065.52 Y 0122.41 E 0333.46
G1 X 0048.78 Y 0076.22 E 0334.75
 G1 X 0037.36 Y 0079.07 E 0335.81
G1 X 0048.78 Y 0076.22 E 0340.10
 G1 X 0054.97 Y 0050.21 E 0341.16
G1 X 0059.38 Y 0044.03 E 0343.50
 G1 X 0057.75 Y 0027.10 E 0344.56
G1 X 0054.90 Y 0049.89 E 0343.57
 G1 X 0054.97 Y 0050.21 E 0344.63
G1 X 0054.90 Y 0049.89 E 0345.04
 G1 X 0059.38 Y 0044.03 E 0346.10
G1 X 0040.86 Y 0049.48 E 0348.08
 G1 X 0028.09 Y 0057.72 E 0349.14
G1 X 0040.86 Y 0049.48 E 0353.14
 G1 X 0051.00 Y 0026.30 E 0354.20
G1 X 0040.86 Y 0049.48 E 0355.95
 G1 X 0054.90 Y 0049.89 E 0357.01
G1 X 0171.03 Y 0177.13 E 0359.36
 G1 X 0165.35 Y 0193.22 E 0360.42
G1 X 0186.97 Y 0169.16 E 0362.93
 G1 X 0171.03 Y 0177.13 E 0363.99
G1 X 0073.11 Y 0052.01 E 0366.10
 G1 X 0059.38 Y 0044.03 E 0367.16
G1 X 0085.56 Y 0043.46 E 0369.12
 G1 X 0073.11 Y 0052.01 E 0370.18
G1 X 0122.80 Y 0100.96 E 0370.31
 G1 X 0126.85 Y 0096.63 E 0371.37
G1 X 0079.18 Y 0103.25 E 0372.29
 G1 X 0077.52 Y 0113.02 E 0373.35
G1 X 0074.30 Y 0097.07 E 0373.00
 G1 X 0070.89 Y 0096.17 E 0374.06
G1 X 0074.30 Y 0097.07 E 0374.57
 G1 X 0079.18 Y 0103.25 E 0375.63
G1 X 0091.47 Y 0121.93 E 0377.88
 G1 X 0077.52 Y 0113.02 E 0378.94
G1 X 0092.66 Y 0134.42 E 0379.53
 G1 X 0087.44 Y 0140.80 E 0380.59
G1 X 0092.66 Y 0134.42 E 0382.04
 G1 X 0091.47 Y 0121.93 E 0383.10
G1 X 0140.41 Y 0147.80 E 0386.63
 G1 X 0121.62 Y 0160.94 E 0387.68
G1 X 0121.00 Y 0147.36 E 0389.34
 G1 X 0121.62 Y 0160.94 E 0390.40
G1 X 0157.53 Y 0149.51 E 0392.79
 G1 X 0140.41 Y 0147.80 E 0393.85
G1 X 0119.75 Y 0168.74 E 0394.39
 G1 X 0121.62 Y 0160.94 E 0395.45
G1 X 0124.70 Y 0171.40 E 0402.28
 G1 X 0157.53 Y 0149.51 E 0403.34
G1 X 0059.72 Y 0078.56 E 0406.45
 G1 X 0070.89 Y 0096.17 E 0407.51
G1 X 0056.17 Y 0075.79 E 0407.93
 G1 X 0048.78 Y 0076.22 E 0408.99
G1 X 0056.17 Y 0075.79 E 0408.83
 G1 X 0059.72 Y 0078.56 E 0409.89
G1 X 0067.75 Y 0063.97 E 0412.59
 G1 X 0054.97 Y 0050.21 E 0413.65
G1 X 0067.75 Y 0063.97 E 0415.90
 G1 X 0056.17 Y 0075.79 E 0416.96
G1 X 0068.83 Y 0063.35 E 0418.32
 G1 X 0073.11 Y 0052.01 E 0419.38
G1 X 0068.83 Y 0063.35 E 0418.57
 G1 X 0067.75 Y 0063.97 E 0419.63
G1 X 0098.62 Y 0091.78 E 0423.75
 G1 X 0122.80 Y 0100.96 E 0424.81
G1 X 0097.66 Y 0088.97 E 0427.52
 G1 X 0113.95 Y 0079.42 E 0428.58
G1 X 0097.66 Y 0088.97 E 0428.12
 G1 X 0098.62 Y 0091.78 E 0429.17
G1 X 0101.70 Y 0133.29 E 0429.94
 G1 X 0092.66 Y 0134.42 E 0431.00
G1 X 0108.71 Y 0126.04 E 0431.96
 G1 X 0101.70 Y 0133.29 E 0433.02
G1 X 0118.89 Y 0144.10 E 0432.73
 G1 X 0121.00 Y 0147.36 E 0433.79
G1 X 0118.89 Y 0144.10 E 0436.80
 G1 X 0101.70 Y 0133.29 E 0437.85
G1 X 0095.62 Y 0116.40 E 0438.18
 G1 X 0091.47 Y 0121.93 E 0439.24
G1 X 0142.39 Y 0127.91 E 0440.21
 G1 X 0152.01 Y 0124.67 E 0441.27
G1 X 0140.41 Y 0129.99 E 0443.77
 G1 X 0140.41 Y 0147.80 E 0444.83
G1 X 0140.41 Y 0129.99 E 0444.35
 G1 X 0142.39 Y 0127.91 E 0445.40
G1 X 0134.24 Y 0133.27 E 0448.21
 G1 X 0121.00 Y 0147.36 E 0449.27
G1 X 0134.24 Y 0133.27 E 0449.61
 G1 X 0140.41 Y 0129.99 E 0450.67
G1 X 0118.89 Y 0125.59 E 0453.31
 G1 X 0118.89 Y 0144.10 E 0454.37
G1 X 0118.89 Y 0125.59 E 0456.75
 G1 X 0134.24 Y 0133.27 E 0457.80
G1 X 0118.34 Y 0124.21 E 0458.70
 G1 X 0108.71 Y 0126.04 E 0459.76
G1 X 0118.34 Y 0124.21 E 0459.00
 G1 X 0118.89 Y 0125.59 E 0460.06
G1 X 0122.58 Y 0114.71 E 0463.76
 G1 X 0142.39 Y 0127.91 E 0464.82
G1 X 0122.58 Y 0114.71 E 0465.84
 G1 X 0118.34 Y 0124.21 E 0466.90
G1 X 0164.26 Y 0164.70 E 0468.68
 G1 X 0171.03 Y 0177.13 E 0469.73
G1 X 0145.00 Y 0182.29 E 0473.89
 G1 X 0164.26 Y 0164.70 E 0474.95
G1 X 0165.37 Y 0147.82 E 0475.49
 G1 X 0157.53 Y 0149.51 E 0476.55
G1 X 0165.37 Y 0147.82 E 0483.71
 G1 X 0138.18 Y 0178.63 E 0484.77
G1 X 0165.84 Y 0147.62 E 0485.28
 G1 X 0170.96 Y 0141.70 E 0486.34
G1 X 0165.84 Y 0147.62 E 0488.71
 G1 X 0164.26 Y 0164.70 E 0489.77
G1 X 0165.84 Y 0147.62 E 0488.81
 G1 X 0165.37 Y 0147.82 E 0489.87
G1 X 0077.12 Y 0092.96 E 0489.81
 G1 X 0074.30 Y 0097.07 E 0490.87
G1 X 0079.53 Y 0079.93 E 0493.78
 G1 X 0059.72 Y 0078.56 E 0494.84
G1 X 0079.53 Y 0079.93 E 0496.43
 G1 X 0077.12 Y 0092.96 E 0497.49
G1 X 0096.22 Y 0087.87 E 0496.79
 G1 X 0097.66 Y 0088.97 E 0497.85
G1 X 0093.33 Y 0087.69 E 0497.37
 G1 X 0096.22 Y 0087.87 E 0498.43
G1 X 0091.25 Y 0087.01 E 0500.44
 G1 X 0077.12 Y 0092.96 E 0501.50
G1 X 0091.25 Y 0087.01 E 0500.88
 G1 X 0093.33 Y 0087.69 E 0501.94
G1 X 0082.20 Y 0077.97 E 0501.54
 G1 X 0079.53 Y 0079.93 E 0502.60
G1 X 0082.20 Y 0077.97 E 0504.10
 G1 X 0091.25 Y 0087.01 E 0505.16
G1 X 0084.40 Y 0070.18 E 0507.50
 G1 X 0068.83 Y 0063.35 E 0508.56
G1 X 0084.40 Y 0070.18 E 0509.12
 G1 X 0082.20 Y 0077.97 E 0510.17
G1 X 0096.96 Y 0063.67 E 0510.22
 G1 X 0100.67 Y 0059.56 E 0511.28
G1 X 0096.96 Y 0063.67 E 0515.07
 G1 X 0096.22 Y 0087.87 E 0516.12
G1 X 0096.96 Y 0063.67 E 0517.89
 G1 X 0084.40 Y 0070.18 E 0518.95
G1 X 0080.64 Y 0103.05 E 0518.19
 G1 X 0079.18 Y 0103.25 E 0519.25
G1 X 0081.84 Y 0102.04 E 0521.87
 G1 X 0093.33 Y 0087.69 E 0522.92
G1 X 0081.84 Y 0102.04 E 0522.18
 G1 X 0080.64 Y 0103.05 E 0523.24
G1 X 0098.05 Y 0093.94 E 0522.63
 G1 X 0098.62 Y 0091.78 E 0523.68
G1 X 0098.05 Y 0093.94 E 0526.25
 G1 X 0081.84 Y 0102.04 E 0527.31
G1 X 0105.67 Y 0117.29 E 0528.10
 G1 X 0108.71 Y 0126.04 E 0529.16
G1 X 0105.30 Y 0117.12 E 0530.04
 G1 X 0095.62 Y 0116.40 E 0531.10
G1 X 0105.30 Y 0117.12 E 0530.12
 G1 X 0105.67 Y 0117.29 E 0531.18
G1 X 0105.30 Y 0106.13 E 0532.32
 G1 X 0105.30 Y 0117.12 E 0533.38
G1 X 0122.17 Y 0102.28 E 0532.61
 G1 X 0122.80 Y 0100.96 E 0533.67
G1 X 0122.17 Y 0102.28 E 0536.07
 G1 X 0105.30 Y 0106.13 E 0537.13
G1 X 0121.58 Y 0108.92 E 0537.25
 G1 X 0122.58 Y 0114.71 E 0538.31
G1 X 0121.58 Y 0108.92 E 0540.84
 G1 X 0105.67 Y 0117.29 E 0541.90
G1 X 0121.58 Y 0108.92 E 0542.18
 G1 X 0122.17 Y 0102.28 E 0543.24
G1 X 0095.71 Y 0115.08 E 0542.44
 G1 X 0095.62 Y 0116.40 E 0543.50
G1 X 0091.92 Y 0105.78 E 0544.76
 G1 X 0080.64 Y 0103.05 E 0545.82
G1 X 0091.92 Y 0105.78 E 0546.77
 G1 X 0095.71 Y 0115.08 E 0547.83
G1 X 0097.87 Y 0100.64 E 0548.11
 G1 X 0098.05 Y 0093.94 E 0549.17
G1 X 0097.87 Y 0100.64 E 0549.69
 G1 X 0091.92 Y 0105.78 E 0550.74
G1 X 0104.15 Y 0106.03 E 0549.92
 G1 X 0105.30 Y 0106.13 E 0550.98
G1 X 0104.15 Y 0106.03 E 0552.39
 G1 X 0095.71 Y 0115.08 E 0553.45
G1 X 0104.15 Y 0106.03 E 0554.05
 G1 X 0097.87 Y 0100.64 E 0555.11
;CONTOUR EDGES
G1 X 0034.57 Y 0031.40 E 0556.18
 G1 X 0043.39 Y 0025.40 E 0557.24
G1 X 0043.39 Y 0025.40 E 0560.37
 G1 X 0064.21 Y 0027.87 E 0561.43
G1 X 0064.21 Y 0027.87 E 0564.03
 G1 X 0079.37 Y 0038.10 E 0565.09
G1 X 0079.37 Y 0038.10 E 0566.83
 G1 X 0089.96 Y 0047.27 E 0567.89
G1 X 0089.96 Y 0047.27 E 0570.48
 G1 X 0101.95 Y 0061.03 E 0571.54
G1 X 0101.95 Y 0061.03 E 0574.26
 G1 X 0112.18 Y 0076.91 E 0575.32
G1 X 0112.18 Y 0076.91 E 0577.71
 G1 X 0122.06 Y 0091.02 E 0578.76
G1 X 0122.06 Y 0091.02 E 0585.31
 G1 X 0146.76 Y 0119.94 E 0586.37
G1 X 0146.76 Y 0119.94 E 0592.81
 G1 X 0174.62 Y 0144.99 E 0593.86
G1 X 0174.62 Y 0144.99 E 0596.50
 G1 X 0186.97 Y 0158.75 E 0597.56
G1 X 0186.97 Y 0158.75 E 0599.89
 G1 X 0186.97 Y 0175.68 E 0600.95
G1 X 0186.97 Y 0175.68 E 0602.23
 G1 X 0181.33 Y 0185.91 E 0603.29
G1 X 0181.33 Y 0185.91 E 0605.54
 G1 X 0166.86 Y 0194.03 E 0606.60
G1 X 0166.86 Y 0194.03 E 0616.43
 G1 X 0118.89 Y 0168.27 E 0617.49
G1 X 0118.89 Y 0168.27 E 0625.34
 G1 X 0085.37 Y 0138.99 E 0626.39
G1 X 0085.37 Y 0138.99 E 0632.60
 G1 X 0057.50 Y 0115.71 E 0633.66
G1 X 0057.50 Y 0115.71 E 0644.76
 G1 X 0028.22 Y 0062.44 E 0645.81
G1 X 0028.22 Y 0062.44 E 0647.37
 G1 X 0027.87 Y 0049.39 E 0648.43
G1 X 0027.87 Y 0049.39 E 0649.73
 G1 X 0029.99 Y 0037.75 E 0650.79
G1 X 0029.99 Y 0037.75 E 0650.54
 G1 X 0032.46 Y 0034.57 E 0651.60
G1 X 0032.46 Y 0034.57 E 0651.30
 G1 X 0034.57 Y 0031.40 E 0652.36
G0  F600 Z0.90000004
;INSOLE EDGES
G1 X 0070.89 Y 0096.17 E 0655.53
 G1 X 0052.86 Y 0107.27 E 0656.59
G1 X 0077.52 Y 0113.02 E 0658.58
 G1 X 0065.52 Y 0122.41 E 0659.64
G1 X 0048.78 Y 0076.22 E 0660.93
