;FLAVOR:UltiGCode
; TIME:400
;MATERIAL:160
; MATERIAL2: 0
;NOZZLE_DIAMETER:0.400000
;NOZZLE_DIAMETER2:  0.400000
;Layer count: 98
;LAYER: 0
M107
G0  F600 Z0.3
;CONTOUR EDGES
G1 X 0045.86 Y 0039.69 E -0003.07
 G1 X 0046.80 Y 0039.06 E 0000.45
G1 X 0046.80 Y 0039.06 E -0002.62
 G1 X 0047.74 Y 0038.42 E 0000.91
G1 X 0047.74 Y 0038.42 E -0002.17
 G1 X 0048.68 Y 0037.78 E 0001.36
G1 X 0048.68 Y 0037.78 E -0001.71
 G1 X 0049.62 Y 0037.15 E 0001.81
G1 X 0049.62 Y 0037.15 E -0001.26
 G1 X 0050.56 Y 0036.51 E 0002.27
G1 X 0050.56 Y 0036.51 E -0000.81
 G1 X 0051.50 Y 0035.87 E 0002.72
G1 X 0051.50 Y 0035.87 E -0000.35
 G1 X 0052.43 Y 0035.24 E 0003.18
G1 X 0052.43 Y 0035.24 E 0000.10
 G1 X 0053.37 Y 0034.60 E 0003.63
G1 X 0053.37 Y 0034.60 E 0000.55
 G1 X 0054.31 Y 0033.96 E 0004.08
G1 X 0054.31 Y 0033.96 E 0001.01
 G1 X 0055.25 Y 0033.33 E 0004.54
G1 X 0055.25 Y 0033.33 E 0001.46
 G1 X 0056.19 Y 0032.69 E 0004.99
G1 X 0056.19 Y 0032.69 E 0001.92
 G1 X 0057.13 Y 0032.05 E 0005.44
G1 X 0057.13 Y 0032.05 E 0002.37
 G1 X 0058.06 Y 0031.42 E 0005.90
G1 X 0058.06 Y 0031.42 E 0002.82
 G1 X 0059.00 Y 0030.78 E 0006.35
G1 X 0059.00 Y 0030.78 E 0003.28
 G1 X 0059.94 Y 0030.15 E 0006.80
G1 X 0059.94 Y 0030.15 E 0003.73
 G1 X 0060.88 Y 0029.51 E 0007.26
G1 X 0060.88 Y 0029.51 E 0004.18
 G1 X 0061.82 Y 0028.88 E 0007.71
G1 X 0061.82 Y 0028.88 E 0004.64
 G1 X 0062.76 Y 0028.24 E 0008.16
G1 X 0062.76 Y 0028.24 E 0005.09
 G1 X 0063.70 Y 0027.61 E 0008.62
G1 X 0063.70 Y 0027.61 E 0005.54
 G1 X 0064.64 Y 0026.97 E 0009.07
G1 X 0064.64 Y 0026.97 E 0006.00
 G1 X 0065.59 Y 0026.34 E 0009.53
G1 X 0065.59 Y 0026.34 E 0006.45
 G1 X 0066.53 Y 0025.71 E 0009.98
G1 X 0066.53 Y 0025.71 E 0006.91
 G1 X 0067.47 Y 0025.08 E 0010.43
G1 X 0067.47 Y 0025.08 E 0007.36
 G1 X 0068.41 Y 0024.45 E 0010.89
G1 X 0068.41 Y 0024.45 E 0007.81
 G1 X 0069.36 Y 0023.82 E 0011.34
G1 X 0069.36 Y 0023.82 E 0008.27
 G1 X 0070.30 Y 0023.20 E 0011.79
G1 X 0070.30 Y 0023.20 E 0008.72
 G1 X 0071.25 Y 0022.57 E 0012.25
G1 X 0071.25 Y 0022.57 E 0009.17
 G1 X 0072.20 Y 0021.95 E 0012.70
G1 X 0072.20 Y 0021.95 E 0009.63
 G1 X 0073.15 Y 0021.33 E 0013.15
G1 X 0073.15 Y 0021.33 E 0010.08
 G1 X 0074.10 Y 0020.71 E 0013.61
G1 X 0074.10 Y 0020.71 E 0010.53
 G1 X 0075.06 Y 0020.11 E 0014.06
G1 X 0075.06 Y 0020.11 E 0010.99
 G1 X 0076.03 Y 0019.50 E 0014.52
G1 X 0076.03 Y 0019.50 E 0011.44
 G1 X 0076.99 Y 0018.92 E 0014.97
G1 X 0076.99 Y 0018.92 E 0011.90
 G1 X 0077.98 Y 0018.35 E 0015.43
G1 X 0077.98 Y 0018.35 E 0012.35
 G1 X 0078.97 Y 0017.81 E 0015.88
G1 X 0078.97 Y 0017.81 E 0012.80
 G1 X 0080.01 Y 0017.36 E 0016.33
G1 X 0080.01 Y 0017.36 E 0013.25
 G1 X 0081.12 Y 0017.15 E 0016.78
G1 X 0081.12 Y 0017.15 E 0013.70
 G1 X 0082.22 Y 0016.91 E 0017.23
G1 X 0082.22 Y 0016.91 E 0014.16
 G1 X 0083.28 Y 0016.49 E 0017.69
G1 X 0083.28 Y 0016.49 E 0014.61
 G1 X 0084.33 Y 0016.06 E 0018.14
G1 X 0084.33 Y 0016.06 E 0015.07
 G1 X 0085.38 Y 0015.63 E 0018.59
G1 X 0085.38 Y 0015.63 E 0015.52
 G1 X 0086.43 Y 0015.21 E 0019.05
G1 X 0086.43 Y 0015.21 E 0015.97
 G1 X 0087.49 Y 0014.80 E 0019.50
G1 X 0087.49 Y 0014.80 E 0016.43
 G1 X 0088.55 Y 0014.40 E 0019.96
G1 X 0088.55 Y 0014.40 E 0016.88
 G1 X 0089.62 Y 0014.03 E 0020.41
G1 X 0089.62 Y 0014.03 E 0017.34
 G1 X 0090.70 Y 0013.68 E 0020.86
G1 X 0090.70 Y 0013.68 E 0017.79
 G1 X 0091.79 Y 0013.36 E 0021.32
G1 X 0091.79 Y 0013.36 E 0018.24
 G1 X 0092.88 Y 0013.06 E 0021.77
G1 X 0092.88 Y 0013.06 E 0018.70
 G1 X 0093.98 Y 0012.78 E 0022.22
G1 X 0093.98 Y 0012.78 E 0019.15
 G1 X 0095.08 Y 0012.51 E 0022.68
G1 X 0095.08 Y 0012.51 E 0019.60
 G1 X 0096.19 Y 0012.25 E 0023.13
G1 X 0096.19 Y 0012.25 E 0020.06
 G1 X 0097.29 Y 0012.01 E 0023.58
G1 X 0097.29 Y 0012.01 E 0020.51
 G1 X 0098.40 Y 0011.78 E 0024.04
G1 X 0098.40 Y 0011.78 E 0020.96
 G1 X 0099.52 Y 0011.56 E 0024.49
G1 X 0099.52 Y 0011.56 E 0021.42
 G1 X 0100.63 Y 0011.35 E 0024.95
G1 X 0100.63 Y 0011.35 E 0021.87
 G1 X 0101.75 Y 0011.15 E 0025.40
G1 X 0101.75 Y 0011.15 E 0022.33
 G1 X 0102.87 Y 0010.96 E 0025.85
G1 X 0102.87 Y 0010.96 E 0022.78
 G1 X 0103.99 Y 0010.80 E 0026.31
G1 X 0103.99 Y 0010.80 E 0023.23
 G1 X 0105.11 Y 0010.64 E 0026.76
G1 X 0105.11 Y 0010.64 E 0023.69
 G1 X 0106.24 Y 0010.51 E 0027.21
G1 X 0106.24 Y 0010.51 E 0024.14
 G1 X 0107.37 Y 0010.39 E 0027.67
G1 X 0107.37 Y 0010.39 E 0024.59
 G1 X 0108.49 Y 0010.29 E 0028.12
G1 X 0108.49 Y 0010.29 E 0025.05
 G1 X 0109.63 Y 0010.21 E 0028.57
G1 X 0109.63 Y 0010.21 E 0025.50
 G1 X 0110.76 Y 0010.15 E 0029.03
G1 X 0110.76 Y 0010.15 E 0025.95
 G1 X 0111.89 Y 0010.10 E 0029.48
G1 X 0111.89 Y 0010.10 E 0026.41
 G1 X 0113.03 Y 0010.07 E 0029.94
G1 X 0113.03 Y 0010.07 E 0026.86
 G1 X 0114.16 Y 0010.05 E 0030.39
G1 X 0114.16 Y 0010.05 E 0027.31
 G1 X 0115.29 Y 0010.06 E 0030.84
G1 X 0115.29 Y 0010.06 E 0027.77
 G1 X 0116.43 Y 0010.09 E 0031.30
G1 X 0116.43 Y 0010.09 E 0028.22
 G1 X 0117.56 Y 0010.15 E 0031.75
G1 X 0117.56 Y 0010.15 E 0028.68
 G1 X 0118.69 Y 0010.25 E 0032.20
G1 X 0118.69 Y 0010.25 E 0029.13
 G1 X 0119.81 Y 0010.38 E 0032.66
G1 X 0119.81 Y 0010.38 E 0029.58
 G1 X 0120.94 Y 0010.54 E 0033.11
G1 X 0120.94 Y 0010.54 E 0030.04
 G1 X 0122.06 Y 0010.70 E 0033.56
G1 X 0122.06 Y 0010.70 E 0030.49
 G1 X 0123.18 Y 0010.87 E 0034.02
G1 X 0123.18 Y 0010.87 E 0030.94
 G1 X 0124.30 Y 0011.04 E 0034.47
G1 X 0124.30 Y 0011.04 E 0031.40
 G1 X 0125.42 Y 0011.24 E 0034.92
G1 X 0125.42 Y 0011.24 E 0031.85
 G1 X 0126.53 Y 0011.47 E 0035.38
G1 X 0126.53 Y 0011.47 E 0032.30
 G1 X 0127.63 Y 0011.73 E 0035.83
G1 X 0127.63 Y 0011.73 E 0032.76
 G1 X 0128.72 Y 0012.05 E 0036.29
G1 X 0128.72 Y 0012.05 E 0033.21
 G1 X 0129.79 Y 0012.42 E 0036.74
G1 X 0129.79 Y 0012.42 E 0033.66
 G1 X 0130.83 Y 0012.87 E 0037.19
G1 X 0130.83 Y 0012.87 E 0034.12
 G1 X 0131.83 Y 0013.40 E 0037.65
G1 X 0131.83 Y 0013.40 E 0034.57
 G1 X 0132.80 Y 0014.00 E 0038.10
G1 X 0132.80 Y 0014.00 E 0035.03
 G1 X 0133.74 Y 0014.63 E 0038.55
G1 X 0133.74 Y 0014.63 E 0035.48
 G1 X 0134.65 Y 0015.31 E 0039.01
G1 X 0134.65 Y 0015.31 E 0035.93
 G1 X 0135.53 Y 0016.02 E 0039.46
G1 X 0135.53 Y 0016.02 E 0036.39
 G1 X 0136.39 Y 0016.76 E 0039.91
G1 X 0136.39 Y 0016.76 E 0036.84
 G1 X 0137.22 Y 0017.54 E 0040.37
G1 X 0137.22 Y 0017.54 E 0037.29
 G1 X 0138.02 Y 0018.34 E 0040.82
G1 X 0138.02 Y 0018.34 E 0037.75
 G1 X 0138.78 Y 0019.19 E 0041.27
G1 X 0138.78 Y 0019.19 E 0038.20
 G1 X 0139.49 Y 0020.07 E 0041.73
G1 X 0139.49 Y 0020.07 E 0038.65
 G1 X 0140.13 Y 0021.01 E 0042.18
G1 X 0140.13 Y 0021.01 E 0039.11
 G1 X 0140.67 Y 0022.00 E 0042.64
G1 X 0140.67 Y 0022.00 E 0039.56
 G1 X 0141.10 Y 0023.05 E 0043.09
G1 X 0141.10 Y 0023.05 E 0040.01
 G1 X 0141.39 Y 0024.14 E 0043.54
G1 X 0141.39 Y 0024.14 E 0040.47
 G1 X 0141.56 Y 0025.26 E 0044.00
G1 X 0141.56 Y 0025.26 E 0040.92
 G1 X 0141.64 Y 0026.39 E 0044.45
G1 X 0141.64 Y 0026.39 E 0041.37
 G1 X 0141.65 Y 0027.53 E 0044.90
G1 X 0141.65 Y 0027.53 E 0041.83
 G1 X 0141.61 Y 0028.66 E 0045.36
G1 X 0141.61 Y 0028.66 E 0042.28
 G1 X 0141.53 Y 0029.79 E 0045.81
G1 X 0141.53 Y 0029.79 E 0042.74
 G1 X 0141.39 Y 0030.92 E 0046.26
G1 X 0141.39 Y 0030.92 E 0043.19
 G1 X 0141.18 Y 0032.03 E 0046.72
G1 X 0141.18 Y 0032.03 E 0043.64
 G1 X 0140.91 Y 0033.13 E 0047.17
G1 X 0140.91 Y 0033.13 E 0044.10
 G1 X 0140.57 Y 0034.21 E 0047.62
G1 X 0140.57 Y 0034.21 E 0044.55
 G1 X 0140.15 Y 0035.27 E 0048.08
G1 X 0140.15 Y 0035.27 E 0045.00
 G1 X 0139.66 Y 0036.29 E 0048.53
G1 X 0139.66 Y 0036.29 E 0045.46
 G1 X 0139.11 Y 0037.28 E 0048.98
G1 X 0139.11 Y 0037.28 E 0045.91
 G1 X 0138.50 Y 0038.24 E 0049.44
G1 X 0138.50 Y 0038.24 E 0046.36
 G1 X 0137.86 Y 0039.17 E 0049.89
G1 X 0137.86 Y 0039.17 E 0046.82
 G1 X 0137.18 Y 0040.08 E 0050.34
G1 X 0137.18 Y 0040.08 E 0047.27
 G1 X 0136.48 Y 0040.98 E 0050.80
G1 X 0136.48 Y 0040.98 E 0047.72
 G1 X 0135.76 Y 0041.85 E 0051.25
G1 X 0135.76 Y 0041.85 E 0048.18
 G1 X 0135.03 Y 0042.72 E 0051.71
G1 X 0135.03 Y 0042.72 E 0048.63
 G1 X 0134.28 Y 0043.57 E 0052.16
G1 X 0134.28 Y 0043.57 E 0049.09
 G1 X 0133.51 Y 0044.40 E 0052.61
G1 X 0133.51 Y 0044.40 E 0049.54
 G1 X 0132.73 Y 0045.23 E 0053.07
G1 X 0132.73 Y 0045.23 E 0049.99
 G1 X 0131.94 Y 0046.03 E 0053.52
G1 X 0131.94 Y 0046.03 E 0050.45
 G1 X 0131.13 Y 0046.83 E 0053.97
G1 X 0131.13 Y 0046.83 E 0050.90
 G1 X 0130.30 Y 0047.60 E 0054.43
G1 X 0130.30 Y 0047.60 E 0051.35
 G1 X 0129.45 Y 0048.35 E 0054.88
G1 X 0129.45 Y 0048.35 E 0051.81
 G1 X 0128.56 Y 0049.06 E 0055.33
G1 X 0128.56 Y 0049.06 E 0052.26
 G1 X 0127.66 Y 0049.75 E 0055.79
G1 X 0127.66 Y 0049.75 E 0052.71
 G1 X 0126.74 Y 0050.41 E 0056.24
G1 X 0126.74 Y 0050.41 E 0053.17
 G1 X 0125.80 Y 0051.05 E 0056.70
G1 X 0125.80 Y 0051.05 E 0053.62
 G1 X 0124.85 Y 0051.66 E 0057.15
G1 X 0124.85 Y 0051.66 E 0054.07
 G1 X 0123.89 Y 0052.27 E 0057.60
G1 X 0123.89 Y 0052.27 E 0054.53
 G1 X 0122.92 Y 0052.86 E 0058.06
G1 X 0122.92 Y 0052.86 E 0054.98
 G1 X 0121.95 Y 0053.44 E 0058.51
G1 X 0121.95 Y 0053.44 E 0055.44
 G1 X 0120.97 Y 0054.02 E 0058.96
G1 X 0120.97 Y 0054.02 E 0055.89
 G1 X 0120.00 Y 0054.60 E 0059.42
G1 X 0120.00 Y 0054.60 E 0056.34
 G1 X 0119.01 Y 0055.15 E 0059.87
G1 X 0119.01 Y 0055.15 E 0056.80
 G1 X 0118.00 Y 0055.68 E 0060.32
G1 X 0118.00 Y 0055.68 E 0057.25
 G1 X 0116.98 Y 0056.17 E 0060.78
G1 X 0116.98 Y 0056.17 E 0057.70
 G1 X 0115.95 Y 0056.64 E 0061.23
G1 X 0115.95 Y 0056.64 E 0058.16
 G1 X 0114.91 Y 0057.09 E 0061.69
G1 X 0114.91 Y 0057.09 E 0058.61
 G1 X 0113.86 Y 0057.52 E 0062.14
G1 X 0113.86 Y 0057.52 E 0059.06
 G1 X 0112.80 Y 0057.93 E 0062.59
G1 X 0112.80 Y 0057.93 E 0059.52
 G1 X 0111.74 Y 0058.31 E 0063.05
G1 X 0111.74 Y 0058.31 E 0059.97
 G1 X 0110.66 Y 0058.67 E 0063.50
G1 X 0110.66 Y 0058.67 E 0060.43
 G1 X 0109.57 Y 0059.00 E 0063.95
G1 X 0109.57 Y 0059.00 E 0060.88
 G1 X 0108.49 Y 0059.32 E 0064.41
G1 X 0108.49 Y 0059.32 E 0061.33
 G1 X 0107.40 Y 0059.64 E 0064.86
G1 X 0107.40 Y 0059.64 E 0061.79
 G1 X 0106.31 Y 0059.95 E 0065.31
G1 X 0106.31 Y 0059.95 E 0062.24
 G1 X 0105.22 Y 0060.26 E 0065.77
G1 X 0105.22 Y 0060.26 E 0062.69
 G1 X 0104.12 Y 0060.58 E 0066.22
G1 X 0104.12 Y 0060.58 E 0063.15
 G1 X 0103.03 Y 0060.86 E 0066.67
G1 X 0103.03 Y 0060.86 E 0063.60
 G1 X 0101.94 Y 0061.14 E 0067.13
G1 X 0101.94 Y 0061.14 E 0064.05
 G1 X 0100.84 Y 0061.44 E 0067.58
G1 X 0100.84 Y 0061.44 E 0064.50
 G1 X 0099.76 Y 0061.75 E 0068.03
G1 X 0099.76 Y 0061.75 E 0064.96
 G1 X 0098.67 Y 0062.07 E 0068.49
G1 X 0098.67 Y 0062.07 E 0065.41
 G1 X 0097.57 Y 0062.40 E 0068.94
G1 X 0097.57 Y 0062.40 E 0065.87
 G1 X 0096.48 Y 0062.70 E 0069.40
G1 X 0096.48 Y 0062.70 E 0066.32
 G1 X 0095.38 Y 0062.99 E 0069.85
G1 X 0095.38 Y 0062.99 E 0066.78
 G1 X 0094.29 Y 0063.27 E 0070.30
G1 X 0094.29 Y 0063.27 E 0067.23
 G1 X 0093.19 Y 0063.55 E 0070.76
G1 X 0093.19 Y 0063.55 E 0067.68
 G1 X 0092.09 Y 0063.83 E 0071.21
G1 X 0092.09 Y 0063.83 E 0068.14
 G1 X 0090.99 Y 0064.10 E 0071.66
G1 X 0090.99 Y 0064.10 E 0068.59
 G1 X 0089.89 Y 0064.38 E 0072.12
G1 X 0089.89 Y 0064.38 E 0069.04
 G1 X 0088.79 Y 0064.66 E 0072.57
G1 X 0088.79 Y 0064.66 E 0069.50
 G1 X 0087.69 Y 0064.95 E 0073.03
G1 X 0087.69 Y 0064.95 E 0069.95
 G1 X 0086.59 Y 0065.24 E 0073.48
G1 X 0086.59 Y 0065.24 E 0070.40
 G1 X 0085.50 Y 0065.53 E 0073.93
G1 X 0085.50 Y 0065.53 E 0070.86
 G1 X 0084.41 Y 0065.84 E 0074.39
G1 X 0084.41 Y 0065.84 E 0071.31
 G1 X 0083.31 Y 0066.14 E 0074.84
G1 X 0083.31 Y 0066.14 E 0071.77
 G1 X 0082.23 Y 0066.46 E 0075.29
G1 X 0082.23 Y 0066.46 E 0072.22
 G1 X 0081.14 Y 0066.79 E 0075.75
G1 X 0081.14 Y 0066.79 E 0072.67
 G1 X 0080.06 Y 0067.12 E 0076.20
G1 X 0080.06 Y 0067.12 E 0073.13
 G1 X 0078.98 Y 0067.47 E 0076.65
G1 X 0078.98 Y 0067.47 E 0073.58
 G1 X 0077.90 Y 0067.84 E 0077.11
G1 X 0077.90 Y 0067.84 E 0074.03
 G1 X 0076.83 Y 0068.21 E 0077.56
G1 X 0076.83 Y 0068.21 E 0074.49
 G1 X 0075.77 Y 0068.60 E 0078.01
G1 X 0075.77 Y 0068.60 E 0074.94
 G1 X 0074.71 Y 0069.02 E 0078.47
G1 X 0074.71 Y 0069.02 E 0075.39
 G1 X 0073.67 Y 0069.45 E 0078.92
G1 X 0073.67 Y 0069.45 E 0075.85
 G1 X 0072.63 Y 0069.91 E 0079.38
G1 X 0072.63 Y 0069.91 E 0076.30
 G1 X 0071.60 Y 0070.39 E 0079.83
G1 X 0071.60 Y 0070.39 E 0076.75
 G1 X 0070.59 Y 0070.91 E 0080.28
G1 X 0070.59 Y 0070.91 E 0077.21
 G1 X 0069.59 Y 0071.45 E 0080.74
G1 X 0069.59 Y 0071.45 E 0077.66
 G1 X 0068.61 Y 0072.01 E 0081.19
G1 X 0068.61 Y 0072.01 E 0078.12
 G1 X 0067.63 Y 0072.59 E 0081.64
G1 X 0067.63 Y 0072.59 E 0078.57
 G1 X 0066.67 Y 0073.18 E 0082.10
G1 X 0066.67 Y 0073.18 E 0079.02
 G1 X 0065.72 Y 0073.80 E 0082.55
G1 X 0065.72 Y 0073.80 E 0079.48
 G1 X 0064.77 Y 0074.42 E 0083.00
G1 X 0064.77 Y 0074.42 E 0079.93
 G1 X 0063.83 Y 0075.06 E 0083.46
G1 X 0063.83 Y 0075.06 E 0080.38
 G1 X 0062.90 Y 0075.71 E 0083.91
G1 X 0062.90 Y 0075.71 E 0080.84
 G1 X 0061.98 Y 0076.37 E 0084.37
G1 X 0061.98 Y 0076.37 E 0081.29
 G1 X 0061.06 Y 0077.03 E 0084.82
G1 X 0061.06 Y 0077.03 E 0081.74
 G1 X 0060.14 Y 0077.70 E 0085.27
G1 X 0060.14 Y 0077.70 E 0082.20
 G1 X 0059.23 Y 0078.37 E 0085.73
G1 X 0059.23 Y 0078.37 E 0082.65
 G1 X 0058.32 Y 0079.05 E 0086.18
G1 X 0058.32 Y 0079.05 E 0083.11
 G1 X 0057.41 Y 0079.73 E 0086.63
G1 X 0057.41 Y 0079.73 E 0083.56
 G1 X 0056.51 Y 0080.41 E 0087.09
G1 X 0056.51 Y 0080.41 E 0084.01
 G1 X 0055.60 Y 0081.09 E 0087.54
G1 X 0055.60 Y 0081.09 E 0084.47
 G1 X 0054.68 Y 0081.76 E 0087.99
G1 X 0054.68 Y 0081.76 E 0084.92
 G1 X 0053.77 Y 0082.43 E 0088.45
G1 X 0053.77 Y 0082.43 E 0085.37
 G1 X 0052.85 Y 0083.09 E 0088.90
G1 X 0052.85 Y 0083.09 E 0085.83
 G1 X 0051.92 Y 0083.74 E 0089.35
G1 X 0051.92 Y 0083.74 E 0086.28
 G1 X 0050.98 Y 0084.39 E 0089.81
G1 X 0050.98 Y 0084.39 E 0086.73
 G1 X 0050.04 Y 0085.01 E 0090.26
G1 X 0050.04 Y 0085.01 E 0087.19
 G1 X 0049.09 Y 0085.64 E 0090.72
G1 X 0049.09 Y 0085.64 E 0087.64
 G1 X 0048.16 Y 0086.28 E 0091.17
G1 X 0048.16 Y 0086.28 E 0088.10
 G1 X 0047.23 Y 0086.93 E 0091.62
G1 X 0047.23 Y 0086.93 E 0088.55
 G1 X 0046.31 Y 0087.60 E 0092.08
G1 X 0046.31 Y 0087.60 E 0089.00
 G1 X 0045.40 Y 0088.27 E 0092.53
G1 X 0045.40 Y 0088.27 E 0089.46
 G1 X 0044.49 Y 0088.95 E 0092.98
G1 X 0044.49 Y 0088.95 E 0089.91
 G1 X 0043.58 Y 0089.62 E 0093.44
G1 X 0043.58 Y 0089.62 E 0090.36
 G1 X 0042.67 Y 0090.30 E 0093.89
G1 X 0042.67 Y 0090.30 E 0090.82
 G1 X 0041.75 Y 0090.97 E 0094.34
G1 X 0041.75 Y 0090.97 E 0091.27
 G1 X 0040.83 Y 0091.63 E 0094.80
G1 X 0040.83 Y 0091.63 E 0091.72
 G1 X 0039.90 Y 0092.27 E 0095.25
G1 X 0039.90 Y 0092.27 E 0092.18
 G1 X 0038.95 Y 0092.90 E 0095.71
G1 X 0038.95 Y 0092.90 E 0092.63
 G1 X 0037.99 Y 0093.49 E 0096.16
G1 X 0037.99 Y 0093.49 E 0093.08
 G1 X 0037.00 Y 0094.06 E 0096.61
G1 X 0037.00 Y 0094.06 E 0093.54
 G1 X 0036.00 Y 0094.58 E 0097.07
G1 X 0036.00 Y 0094.58 E 0093.99
 G1 X 0034.97 Y 0095.05 E 0097.52
G1 X 0034.97 Y 0095.05 E 0094.45
 G1 X 0033.91 Y 0095.46 E 0097.97
G1 X 0033.91 Y 0095.46 E 0094.90
 G1 X 0032.83 Y 0095.79 E 0098.43
G1 X 0032.83 Y 0095.79 E 0095.35
 G1 X 0031.72 Y 0096.04 E 0098.88
G1 X 0031.72 Y 0096.04 E 0095.81
 G1 X 0030.60 Y 0096.21 E 0099.33
G1 X 0030.60 Y 0096.21 E 0096.26
 G1 X 0029.47 Y 0096.30 E 0099.79
G1 X 0029.47 Y 0096.30 E 0096.71
 G1 X 0028.34 Y 0096.33 E 0100.24
G1 X 0028.34 Y 0096.33 E 0097.17
 G1 X 0027.20 Y 0096.31 E 0100.69
G1 X 0027.20 Y 0096.31 E 0097.62
 G1 X 0026.07 Y 0096.23 E 0101.15
G1 X 0026.07 Y 0096.23 E 0098.07
 G1 X 0024.94 Y 0096.11 E 0101.60
G1 X 0024.94 Y 0096.11 E 0098.53
 G1 X 0023.82 Y 0095.96 E 0102.06
G1 X 0023.82 Y 0095.96 E 0098.98
 G1 X 0022.70 Y 0095.76 E 0102.51
G1 X 0022.70 Y 0095.76 E 0099.43
 G1 X 0021.59 Y 0095.54 E 0102.96
G1 X 0021.59 Y 0095.54 E 0099.89
 G1 X 0020.49 Y 0095.28 E 0103.42
G1 X 0020.49 Y 0095.28 E 0100.34
 G1 X 0019.39 Y 0095.00 E 0103.87
